%
(Fusion CAM 2605.1.39)
( Posts processor: MPCNC v3.0 Beta 3.cps)
( Gcode generated: Saturday, December 20, 2025 8:54:34 PM GMT)
( Document: Untitled)
( Setup: Setup2)
( )
( Ranges Table:)
(   X: Min=-3.62 Max=143.328 Size=146.948)
(   Y: Min=-2.999 Max=250.428 Size=253.427)
(   Z: Min=-17.7 Max=15 Size=32.7)
( )
( Tools Table:)
(  T10 D=6 CR=0 - ZMIN=-17.7 - flat end mill )
( )
( Feedrate and Scaling Properties:)
(   Feed: Travel speed X/Y = 2500)
(   Feed: Travel Speed Z = 300)
(   Feed: Enforce Feedrate = true)
(   Feed: Scale Feedrate = false)
(   Feed: Max XY Cut Speed = 900)
(   Feed: Max Z Cut Speed = 180)
(   Feed: Max Toolpath Speed = 1000)
( )
( G1->G0 Mapping Properties:)
(   Map: First G1 -> G0 Rapid = false)
(   Map: G1s -> G0 Rapids = false)
(   Map: SafeZ Mode = Retract : default = 15)
(   Map: Allow Rapid Z = false)
( )
( *** START begin ***)
( --- Start custom gcode R:\CNC Projects\G-CODE FILES\INC/lowrider_start_file.gcode)
G53 Z0;
G54;
G0 X0 Y0;
G0 Z15 F800;
(undefined)
( *** START end ***)
( )
( *** SECTION begin ***)
(   X Min: -3.62 - X Max: 143.328)
(   Y Min: -2.999 - Y Max: 250.428)
(   Z Min: -17.7 - Z Max: 15)
( 2D Contour2 - Milling - Tool: 10 -  flat end mill)
( COMMAND_START_SPINDLE)
( COMMAND_SPINDLE_CLOCKWISE)
( >>> Spindle Speed 10000)
M3 S10000
( COMMAND_COOLANT_ON)
G0 Z15 F300
X-3.62 Y122.968 F2500
Z5 F300
( MOVEMENT_PLUNGE)
G1 Z1 F333
Z-2.4 F333
( MOVEMENT_LEAD_IN)
X-3.617 Z-2.467 F1200
X-3.605 Y122.967 Z-2.534 F1200
X-3.587 Z-2.598 F1200
X-3.561 Z-2.66 F1200
X-3.528 Z-2.719 F1200
X-3.489 Z-2.774 F1200
X-3.445 Z-2.824 F1200
X-3.394 Z-2.869 F1200
X-3.34 Z-2.908 F1200
X-3.281 Z-2.941 F1200
X-3.219 Z-2.966 F1200
X-3.154 Z-2.985 F1200
X-3.088 Z-2.996 F1200
X-3.02 Z-3 F1200
X-2.42 Y122.966 F1200
G17 G3 X-1.82 Y123.565 I0.001 J0.6 F1200
( MOVEMENT_FINISH_CUTTING)
G2 X-0.087 Y126.28 I3 J-0.004 F1200
G1 X138.416 Y190.865 F1200
G2 X142.684 Y188.146 I1.268 J-2.719 F1200
G1 Y80.718 F1200
G2 X138.797 Y77.852 I-3 F1200
G1 X0.294 Y120.695 F1200
G2 X-1.82 Y123.565 I0.887 J2.866 F1200
( MOVEMENT_LEAD_OUT)
G3 X-2.419 Y124.166 I-0.6 J0.001 F1200
G1 X-3.019 Y124.167 F1200
X-3.086 Z-2.996 F1200
X-3.152 Z-2.985 F1200
X-3.217 Z-2.966 F1200
X-3.279 Z-2.941 F1200
X-3.338 Z-2.908 F1200
X-3.393 Z-2.869 F1200
X-3.443 Z-2.824 F1200
X-3.488 Z-2.774 F1200
X-3.527 Z-2.719 F1200
X-3.559 Z-2.66 F1200
X-3.585 Z-2.598 F1200
X-3.604 Z-2.534 F1200
X-3.615 Z-2.467 F1200
X-3.619 Y124.168 Z-2.4 F1200
( MOVEMENT_RAPID)
G0 Z5 F300
X-3.62 Y122.968 F2500
( MOVEMENT_PLUNGE)
G1 Z-2 F333
Z-5.4 F333
( MOVEMENT_LEAD_IN)
X-3.617 Z-5.467 F1200
X-3.605 Y122.967 Z-5.534 F1200
X-3.587 Z-5.598 F1200
X-3.561 Z-5.66 F1200
X-3.528 Z-5.719 F1200
X-3.489 Z-5.774 F1200
X-3.445 Z-5.824 F1200
X-3.394 Z-5.869 F1200
X-3.34 Z-5.908 F1200
X-3.281 Z-5.941 F1200
X-3.219 Z-5.966 F1200
X-3.154 Z-5.985 F1200
X-3.088 Z-5.996 F1200
X-3.02 Z-6 F1200
X-2.42 Y122.966 F1200
G3 X-1.82 Y123.565 I0.001 J0.6 F1200
( MOVEMENT_FINISH_CUTTING)
G2 X-0.087 Y126.28 I3 J-0.004 F1200
G1 X138.416 Y190.865 F1200
G2 X142.684 Y188.146 I1.268 J-2.719 F1200
G1 Y80.718 F1200
G2 X138.797 Y77.852 I-3 F1200
G1 X0.294 Y120.695 F1200
G2 X-1.82 Y123.565 I0.887 J2.866 F1200
( MOVEMENT_LEAD_OUT)
G3 X-2.419 Y124.166 I-0.6 J0.001 F1200
G1 X-3.019 Y124.167 F1200
X-3.086 Z-5.996 F1200
X-3.152 Z-5.985 F1200
X-3.217 Z-5.966 F1200
X-3.279 Z-5.941 F1200
X-3.338 Z-5.908 F1200
X-3.393 Z-5.869 F1200
X-3.443 Z-5.824 F1200
X-3.488 Z-5.774 F1200
X-3.527 Z-5.719 F1200
X-3.559 Z-5.66 F1200
X-3.585 Z-5.598 F1200
X-3.604 Z-5.534 F1200
X-3.615 Z-5.467 F1200
X-3.619 Y124.168 Z-5.4 F1200
( MOVEMENT_RAPID)
G0 Z5 F300
X-3.62 Y122.968 F2500
( MOVEMENT_PLUNGE)
G1 Z-5 F333
Z-8.4 F333
( MOVEMENT_LEAD_IN)
X-3.617 Z-8.467 F1200
X-3.605 Y122.967 Z-8.534 F1200
X-3.587 Z-8.598 F1200
X-3.561 Z-8.66 F1200
X-3.528 Z-8.719 F1200
X-3.489 Z-8.774 F1200
X-3.445 Z-8.824 F1200
X-3.394 Z-8.869 F1200
X-3.34 Z-8.908 F1200
X-3.281 Z-8.941 F1200
X-3.219 Z-8.966 F1200
X-3.154 Z-8.985 F1200
X-3.088 Z-8.996 F1200
X-3.02 Z-9 F1200
X-2.42 Y122.966 F1200
G3 X-1.82 Y123.565 I0.001 J0.6 F1200
( MOVEMENT_FINISH_CUTTING)
G2 X-0.087 Y126.28 I3 J-0.004 F1200
G1 X138.416 Y190.865 F1200
G2 X142.684 Y188.146 I1.268 J-2.719 F1200
G1 Y80.718 F1200
G2 X138.797 Y77.852 I-3 F1200
G1 X0.294 Y120.695 F1200
G2 X-1.82 Y123.565 I0.887 J2.866 F1200
( MOVEMENT_LEAD_OUT)
G3 X-2.419 Y124.166 I-0.6 J0.001 F1200
G1 X-3.019 Y124.167 F1200
X-3.086 Z-8.996 F1200
X-3.152 Z-8.985 F1200
X-3.217 Z-8.966 F1200
X-3.279 Z-8.941 F1200
X-3.338 Z-8.908 F1200
X-3.393 Z-8.869 F1200
X-3.443 Z-8.824 F1200
X-3.488 Z-8.774 F1200
X-3.527 Z-8.719 F1200
X-3.559 Z-8.66 F1200
X-3.585 Z-8.598 F1200
X-3.604 Z-8.534 F1200
X-3.615 Z-8.467 F1200
X-3.619 Y124.168 Z-8.4 F1200
( MOVEMENT_RAPID)
G0 Z5 F300
X-3.62 Y122.968 F2500
( MOVEMENT_PLUNGE)
G1 Z-8 F333
Z-11.4 F333
( MOVEMENT_LEAD_IN)
X-3.617 Z-11.467 F1200
X-3.605 Y122.967 Z-11.534 F1200
X-3.587 Z-11.598 F1200
X-3.561 Z-11.66 F1200
X-3.528 Z-11.719 F1200
X-3.489 Z-11.774 F1200
X-3.445 Z-11.824 F1200
X-3.394 Z-11.869 F1200
X-3.34 Z-11.908 F1200
X-3.281 Z-11.941 F1200
X-3.219 Z-11.966 F1200
X-3.154 Z-11.985 F1200
X-3.088 Z-11.996 F1200
X-3.02 Z-12 F1200
X-2.42 Y122.966 F1200
G3 X-1.82 Y123.565 I0.001 J0.6 F1200
( MOVEMENT_FINISH_CUTTING)
G2 X-0.087 Y126.28 I3 J-0.004 F1200
G1 X138.416 Y190.865 F1200
G2 X142.684 Y188.146 I1.268 J-2.719 F1200
G1 Y80.718 F1200
G2 X138.797 Y77.852 I-3 F1200
G1 X0.294 Y120.695 F1200
G2 X-1.82 Y123.565 I0.887 J2.866 F1200
( MOVEMENT_LEAD_OUT)
G3 X-2.419 Y124.166 I-0.6 J0.001 F1200
G1 X-3.019 Y124.167 F1200
X-3.086 Z-11.996 F1200
X-3.152 Z-11.985 F1200
X-3.217 Z-11.966 F1200
X-3.279 Z-11.941 F1200
X-3.338 Z-11.908 F1200
X-3.393 Z-11.869 F1200
X-3.443 Z-11.824 F1200
X-3.488 Z-11.774 F1200
X-3.527 Z-11.719 F1200
X-3.559 Z-11.66 F1200
X-3.585 Z-11.598 F1200
X-3.604 Z-11.534 F1200
X-3.615 Z-11.467 F1200
X-3.619 Y124.168 Z-11.4 F1200
( MOVEMENT_RAPID)
G0 Z5 F300
X-3.62 Y122.968 F2500
( MOVEMENT_PLUNGE)
G1 Z-11 F333
Z-14.4 F333
( MOVEMENT_LEAD_IN)
X-3.617 Z-14.467 F1200
X-3.605 Y122.967 Z-14.534 F1200
X-3.587 Z-14.598 F1200
X-3.561 Z-14.66 F1200
X-3.528 Z-14.719 F1200
X-3.489 Z-14.774 F1200
X-3.445 Z-14.824 F1200
X-3.394 Z-14.869 F1200
X-3.34 Z-14.908 F1200
X-3.281 Z-14.941 F1200
X-3.219 Z-14.966 F1200
X-3.154 Z-14.985 F1200
X-3.088 Z-14.996 F1200
X-3.02 Z-15 F1200
X-2.42 Y122.966 F1200
G3 X-1.82 Y123.565 I0.001 J0.6 F1200
( MOVEMENT_FINISH_CUTTING)
G2 X-0.087 Y126.28 I3 J-0.004 F1200
G1 X18.843 Y135.107 F1200
X20.928 Y136.079 Z-12.7 F1200
X26.366 Y138.615 F1200
( MOVEMENT_PLUNGE)
X28.45 Y139.587 Z-15 F333
( MOVEMENT_FINISH_CUTTING)
X64.751 Y156.514 F1200
X66.835 Y157.486 Z-12.7 F1200
X72.273 Y160.022 F1200
( MOVEMENT_PLUNGE)
X74.358 Y160.994 Z-15 F333
( MOVEMENT_FINISH_CUTTING)
X110.659 Y177.922 F1200
X112.743 Y178.894 Z-12.7 F1200
X118.181 Y181.429 F1200
( MOVEMENT_PLUNGE)
X120.266 Y182.401 Z-15 F333
( MOVEMENT_FINISH_CUTTING)
X138.416 Y190.865 F1200
G2 X142.684 Y188.146 I1.268 J-2.719 F1200
G1 Y168.119 F1200
Y165.819 Z-12.7 F1200
Y159.819 F1200
( MOVEMENT_PLUNGE)
Y157.519 Z-15 F333
( MOVEMENT_FINISH_CUTTING)
Y117.466 F1200
Y115.166 Z-12.7 F1200
Y109.166 F1200
( MOVEMENT_PLUNGE)
Y106.866 Z-15 F333
( MOVEMENT_FINISH_CUTTING)
Y80.718 F1200
G2 X138.797 Y77.852 I-3 F1200
G1 X125.513 Y81.961 F1200
X123.315 Y82.641 Z-12.7 F1200
X117.583 Y84.414 F1200
( MOVEMENT_PLUNGE)
X115.386 Y85.094 Z-15 F333
( MOVEMENT_FINISH_CUTTING)
X77.122 Y96.93 F1200
X74.924 Y97.61 Z-12.7 F1200
X69.192 Y99.383 F1200
( MOVEMENT_PLUNGE)
X66.995 Y100.062 Z-15 F333
( MOVEMENT_FINISH_CUTTING)
X28.73 Y111.899 F1200
X26.533 Y112.579 Z-12.7 F1200
X20.801 Y114.352 F1200
( MOVEMENT_PLUNGE)
X18.604 Y115.031 Z-15 F333
( MOVEMENT_FINISH_CUTTING)
X0.294 Y120.695 F1200
G2 X-1.82 Y123.565 I0.887 J2.866 F1200
( MOVEMENT_LEAD_OUT)
G3 X-2.419 Y124.166 I-0.6 J0.001 F1200
G1 X-3.019 Y124.167 F1200
X-3.086 Z-14.996 F1200
X-3.152 Z-14.985 F1200
X-3.217 Z-14.966 F1200
X-3.279 Z-14.941 F1200
X-3.338 Z-14.908 F1200
X-3.393 Z-14.869 F1200
X-3.443 Z-14.824 F1200
X-3.488 Z-14.774 F1200
X-3.527 Z-14.719 F1200
X-3.559 Z-14.66 F1200
X-3.585 Z-14.598 F1200
X-3.604 Z-14.534 F1200
X-3.615 Z-14.467 F1200
X-3.619 Y124.168 Z-14.4 F1200
( MOVEMENT_RAPID)
G0 Z5 F300
X-3.62 Y122.968 F2500
( MOVEMENT_PLUNGE)
G1 Z-14 F333
Z-17.1 F333
( MOVEMENT_LEAD_IN)
X-3.617 Z-17.167 F1200
X-3.605 Y122.967 Z-17.234 F1200
X-3.587 Z-17.298 F1200
X-3.561 Z-17.36 F1200
X-3.528 Z-17.419 F1200
X-3.489 Z-17.474 F1200
X-3.445 Z-17.524 F1200
X-3.394 Z-17.569 F1200
X-3.34 Z-17.608 F1200
X-3.281 Z-17.641 F1200
X-3.219 Z-17.666 F1200
X-3.154 Z-17.685 F1200
X-3.088 Z-17.696 F1200
X-3.02 Z-17.7 F1200
X-2.42 Y122.966 F1200
G3 X-1.82 Y123.565 I0.001 J0.6 F1200
( MOVEMENT_FINISH_CUTTING)
G2 X-0.087 Y126.28 I3 J-0.004 F1200
G1 X16.396 Y133.966 F1200
X20.928 Y136.079 Z-12.7 F1200
X26.366 Y138.615 F1200
( MOVEMENT_PLUNGE)
X30.897 Y140.728 Z-17.7 F333
( MOVEMENT_FINISH_CUTTING)
X62.304 Y155.373 F1200
X66.835 Y157.486 Z-12.7 F1200
X72.273 Y160.022 F1200
( MOVEMENT_PLUNGE)
X76.805 Y162.135 Z-17.7 F333
( MOVEMENT_FINISH_CUTTING)
X108.212 Y176.781 F1200
X112.743 Y178.894 Z-12.7 F1200
X118.181 Y181.429 F1200
( MOVEMENT_PLUNGE)
X122.713 Y183.542 Z-17.7 F333
( MOVEMENT_FINISH_CUTTING)
X138.416 Y190.865 F1200
G2 X142.684 Y188.146 I1.268 J-2.719 F1200
G1 Y170.819 F1200
Y165.819 Z-12.7 F1200
Y159.819 F1200
( MOVEMENT_PLUNGE)
Y154.819 Z-17.7 F333
( MOVEMENT_FINISH_CUTTING)
Y120.166 F1200
Y115.166 Z-12.7 F1200
Y109.166 F1200
( MOVEMENT_PLUNGE)
Y104.166 Z-17.7 F333
( MOVEMENT_FINISH_CUTTING)
Y80.718 F1200
G2 X138.797 Y77.852 I-3 F1200
G1 X128.092 Y81.163 F1200
X123.315 Y82.641 Z-12.7 F1200
X117.583 Y84.414 F1200
( MOVEMENT_PLUNGE)
X112.807 Y85.892 Z-17.7 F333
( MOVEMENT_FINISH_CUTTING)
X79.701 Y96.132 F1200
X74.924 Y97.61 Z-12.7 F1200
X69.192 Y99.383 F1200
( MOVEMENT_PLUNGE)
X64.416 Y100.86 Z-17.7 F333
( MOVEMENT_FINISH_CUTTING)
X31.31 Y111.101 F1200
X26.533 Y112.579 Z-12.7 F1200
X20.801 Y114.352 F1200
( MOVEMENT_PLUNGE)
X16.024 Y115.829 Z-17.7 F333
( MOVEMENT_FINISH_CUTTING)
X0.294 Y120.695 F1200
G2 X-1.82 Y123.565 I0.887 J2.866 F1200
( MOVEMENT_LEAD_OUT)
G3 X-2.419 Y124.166 I-0.6 J0.001 F1200
G1 X-3.019 Y124.167 F1200
X-3.086 Z-17.696 F1200
X-3.152 Z-17.685 F1200
X-3.217 Z-17.666 F1200
X-3.279 Z-17.641 F1200
X-3.338 Z-17.608 F1200
X-3.393 Z-17.569 F1200
X-3.443 Z-17.524 F1200
X-3.488 Z-17.474 F1200
X-3.527 Z-17.419 F1200
X-3.559 Z-17.36 F1200
X-3.585 Z-17.298 F1200
X-3.604 Z-17.234 F1200
X-3.615 Z-17.167 F1200
X-3.619 Y124.168 Z-17.1 F1200
( MOVEMENT_RAPID)
G0 Z5 F300
X143.269 Y205.412 F2500
( MOVEMENT_PLUNGE)
G1 Z1 F333
Z-2.4 F333
( MOVEMENT_LEAD_IN)
X143.265 Z-2.467 F1200
X143.254 Y205.411 Z-2.534 F1200
X143.236 Y205.41 Z-2.598 F1200
X143.21 Y205.409 Z-2.66 F1200
X143.177 Y205.408 Z-2.719 F1200
X143.138 Y205.406 Z-2.774 F1200
X143.094 Y205.404 Z-2.824 F1200
X143.043 Y205.401 Z-2.869 F1200
X142.989 Y205.399 Z-2.908 F1200
X142.93 Y205.396 Z-2.941 F1200
X142.868 Y205.393 Z-2.966 F1200
X142.803 Y205.39 Z-2.985 F1200
X142.737 Y205.387 Z-2.996 F1200
X142.67 Y205.384 Z-3 F1200
X142.07 Y205.355 F1200
G3 X141.5 Y204.727 I0.028 J-0.599 F1200
( MOVEMENT_FINISH_CUTTING)
G2 X139.771 Y201.866 I-2.997 J-0.142 F1200
G1 X1.268 Y137.281 F1200
G2 X-3 Y140 I-1.268 J2.719 F1200
G1 Y247.428 F1200
G2 X0.887 Y250.294 I3 F1200
G1 X139.39 Y207.451 F1200
G2 X141.5 Y204.727 I-0.887 J-2.866 F1200
( MOVEMENT_LEAD_OUT)
G3 X142.127 Y204.156 I0.599 J0.028 F1200
G1 X142.727 Y204.185 F1200
X142.794 Y204.188 Z-2.996 F1200
X142.86 Y204.191 Z-2.985 F1200
X142.925 Y204.194 Z-2.966 F1200
X142.987 Y204.197 Z-2.941 F1200
X143.046 Y204.2 Z-2.908 F1200
X143.1 Y204.203 Z-2.869 F1200
X143.151 Y204.205 Z-2.824 F1200
X143.195 Y204.207 Z-2.774 F1200
X143.234 Y204.209 Z-2.719 F1200
X143.267 Y204.211 Z-2.66 F1200
X143.292 Y204.212 Z-2.598 F1200
X143.311 Y204.213 Z-2.534 F1200
X143.322 Z-2.467 F1200
X143.326 Z-2.4 F1200
( MOVEMENT_RAPID)
G0 Z5 F300
X143.269 Y205.412 F2500
( MOVEMENT_PLUNGE)
G1 Z-2 F333
Z-5.4 F333
( MOVEMENT_LEAD_IN)
X143.265 Z-5.467 F1200
X143.254 Y205.411 Z-5.534 F1200
X143.236 Y205.41 Z-5.598 F1200
X143.21 Y205.409 Z-5.66 F1200
X143.177 Y205.408 Z-5.719 F1200
X143.138 Y205.406 Z-5.774 F1200
X143.094 Y205.404 Z-5.824 F1200
X143.043 Y205.401 Z-5.869 F1200
X142.989 Y205.399 Z-5.908 F1200
X142.93 Y205.396 Z-5.941 F1200
X142.868 Y205.393 Z-5.966 F1200
X142.803 Y205.39 Z-5.985 F1200
X142.737 Y205.387 Z-5.996 F1200
X142.67 Y205.384 Z-6 F1200
X142.07 Y205.355 F1200
G3 X141.5 Y204.727 I0.028 J-0.599 F1200
( MOVEMENT_FINISH_CUTTING)
G2 X139.771 Y201.866 I-2.997 J-0.142 F1200
G1 X1.268 Y137.281 F1200
G2 X-3 Y140 I-1.268 J2.719 F1200
G1 Y247.428 F1200
G2 X0.887 Y250.294 I3 F1200
G1 X139.39 Y207.451 F1200
G2 X141.5 Y204.727 I-0.887 J-2.866 F1200
( MOVEMENT_LEAD_OUT)
G3 X142.127 Y204.156 I0.599 J0.028 F1200
G1 X142.727 Y204.185 F1200
X142.794 Y204.188 Z-5.996 F1200
X142.86 Y204.191 Z-5.985 F1200
X142.925 Y204.194 Z-5.966 F1200
X142.987 Y204.197 Z-5.941 F1200
X143.046 Y204.2 Z-5.908 F1200
X143.1 Y204.203 Z-5.869 F1200
X143.151 Y204.205 Z-5.824 F1200
X143.195 Y204.207 Z-5.774 F1200
X143.234 Y204.209 Z-5.719 F1200
X143.267 Y204.211 Z-5.66 F1200
X143.292 Y204.212 Z-5.598 F1200
X143.311 Y204.213 Z-5.534 F1200
X143.322 Z-5.467 F1200
X143.326 Z-5.4 F1200
( MOVEMENT_RAPID)
G0 Z5 F300
X143.269 Y205.412 F2500
( MOVEMENT_PLUNGE)
G1 Z-5 F333
Z-8.4 F333
( MOVEMENT_LEAD_IN)
X143.265 Z-8.467 F1200
X143.254 Y205.411 Z-8.534 F1200
X143.236 Y205.41 Z-8.598 F1200
X143.21 Y205.409 Z-8.66 F1200
X143.177 Y205.408 Z-8.719 F1200
X143.138 Y205.406 Z-8.774 F1200
X143.094 Y205.404 Z-8.824 F1200
X143.043 Y205.401 Z-8.869 F1200
X142.989 Y205.399 Z-8.908 F1200
X142.93 Y205.396 Z-8.941 F1200
X142.868 Y205.393 Z-8.966 F1200
X142.803 Y205.39 Z-8.985 F1200
X142.737 Y205.387 Z-8.996 F1200
X142.67 Y205.384 Z-9 F1200
X142.07 Y205.355 F1200
G3 X141.5 Y204.727 I0.028 J-0.599 F1200
( MOVEMENT_FINISH_CUTTING)
G2 X139.771 Y201.866 I-2.997 J-0.142 F1200
G1 X1.268 Y137.281 F1200
G2 X-3 Y140 I-1.268 J2.719 F1200
G1 Y247.428 F1200
G2 X0.887 Y250.294 I3 F1200
G1 X139.39 Y207.451 F1200
G2 X141.5 Y204.727 I-0.887 J-2.866 F1200
( MOVEMENT_LEAD_OUT)
G3 X142.127 Y204.156 I0.599 J0.028 F1200
G1 X142.727 Y204.185 F1200
X142.794 Y204.188 Z-8.996 F1200
X142.86 Y204.191 Z-8.985 F1200
X142.925 Y204.194 Z-8.966 F1200
X142.987 Y204.197 Z-8.941 F1200
X143.046 Y204.2 Z-8.908 F1200
X143.1 Y204.203 Z-8.869 F1200
X143.151 Y204.205 Z-8.824 F1200
X143.195 Y204.207 Z-8.774 F1200
X143.234 Y204.209 Z-8.719 F1200
X143.267 Y204.211 Z-8.66 F1200
X143.292 Y204.212 Z-8.598 F1200
X143.311 Y204.213 Z-8.534 F1200
X143.322 Z-8.467 F1200
X143.326 Z-8.4 F1200
( MOVEMENT_RAPID)
G0 Z5 F300
X143.269 Y205.412 F2500
( MOVEMENT_PLUNGE)
G1 Z-8 F333
Z-11.4 F333
( MOVEMENT_LEAD_IN)
X143.265 Z-11.467 F1200
X143.254 Y205.411 Z-11.534 F1200
X143.236 Y205.41 Z-11.598 F1200
X143.21 Y205.409 Z-11.66 F1200
X143.177 Y205.408 Z-11.719 F1200
X143.138 Y205.406 Z-11.774 F1200
X143.094 Y205.404 Z-11.824 F1200
X143.043 Y205.401 Z-11.869 F1200
X142.989 Y205.399 Z-11.908 F1200
X142.93 Y205.396 Z-11.941 F1200
X142.868 Y205.393 Z-11.966 F1200
X142.803 Y205.39 Z-11.985 F1200
X142.737 Y205.387 Z-11.996 F1200
X142.67 Y205.384 Z-12 F1200
X142.07 Y205.355 F1200
G3 X141.5 Y204.727 I0.028 J-0.599 F1200
( MOVEMENT_FINISH_CUTTING)
G2 X139.771 Y201.866 I-2.997 J-0.142 F1200
G1 X1.268 Y137.281 F1200
G2 X-3 Y140 I-1.268 J2.719 F1200
G1 Y247.428 F1200
G2 X0.887 Y250.294 I3 F1200
G1 X139.39 Y207.451 F1200
G2 X141.5 Y204.727 I-0.887 J-2.866 F1200
( MOVEMENT_LEAD_OUT)
G3 X142.127 Y204.156 I0.599 J0.028 F1200
G1 X142.727 Y204.185 F1200
X142.794 Y204.188 Z-11.996 F1200
X142.86 Y204.191 Z-11.985 F1200
X142.925 Y204.194 Z-11.966 F1200
X142.987 Y204.197 Z-11.941 F1200
X143.046 Y204.2 Z-11.908 F1200
X143.1 Y204.203 Z-11.869 F1200
X143.151 Y204.205 Z-11.824 F1200
X143.195 Y204.207 Z-11.774 F1200
X143.234 Y204.209 Z-11.719 F1200
X143.267 Y204.211 Z-11.66 F1200
X143.292 Y204.212 Z-11.598 F1200
X143.311 Y204.213 Z-11.534 F1200
X143.322 Z-11.467 F1200
X143.326 Z-11.4 F1200
( MOVEMENT_RAPID)
G0 Z5 F300
X143.269 Y205.412 F2500
( MOVEMENT_PLUNGE)
G1 Z-11 F333
Z-14.4 F333
( MOVEMENT_LEAD_IN)
X143.265 Z-14.467 F1200
X143.254 Y205.411 Z-14.534 F1200
X143.236 Y205.41 Z-14.598 F1200
X143.21 Y205.409 Z-14.66 F1200
X143.177 Y205.408 Z-14.719 F1200
X143.138 Y205.406 Z-14.774 F1200
X143.094 Y205.404 Z-14.824 F1200
X143.043 Y205.401 Z-14.869 F1200
X142.989 Y205.399 Z-14.908 F1200
X142.93 Y205.396 Z-14.941 F1200
X142.868 Y205.393 Z-14.966 F1200
X142.803 Y205.39 Z-14.985 F1200
X142.737 Y205.387 Z-14.996 F1200
X142.67 Y205.384 Z-15 F1200
X142.07 Y205.355 F1200
G3 X141.5 Y204.727 I0.028 J-0.599 F1200
( MOVEMENT_FINISH_CUTTING)
G2 X139.771 Y201.866 I-2.997 J-0.142 F1200
G1 X121.621 Y193.403 F1200
X119.537 Y192.431 Z-12.7 F1200
X114.099 Y189.895 F1200
( MOVEMENT_PLUNGE)
X112.014 Y188.923 Z-15 F333
( MOVEMENT_FINISH_CUTTING)
X75.713 Y171.996 F1200
X73.629 Y171.024 Z-12.7 F1200
X68.191 Y168.488 F1200
( MOVEMENT_PLUNGE)
X66.106 Y167.516 Z-15 F333
( MOVEMENT_FINISH_CUTTING)
X29.805 Y150.588 F1200
X27.721 Y149.616 Z-12.7 F1200
X22.283 Y147.081 F1200
( MOVEMENT_PLUNGE)
X20.198 Y146.109 Z-15 F333
( MOVEMENT_FINISH_CUTTING)
X1.268 Y137.281 F1200
G2 X-3 Y140 I-1.268 J2.719 F1200
G1 Y159.166 F1200
Y161.466 Z-12.7 F1200
Y167.466 F1200
( MOVEMENT_PLUNGE)
Y169.766 Z-15 F333
( MOVEMENT_FINISH_CUTTING)
Y209.819 F1200
Y212.119 Z-12.7 F1200
Y218.119 F1200
( MOVEMENT_PLUNGE)
Y220.419 Z-15 F333
( MOVEMENT_FINISH_CUTTING)
Y247.428 F1200
G2 X0.887 Y250.294 I3 F1200
G1 X13.349 Y246.439 F1200
X15.546 Y245.759 Z-12.7 F1200
X21.278 Y243.986 F1200
( MOVEMENT_PLUNGE)
X23.475 Y243.307 Z-15 F333
( MOVEMENT_FINISH_CUTTING)
X61.74 Y231.47 F1200
X63.937 Y230.791 Z-12.7 F1200
X69.669 Y229.018 F1200
( MOVEMENT_PLUNGE)
X71.866 Y228.338 Z-15 F333
( MOVEMENT_FINISH_CUTTING)
X110.131 Y216.502 F1200
X112.328 Y215.822 Z-12.7 F1200
X118.06 Y214.049 F1200
( MOVEMENT_PLUNGE)
X120.258 Y213.369 Z-15 F333
( MOVEMENT_FINISH_CUTTING)
X139.39 Y207.451 F1200
G2 X141.5 Y204.727 I-0.887 J-2.866 F1200
( MOVEMENT_LEAD_OUT)
G3 X142.127 Y204.156 I0.599 J0.028 F1200
G1 X142.727 Y204.185 F1200
X142.794 Y204.188 Z-14.996 F1200
X142.86 Y204.191 Z-14.985 F1200
X142.925 Y204.194 Z-14.966 F1200
X142.987 Y204.197 Z-14.941 F1200
X143.046 Y204.2 Z-14.908 F1200
X143.1 Y204.203 Z-14.869 F1200
X143.151 Y204.205 Z-14.824 F1200
X143.195 Y204.207 Z-14.774 F1200
X143.234 Y204.209 Z-14.719 F1200
X143.267 Y204.211 Z-14.66 F1200
X143.292 Y204.212 Z-14.598 F1200
X143.311 Y204.213 Z-14.534 F1200
X143.322 Z-14.467 F1200
X143.326 Z-14.4 F1200
( MOVEMENT_RAPID)
G0 Z5 F300
X143.269 Y205.412 F2500
( MOVEMENT_PLUNGE)
G1 Z-14 F333
Z-17.1 F333
( MOVEMENT_LEAD_IN)
X143.265 Z-17.167 F1200
X143.254 Y205.411 Z-17.234 F1200
X143.236 Y205.41 Z-17.298 F1200
X143.21 Y205.409 Z-17.36 F1200
X143.177 Y205.408 Z-17.419 F1200
X143.138 Y205.406 Z-17.474 F1200
X143.094 Y205.404 Z-17.524 F1200
X143.043 Y205.401 Z-17.569 F1200
X142.989 Y205.399 Z-17.608 F1200
X142.93 Y205.396 Z-17.641 F1200
X142.868 Y205.393 Z-17.666 F1200
X142.803 Y205.39 Z-17.685 F1200
X142.737 Y205.387 Z-17.696 F1200
X142.67 Y205.384 Z-17.7 F1200
X142.07 Y205.355 F1200
G3 X141.5 Y204.727 I0.028 J-0.599 F1200
( MOVEMENT_FINISH_CUTTING)
G2 X139.771 Y201.866 I-2.997 J-0.142 F1200
G1 X124.068 Y194.544 F1200
X119.537 Y192.431 Z-12.7 F1200
X114.099 Y189.895 F1200
( MOVEMENT_PLUNGE)
X109.567 Y187.782 Z-17.7 F333
( MOVEMENT_FINISH_CUTTING)
X78.16 Y173.137 F1200
X73.629 Y171.024 Z-12.7 F1200
X68.191 Y168.488 F1200
( MOVEMENT_PLUNGE)
X63.659 Y166.375 Z-17.7 F333
( MOVEMENT_FINISH_CUTTING)
X32.252 Y151.729 F1200
X27.721 Y149.616 Z-12.7 F1200
X22.283 Y147.081 F1200
( MOVEMENT_PLUNGE)
X17.751 Y144.967 Z-17.7 F333
( MOVEMENT_FINISH_CUTTING)
X1.268 Y137.281 F1200
G2 X-3 Y140 I-1.268 J2.719 F1200
G1 Y156.466 F1200
Y161.466 Z-12.7 F1200
Y167.466 F1200
( MOVEMENT_PLUNGE)
Y172.466 Z-17.7 F333
( MOVEMENT_FINISH_CUTTING)
Y207.119 F1200
Y212.119 Z-12.7 F1200
Y218.119 F1200
( MOVEMENT_PLUNGE)
Y223.119 Z-17.7 F333
( MOVEMENT_FINISH_CUTTING)
Y247.428 F1200
G2 X0.887 Y250.294 I3 F1200
G1 X10.769 Y247.237 F1200
X15.546 Y245.759 Z-12.7 F1200
X21.278 Y243.986 F1200
( MOVEMENT_PLUNGE)
X26.055 Y242.509 Z-17.7 F333
( MOVEMENT_FINISH_CUTTING)
X59.16 Y232.268 F1200
X63.937 Y230.791 Z-12.7 F1200
X69.669 Y229.018 F1200
( MOVEMENT_PLUNGE)
X74.446 Y227.54 Z-17.7 F333
( MOVEMENT_FINISH_CUTTING)
X107.552 Y217.299 F1200
X112.328 Y215.822 Z-12.7 F1200
X118.06 Y214.049 F1200
( MOVEMENT_PLUNGE)
X122.837 Y212.571 Z-17.7 F333
( MOVEMENT_FINISH_CUTTING)
X139.39 Y207.451 F1200
G2 X141.5 Y204.727 I-0.887 J-2.866 F1200
( MOVEMENT_LEAD_OUT)
G3 X142.127 Y204.156 I0.599 J0.028 F1200
G1 X142.727 Y204.185 F1200
X142.794 Y204.188 Z-17.696 F1200
X142.86 Y204.191 Z-17.685 F1200
X142.925 Y204.194 Z-17.666 F1200
X142.987 Y204.197 Z-17.641 F1200
X143.046 Y204.2 Z-17.608 F1200
X143.1 Y204.203 Z-17.569 F1200
X143.151 Y204.205 Z-17.524 F1200
X143.195 Y204.207 Z-17.474 F1200
X143.234 Y204.209 Z-17.419 F1200
X143.267 Y204.211 Z-17.36 F1200
X143.292 Y204.212 Z-17.298 F1200
X143.311 Y204.213 Z-17.234 F1200
X143.322 Z-17.167 F1200
X143.326 Z-17.1 F1200
( MOVEMENT_RAPID)
G0 Z5 F300
X143.328 Y64.937 F2500
( MOVEMENT_PLUNGE)
G1 Z1 F333
Z-2.4 F333
( MOVEMENT_LEAD_IN)
X143.324 Z-2.467 F1200
X143.313 Y64.938 Z-2.534 F1200
X143.294 Y64.939 Z-2.598 F1200
X143.268 Y64.94 Z-2.66 F1200
X143.236 Y64.942 Z-2.719 F1200
X143.197 Y64.944 Z-2.774 F1200
X143.152 Y64.946 Z-2.824 F1200
X143.102 Y64.949 Z-2.869 F1200
X143.047 Y64.951 Z-2.908 F1200
X142.988 Y64.954 Z-2.941 F1200
X142.926 Y64.958 Z-2.966 F1200
X142.862 Y64.961 Z-2.985 F1200
X142.795 Y64.964 Z-2.996 F1200
X142.728 Y64.968 Z-3 F1200
X142.129 Y64.999 F1200
G3 X141.499 Y64.431 I-0.031 J-0.599 F1200
( MOVEMENT_FINISH_CUTTING)
G2 X139.771 Y61.866 I-2.996 J0.155 F1200
G1 X1.268 Y-2.719 F1200
G2 X-3 Y0 I-1.268 J2.719 F1200
G1 Y107.428 F1200
G2 X0.887 Y110.294 I3 F1200
G1 X139.39 Y67.451 F1200
G2 X141.499 Y64.431 I-0.887 J-2.866 F1200
( MOVEMENT_LEAD_OUT)
G3 X142.067 Y63.8 I0.599 J-0.031 F1200
G1 X142.666 Y63.769 F1200
X142.734 Y63.766 Z-2.996 F1200
X142.8 Y63.763 Z-2.985 F1200
X142.864 Y63.759 Z-2.966 F1200
X142.926 Y63.756 Z-2.941 F1200
X142.985 Y63.753 Z-2.908 F1200
X143.04 Y63.75 Z-2.869 F1200
X143.09 Y63.748 Z-2.824 F1200
X143.135 Y63.745 Z-2.774 F1200
X143.174 Y63.743 Z-2.719 F1200
X143.206 Y63.742 Z-2.66 F1200
X143.232 Y63.74 Z-2.598 F1200
X143.251 Y63.739 Z-2.534 F1200
X143.262 Z-2.467 F1200
X143.266 Z-2.4 F1200
( MOVEMENT_RAPID)
G0 Z5 F300
X143.328 Y64.937 F2500
( MOVEMENT_PLUNGE)
G1 Z-2 F333
Z-5.4 F333
( MOVEMENT_LEAD_IN)
X143.324 Z-5.467 F1200
X143.313 Y64.938 Z-5.534 F1200
X143.294 Y64.939 Z-5.598 F1200
X143.268 Y64.94 Z-5.66 F1200
X143.236 Y64.942 Z-5.719 F1200
X143.197 Y64.944 Z-5.774 F1200
X143.152 Y64.946 Z-5.824 F1200
X143.102 Y64.949 Z-5.869 F1200
X143.047 Y64.951 Z-5.908 F1200
X142.988 Y64.954 Z-5.941 F1200
X142.926 Y64.958 Z-5.966 F1200
X142.862 Y64.961 Z-5.985 F1200
X142.795 Y64.964 Z-5.996 F1200
X142.728 Y64.968 Z-6 F1200
X142.129 Y64.999 F1200
G3 X141.499 Y64.431 I-0.031 J-0.599 F1200
( MOVEMENT_FINISH_CUTTING)
G2 X139.771 Y61.866 I-2.996 J0.155 F1200
G1 X1.268 Y-2.719 F1200
G2 X-3 Y0 I-1.268 J2.719 F1200
G1 Y107.428 F1200
G2 X0.887 Y110.294 I3 F1200
G1 X139.39 Y67.451 F1200
G2 X141.499 Y64.431 I-0.887 J-2.866 F1200
( MOVEMENT_LEAD_OUT)
G3 X142.067 Y63.8 I0.599 J-0.031 F1200
G1 X142.666 Y63.769 F1200
X142.734 Y63.766 Z-5.996 F1200
X142.8 Y63.763 Z-5.985 F1200
X142.864 Y63.759 Z-5.966 F1200
X142.926 Y63.756 Z-5.941 F1200
X142.985 Y63.753 Z-5.908 F1200
X143.04 Y63.75 Z-5.869 F1200
X143.09 Y63.748 Z-5.824 F1200
X143.135 Y63.745 Z-5.774 F1200
X143.174 Y63.743 Z-5.719 F1200
X143.206 Y63.742 Z-5.66 F1200
X143.232 Y63.74 Z-5.598 F1200
X143.251 Y63.739 Z-5.534 F1200
X143.262 Z-5.467 F1200
X143.266 Z-5.4 F1200
( MOVEMENT_RAPID)
G0 Z5 F300
X143.328 Y64.937 F2500
( MOVEMENT_PLUNGE)
G1 Z-5 F333
Z-8.4 F333
( MOVEMENT_LEAD_IN)
X143.324 Z-8.467 F1200
X143.313 Y64.938 Z-8.534 F1200
X143.294 Y64.939 Z-8.598 F1200
X143.268 Y64.94 Z-8.66 F1200
X143.236 Y64.942 Z-8.719 F1200
X143.197 Y64.944 Z-8.774 F1200
X143.152 Y64.946 Z-8.824 F1200
X143.102 Y64.949 Z-8.869 F1200
X143.047 Y64.951 Z-8.908 F1200
X142.988 Y64.954 Z-8.941 F1200
X142.926 Y64.958 Z-8.966 F1200
X142.862 Y64.961 Z-8.985 F1200
X142.795 Y64.964 Z-8.996 F1200
X142.728 Y64.968 Z-9 F1200
X142.129 Y64.999 F1200
G3 X141.499 Y64.431 I-0.031 J-0.599 F1200
( MOVEMENT_FINISH_CUTTING)
G2 X139.771 Y61.866 I-2.996 J0.155 F1200
G1 X1.268 Y-2.719 F1200
G2 X-3 Y0 I-1.268 J2.719 F1200
G1 Y107.428 F1200
G2 X0.887 Y110.294 I3 F1200
G1 X139.39 Y67.451 F1200
G2 X141.499 Y64.431 I-0.887 J-2.866 F1200
( MOVEMENT_LEAD_OUT)
G3 X142.067 Y63.8 I0.599 J-0.031 F1200
G1 X142.666 Y63.769 F1200
X142.734 Y63.766 Z-8.996 F1200
X142.8 Y63.763 Z-8.985 F1200
X142.864 Y63.759 Z-8.966 F1200
X142.926 Y63.756 Z-8.941 F1200
X142.985 Y63.753 Z-8.908 F1200
X143.04 Y63.75 Z-8.869 F1200
X143.09 Y63.748 Z-8.824 F1200
X143.135 Y63.745 Z-8.774 F1200
X143.174 Y63.743 Z-8.719 F1200
X143.206 Y63.742 Z-8.66 F1200
X143.232 Y63.74 Z-8.598 F1200
X143.251 Y63.739 Z-8.534 F1200
X143.262 Z-8.467 F1200
X143.266 Z-8.4 F1200
( MOVEMENT_RAPID)
G0 Z5 F300
X143.328 Y64.937 F2500
( MOVEMENT_PLUNGE)
G1 Z-8 F333
Z-11.4 F333
( MOVEMENT_LEAD_IN)
X143.324 Z-11.467 F1200
X143.313 Y64.938 Z-11.534 F1200
X143.294 Y64.939 Z-11.598 F1200
X143.268 Y64.94 Z-11.66 F1200
X143.236 Y64.942 Z-11.719 F1200
X143.197 Y64.944 Z-11.774 F1200
X143.152 Y64.946 Z-11.824 F1200
X143.102 Y64.949 Z-11.869 F1200
X143.047 Y64.951 Z-11.908 F1200
X142.988 Y64.954 Z-11.941 F1200
X142.926 Y64.958 Z-11.966 F1200
X142.862 Y64.961 Z-11.985 F1200
X142.795 Y64.964 Z-11.996 F1200
X142.728 Y64.968 Z-12 F1200
X142.129 Y64.999 F1200
G3 X141.499 Y64.431 I-0.031 J-0.599 F1200
( MOVEMENT_FINISH_CUTTING)
G2 X139.771 Y61.866 I-2.996 J0.155 F1200
G1 X1.268 Y-2.719 F1200
G2 X-3 Y0 I-1.268 J2.719 F1200
G1 Y107.428 F1200
G2 X0.887 Y110.294 I3 F1200
G1 X139.39 Y67.451 F1200
G2 X141.499 Y64.431 I-0.887 J-2.866 F1200
( MOVEMENT_LEAD_OUT)
G3 X142.067 Y63.8 I0.599 J-0.031 F1200
G1 X142.666 Y63.769 F1200
X142.734 Y63.766 Z-11.996 F1200
X142.8 Y63.763 Z-11.985 F1200
X142.864 Y63.759 Z-11.966 F1200
X142.926 Y63.756 Z-11.941 F1200
X142.985 Y63.753 Z-11.908 F1200
X143.04 Y63.75 Z-11.869 F1200
X143.09 Y63.748 Z-11.824 F1200
X143.135 Y63.745 Z-11.774 F1200
X143.174 Y63.743 Z-11.719 F1200
X143.206 Y63.742 Z-11.66 F1200
X143.232 Y63.74 Z-11.598 F1200
X143.251 Y63.739 Z-11.534 F1200
X143.262 Z-11.467 F1200
X143.266 Z-11.4 F1200
( MOVEMENT_RAPID)
G0 Z5 F300
X143.328 Y64.937 F2500
( MOVEMENT_PLUNGE)
G1 Z-11 F333
Z-14.4 F333
( MOVEMENT_LEAD_IN)
X143.324 Z-14.467 F1200
X143.313 Y64.938 Z-14.534 F1200
X143.294 Y64.939 Z-14.598 F1200
X143.268 Y64.94 Z-14.66 F1200
X143.236 Y64.942 Z-14.719 F1200
X143.197 Y64.944 Z-14.774 F1200
X143.152 Y64.946 Z-14.824 F1200
X143.102 Y64.949 Z-14.869 F1200
X143.047 Y64.951 Z-14.908 F1200
X142.988 Y64.954 Z-14.941 F1200
X142.926 Y64.958 Z-14.966 F1200
X142.862 Y64.961 Z-14.985 F1200
X142.795 Y64.964 Z-14.996 F1200
X142.728 Y64.968 Z-15 F1200
X142.129 Y64.999 F1200
G3 X141.499 Y64.431 I-0.031 J-0.599 F1200
( MOVEMENT_FINISH_CUTTING)
G2 X139.771 Y61.866 I-2.996 J0.155 F1200
G1 X121.621 Y53.403 F1200
X119.537 Y52.431 Z-12.7 F1200
X114.099 Y49.895 F1200
( MOVEMENT_PLUNGE)
X112.014 Y48.923 Z-15 F333
( MOVEMENT_FINISH_CUTTING)
X75.713 Y31.996 F1200
X73.629 Y31.024 Z-12.7 F1200
X68.191 Y28.488 F1200
( MOVEMENT_PLUNGE)
X66.106 Y27.516 Z-15 F333
( MOVEMENT_FINISH_CUTTING)
X29.805 Y10.588 F1200
X27.721 Y9.616 Z-12.7 F1200
X22.283 Y7.081 F1200
( MOVEMENT_PLUNGE)
X20.199 Y6.109 Z-15 F333
( MOVEMENT_FINISH_CUTTING)
X1.268 Y-2.719 F1200
G2 X-3 Y0 I-1.268 J2.719 F1200
G1 Y19.166 F1200
Y21.466 Z-12.7 F1200
Y27.466 F1200
( MOVEMENT_PLUNGE)
Y29.766 Z-15 F333
( MOVEMENT_FINISH_CUTTING)
Y69.819 F1200
Y72.119 Z-12.7 F1200
Y78.119 F1200
( MOVEMENT_PLUNGE)
Y80.419 Z-15 F333
( MOVEMENT_FINISH_CUTTING)
Y107.428 F1200
G2 X0.887 Y110.294 I3 F1200
G1 X13.349 Y106.439 F1200
X15.546 Y105.759 Z-12.7 F1200
X21.278 Y103.986 F1200
( MOVEMENT_PLUNGE)
X23.475 Y103.307 Z-15 F333
( MOVEMENT_FINISH_CUTTING)
X61.74 Y91.47 F1200
X63.937 Y90.791 Z-12.7 F1200
X69.669 Y89.018 F1200
( MOVEMENT_PLUNGE)
X71.866 Y88.338 Z-15 F333
( MOVEMENT_FINISH_CUTTING)
X110.131 Y76.502 F1200
X112.328 Y75.822 Z-12.7 F1200
X118.06 Y74.049 F1200
( MOVEMENT_PLUNGE)
X120.258 Y73.369 Z-15 F333
( MOVEMENT_FINISH_CUTTING)
X139.39 Y67.451 F1200
G2 X141.499 Y64.431 I-0.887 J-2.866 F1200
( MOVEMENT_LEAD_OUT)
G3 X142.067 Y63.8 I0.599 J-0.031 F1200
G1 X142.666 Y63.769 F1200
X142.734 Y63.766 Z-14.996 F1200
X142.8 Y63.763 Z-14.985 F1200
X142.864 Y63.759 Z-14.966 F1200
X142.926 Y63.756 Z-14.941 F1200
X142.985 Y63.753 Z-14.908 F1200
X143.04 Y63.75 Z-14.869 F1200
X143.09 Y63.748 Z-14.824 F1200
X143.135 Y63.745 Z-14.774 F1200
X143.174 Y63.743 Z-14.719 F1200
X143.206 Y63.742 Z-14.66 F1200
X143.232 Y63.74 Z-14.598 F1200
X143.251 Y63.739 Z-14.534 F1200
X143.262 Z-14.467 F1200
X143.266 Z-14.4 F1200
( MOVEMENT_RAPID)
G0 Z5 F300
X143.328 Y64.937 F2500
( MOVEMENT_PLUNGE)
G1 Z-14 F333
Z-17.1 F333
( MOVEMENT_LEAD_IN)
X143.324 Z-17.167 F1200
X143.313 Y64.938 Z-17.234 F1200
X143.294 Y64.939 Z-17.298 F1200
X143.268 Y64.94 Z-17.36 F1200
X143.236 Y64.942 Z-17.419 F1200
X143.197 Y64.944 Z-17.474 F1200
X143.152 Y64.946 Z-17.524 F1200
X143.102 Y64.949 Z-17.569 F1200
X143.047 Y64.951 Z-17.608 F1200
X142.988 Y64.954 Z-17.641 F1200
X142.926 Y64.958 Z-17.666 F1200
X142.862 Y64.961 Z-17.685 F1200
X142.795 Y64.964 Z-17.696 F1200
X142.728 Y64.968 Z-17.7 F1200
X142.129 Y64.999 F1200
G3 X141.499 Y64.431 I-0.031 J-0.599 F1200
( MOVEMENT_FINISH_CUTTING)
G2 X139.771 Y61.866 I-2.996 J0.155 F1200
G1 X124.068 Y54.544 F1200
X119.537 Y52.431 Z-12.7 F1200
X114.099 Y49.895 F1200
( MOVEMENT_PLUNGE)
X109.567 Y47.782 Z-17.7 F333
( MOVEMENT_FINISH_CUTTING)
X78.16 Y33.137 F1200
X73.629 Y31.024 Z-12.7 F1200
X68.191 Y28.488 F1200
( MOVEMENT_PLUNGE)
X63.659 Y26.375 Z-17.7 F333
( MOVEMENT_FINISH_CUTTING)
X32.253 Y11.73 F1200
X27.721 Y9.616 Z-12.7 F1200
X22.283 Y7.081 F1200
( MOVEMENT_PLUNGE)
X17.752 Y4.968 Z-17.7 F333
( MOVEMENT_FINISH_CUTTING)
X1.268 Y-2.719 F1200
G2 X-3 Y0 I-1.268 J2.719 F1200
G1 Y16.466 F1200
Y21.466 Z-12.7 F1200
Y27.466 F1200
( MOVEMENT_PLUNGE)
Y32.466 Z-17.7 F333
( MOVEMENT_FINISH_CUTTING)
Y67.119 F1200
Y72.119 Z-12.7 F1200
Y78.119 F1200
( MOVEMENT_PLUNGE)
Y83.119 Z-17.7 F333
( MOVEMENT_FINISH_CUTTING)
Y107.428 F1200
G2 X0.887 Y110.294 I3 F1200
G1 X10.769 Y107.237 F1200
X15.546 Y105.759 Z-12.7 F1200
X21.278 Y103.986 F1200
( MOVEMENT_PLUNGE)
X26.055 Y102.509 Z-17.7 F333
( MOVEMENT_FINISH_CUTTING)
X59.16 Y92.268 F1200
X63.937 Y90.791 Z-12.7 F1200
X69.669 Y89.018 F1200
( MOVEMENT_PLUNGE)
X74.446 Y87.54 Z-17.7 F333
( MOVEMENT_FINISH_CUTTING)
X107.552 Y77.3 F1200
X112.328 Y75.822 Z-12.7 F1200
X118.06 Y74.049 F1200
( MOVEMENT_PLUNGE)
X122.837 Y72.571 Z-17.7 F333
( MOVEMENT_FINISH_CUTTING)
X139.39 Y67.451 F1200
G2 X141.499 Y64.431 I-0.887 J-2.866 F1200
( MOVEMENT_LEAD_OUT)
G3 X142.067 Y63.8 I0.599 J-0.031 F1200
G1 X142.666 Y63.769 F1200
X142.734 Y63.766 Z-17.696 F1200
X142.8 Y63.763 Z-17.685 F1200
X142.864 Y63.759 Z-17.666 F1200
X142.926 Y63.756 Z-17.641 F1200
X142.985 Y63.753 Z-17.608 F1200
X143.04 Y63.75 Z-17.569 F1200
X143.09 Y63.748 Z-17.524 F1200
X143.135 Y63.745 Z-17.474 F1200
X143.174 Y63.743 Z-17.419 F1200
X143.206 Y63.742 Z-17.36 F1200
X143.232 Y63.74 Z-17.298 F1200
X143.251 Y63.739 Z-17.234 F1200
X143.262 Z-17.167 F1200
X143.266 Z-17.1 F1200
( MOVEMENT_RAPID)
G0 Z15 F300
( *** SECTION end ***)
()
( *** STOP begin ***)
( --- Start custom gcode R:\CNC Projects\G-CODE FILES\INC/lowrider_stop_file.gcode)
M5;
G53 Z3 F500;
G54;
G0 X0 Y0 F800;(undefined)
%
