%
(Fusion CAM 2605.1.39)
( Posts processor: MPCNC v3.0 Beta 3.cps)
( Gcode generated: Saturday, December 20, 2025 8:54:34 PM GMT)
( Document: Untitled)
( Setup: Setup2)
( )
( Ranges Table:)
(   X: Min=-3.62 Max=143.328 Size=146.948)
(   Y: Min=-2.999 Max=250.428 Size=253.427)
(   Z: Min=-17.7 Max=15 Size=32.7)
( )
( Tools Table:)
(  T10 D=6 CR=0 - ZMIN=-17.7 - flat end mill )
( )
( Feedrate and Scaling Properties:)
(   Feed: Travel speed X/Y = 2500)
(   Feed: Travel Speed Z = 300)
(   Feed: Enforce Feedrate = true)
(   Feed: Scale Feedrate = false)
(   Feed: Max XY Cut Speed = 900)
(   Feed: Max Z Cut Speed = 180)
(   Feed: Max Toolpath Speed = 1000)
( )
( G1->G0 Mapping Properties:)
(   Map: First G1 -> G0 Rapid = false)
(   Map: G1s -> G0 Rapids = false)
(   Map: SafeZ Mode = Retract : default = 15)
(   Map: Allow Rapid Z = false)
( )
( *** START begin ***)
( --- Start custom gcode R:\CNC Projects\G-CODE FILES\INC/lowrider_start_file.gcode)
G53 Z0;
G54;
G0F800 X0.000 Y0.000 Z0.000 ; Z0.000
G0F800 X0.000 Y0.000 Z5.000 ; Z5.000
G0F800 X0.000 Y0.000 Z10.000 ; Z10.000
G0F800 X0.000 Y0.000 Z15.000 ; Z15.000
(undefined)
( *** START end ***)
( )
( *** SECTION begin ***)
(   X Min: -3.62 - X Max: 143.328)
(   Y Min: -2.999 - Y Max: 250.428)
(   Z Min: -17.7 - Z Max: 15)
( 2D Contour2 - Milling - Tool: 10 -  flat end mill)
( COMMAND_START_SPINDLE)
( COMMAND_SPINDLE_CLOCKWISE)
( >>> Spindle Speed 10000)
M3 S10000
( COMMAND_COOLANT_ON)
F2500 X0.000 Y0.000 Z15.000 ; Z15.000
F2500 X-0.147 Y4.998 Z15.000 ; Z15.000
F2500 X-0.294 Y9.996 Z15.000 ; Z15.000
F2500 X-0.441 Y14.994 Z15.000 ; Z15.000
F2500 X-0.589 Y19.991 Z15.000 ; Z15.000
F2500 X-0.736 Y24.989 Z15.000 ; Z15.000
F2500 X-0.883 Y29.987 Z15.000 ; Z15.000
F2500 X-1.030 Y34.985 Z15.000 ; Z15.000
F2500 X-1.177 Y39.983 Z15.000 ; Z15.000
F2500 X-1.324 Y44.981 Z15.000 ; Z15.000
F2500 X-1.471 Y49.978 Z15.000 ; Z15.000
F2500 X-1.618 Y54.976 Z15.000 ; Z15.000
F2500 X-1.766 Y59.974 Z15.000 ; Z15.000
F2500 X-1.913 Y64.972 Z15.000 ; Z15.000
F2500 X-2.060 Y69.970 Z15.000 ; Z15.000
F2500 X-2.207 Y74.968 Z15.000 ; Z15.000
F2500 X-2.354 Y79.965 Z15.000 ; Z15.000
F2500 X-2.501 Y84.963 Z15.000 ; Z15.000
F2500 X-2.648 Y89.961 Z15.000 ; Z15.000
F2500 X-2.795 Y94.959 Z15.000 ; Z15.000
F2500 X-2.943 Y99.957 Z15.000 ; Z15.000
F2500 X-3.090 Y104.955 Z15.000 ; Z15.000
F2500 X-3.237 Y109.952 Z15.000 ; Z15.000
F2500 X-3.384 Y114.950 Z15.000 ; Z15.000
F2500 X-3.531 Y119.948 Z15.000 ; Z15.000
F2500 X-3.620 Y122.968 Z15.000 ; Z15.000
F300 X-3.620 Y122.968 Z15.000 ; Z15.000
F300 X-3.620 Y122.968 Z10.000 ; Z10.000
F300 X-3.620 Y122.968 Z5.000 ; Z5.000
( MOVEMENT_PLUNGE)
G1F333 X-3.620 Y122.968 Z5.000 ; Z5.000
G1F333 X-3.620 Y122.968 Z1.000 ; Z1.000
F333 X-3.620 Y122.968 Z1.000 ; Z1.000
F333 X-3.620 Y122.968 Z-2.400 ; Z-2.400
( MOVEMENT_LEAD_IN)
F1200 X-3.620 Y122.968 Z-2.400 ; Z-2.400
F1200 X-3.617 Y122.968 Z-2.467 ; Z-2.467
F1200 X-3.617 Y122.968 Z-2.467 ; Z-2.467
F1200 X-3.605 Y122.967 Z-2.534 ; Z-2.534
F1200 X-3.605 Y122.967 Z-2.534 ; Z-2.534
F1200 X-3.587 Y122.967 Z-2.598 ; Z-2.598
F1200 X-3.587 Y122.967 Z-2.598 ; Z-2.598
F1200 X-3.561 Y122.967 Z-2.660 ; Z-2.660
F1200 X-3.561 Y122.967 Z-2.660 ; Z-2.660
F1200 X-3.528 Y122.967 Z-2.719 ; Z-2.719
F1200 X-3.528 Y122.967 Z-2.719 ; Z-2.719
F1200 X-3.489 Y122.967 Z-2.774 ; Z-2.774
F1200 X-3.489 Y122.967 Z-2.774 ; Z-2.774
F1200 X-3.445 Y122.967 Z-2.824 ; Z-2.824
F1200 X-3.445 Y122.967 Z-2.824 ; Z-2.824
F1200 X-3.394 Y122.967 Z-2.869 ; Z-2.869
F1200 X-3.394 Y122.967 Z-2.869 ; Z-2.869
F1200 X-3.340 Y122.967 Z-2.908 ; Z-2.908
F1200 X-3.340 Y122.967 Z-2.908 ; Z-2.908
F1200 X-3.281 Y122.967 Z-2.941 ; Z-2.941
F1200 X-3.281 Y122.967 Z-2.941 ; Z-2.941
F1200 X-3.219 Y122.967 Z-2.966 ; Z-2.966
F1200 X-3.219 Y122.967 Z-2.966 ; Z-2.966
F1200 X-3.154 Y122.967 Z-2.985 ; Z-2.985
F1200 X-3.154 Y122.967 Z-2.985 ; Z-2.985
F1200 X-3.088 Y122.967 Z-2.996 ; Z-2.996
F1200 X-3.088 Y122.967 Z-2.996 ; Z-2.996
F1200 X-3.020 Y122.967 Z-3.000 ; Z-3.000
F1200 X-3.020 Y122.967 Z-3.000 ; Z-3.000
F1200 X-2.420 Y122.966 Z-3.000 ; Z-3.000
G17 G3 X-1.82 Y123.565 I0.001 J0.6 F1200
( MOVEMENT_FINISH_CUTTING)
G2 X-0.087 Y126.28 I3 J-0.004 F1200
G1F1200 X-0.087 Y126.280 Z-3.000 ; Z-3.000
G1F1200 X4.445 Y128.393 Z-3.000 ; Z-3.000
G1F1200 X8.976 Y130.506 Z-3.000 ; Z-3.000
G1F1200 X13.508 Y132.619 Z-3.000 ; Z-3.000
G1F1200 X18.039 Y134.732 Z-3.000 ; Z-3.000
G1F1200 X22.571 Y136.845 Z-3.000 ; Z-3.000
G1F1200 X27.102 Y138.959 Z-3.000 ; Z-3.000
G1F1200 X31.634 Y141.072 Z-3.000 ; Z-3.000
G1F1200 X36.165 Y143.185 Z-3.000 ; Z-3.000
G1F1200 X40.697 Y145.298 Z-3.000 ; Z-3.000
G1F1200 X45.228 Y147.411 Z-3.000 ; Z-3.000
G1F1200 X49.760 Y149.524 Z-3.000 ; Z-3.000
G1F1200 X54.291 Y151.637 Z-3.000 ; Z-3.000
G1F1200 X58.823 Y153.750 Z-3.000 ; Z-3.000
G1F1200 X63.355 Y155.863 Z-3.000 ; Z-3.000
G1F1200 X67.886 Y157.976 Z-3.000 ; Z-3.000
G1F1200 X72.418 Y160.089 Z-3.000 ; Z-3.000
G1F1200 X76.949 Y162.203 Z-3.000 ; Z-3.000
G1F1200 X81.481 Y164.316 Z-3.000 ; Z-3.000
G1F1200 X86.012 Y166.429 Z-3.000 ; Z-3.000
G1F1200 X90.544 Y168.542 Z-3.000 ; Z-3.000
G1F1200 X95.075 Y170.655 Z-3.000 ; Z-3.000
G1F1200 X99.607 Y172.768 Z-3.000 ; Z-3.000
G1F1200 X104.138 Y174.881 Z-3.000 ; Z-3.000
G1F1200 X108.670 Y176.994 Z-3.000 ; Z-3.000
G1F1200 X113.201 Y179.107 Z-3.000 ; Z-3.000
G1F1200 X117.733 Y181.220 Z-3.000 ; Z-3.000
G1F1200 X122.265 Y183.333 Z-3.000 ; Z-3.000
G1F1200 X126.796 Y185.447 Z-3.000 ; Z-3.000
G1F1200 X131.328 Y187.560 Z-3.000 ; Z-3.000
G1F1200 X135.859 Y189.673 Z-3.000 ; Z-3.000
G1F1200 X138.416 Y190.865 Z-3.000 ; Z-3.000
G2 X142.684 Y188.146 I1.268 J-2.719 F1200
G1F1200 X142.684 Y188.146 Z-3.000 ; Z-3.000
G1F1200 X142.684 Y183.146 Z-3.000 ; Z-3.000
G1F1200 X142.684 Y178.146 Z-3.000 ; Z-3.000
G1F1200 X142.684 Y173.146 Z-3.000 ; Z-3.000
G1F1200 X142.684 Y168.146 Z-3.000 ; Z-3.000
G1F1200 X142.684 Y163.146 Z-3.000 ; Z-3.000
G1F1200 X142.684 Y158.146 Z-3.000 ; Z-3.000
G1F1200 X142.684 Y153.146 Z-3.000 ; Z-3.000
G1F1200 X142.684 Y148.146 Z-3.000 ; Z-3.000
G1F1200 X142.684 Y143.146 Z-3.000 ; Z-3.000
G1F1200 X142.684 Y138.146 Z-3.000 ; Z-3.000
G1F1200 X142.684 Y133.146 Z-3.000 ; Z-3.000
G1F1200 X142.684 Y128.146 Z-3.000 ; Z-3.000
G1F1200 X142.684 Y123.146 Z-3.000 ; Z-3.000
G1F1200 X142.684 Y118.146 Z-3.000 ; Z-3.000
G1F1200 X142.684 Y113.146 Z-3.000 ; Z-3.000
G1F1200 X142.684 Y108.146 Z-3.000 ; Z-3.000
G1F1200 X142.684 Y103.146 Z-3.000 ; Z-3.000
G1F1200 X142.684 Y98.146 Z-3.000 ; Z-3.000
G1F1200 X142.684 Y93.146 Z-3.000 ; Z-3.000
G1F1200 X142.684 Y88.146 Z-3.000 ; Z-3.000
G1F1200 X142.684 Y83.146 Z-3.000 ; Z-3.000
G1F1200 X142.684 Y80.718 Z-3.000 ; Z-3.000
G2 X138.797 Y77.852 I-3 F1200
G1F1200 X138.797 Y77.852 Z-3.000 ; Z-3.000
G1F1200 X134.020 Y79.330 Z-3.000 ; Z-3.000
G1F1200 X129.244 Y80.807 Z-3.000 ; Z-3.000
G1F1200 X124.467 Y82.285 Z-3.000 ; Z-3.000
G1F1200 X119.690 Y83.762 Z-3.000 ; Z-3.000
G1F1200 X114.914 Y85.240 Z-3.000 ; Z-3.000
G1F1200 X110.137 Y86.717 Z-3.000 ; Z-3.000
G1F1200 X105.360 Y88.195 Z-3.000 ; Z-3.000
G1F1200 X100.583 Y89.673 Z-3.000 ; Z-3.000
G1F1200 X95.807 Y91.150 Z-3.000 ; Z-3.000
G1F1200 X91.030 Y92.628 Z-3.000 ; Z-3.000
G1F1200 X86.253 Y94.105 Z-3.000 ; Z-3.000
G1F1200 X81.477 Y95.583 Z-3.000 ; Z-3.000
G1F1200 X76.700 Y97.060 Z-3.000 ; Z-3.000
G1F1200 X71.923 Y98.538 Z-3.000 ; Z-3.000
G1F1200 X67.147 Y100.016 Z-3.000 ; Z-3.000
G1F1200 X62.370 Y101.493 Z-3.000 ; Z-3.000
G1F1200 X57.593 Y102.971 Z-3.000 ; Z-3.000
G1F1200 X52.817 Y104.448 Z-3.000 ; Z-3.000
G1F1200 X48.040 Y105.926 Z-3.000 ; Z-3.000
G1F1200 X43.263 Y107.403 Z-3.000 ; Z-3.000
G1F1200 X38.486 Y108.881 Z-3.000 ; Z-3.000
G1F1200 X33.710 Y110.359 Z-3.000 ; Z-3.000
G1F1200 X28.933 Y111.836 Z-3.000 ; Z-3.000
G1F1200 X24.156 Y113.314 Z-3.000 ; Z-3.000
G1F1200 X19.380 Y114.791 Z-3.000 ; Z-3.000
G1F1200 X14.603 Y116.269 Z-3.000 ; Z-3.000
G1F1200 X9.826 Y117.746 Z-3.000 ; Z-3.000
G1F1200 X5.050 Y119.224 Z-3.000 ; Z-3.000
G1F1200 X0.294 Y120.695 Z-3.000 ; Z-3.000
G2 X-1.82 Y123.565 I0.887 J2.866 F1200
( MOVEMENT_LEAD_OUT)
G3 X-2.419 Y124.166 I-0.6 J0.001 F1200
G1F1200 X-2.419 Y124.166 Z-3.000 ; Z-3.000
G1F1200 X-3.019 Y124.167 Z-3.000 ; Z-3.000
F1200 X-3.019 Y124.167 Z-3.000 ; Z-3.000
F1200 X-3.086 Y124.167 Z-2.996 ; Z-2.996
F1200 X-3.086 Y124.167 Z-2.996 ; Z-2.996
F1200 X-3.152 Y124.167 Z-2.985 ; Z-2.985
F1200 X-3.152 Y124.167 Z-2.985 ; Z-2.985
F1200 X-3.217 Y124.167 Z-2.966 ; Z-2.966
F1200 X-3.217 Y124.167 Z-2.966 ; Z-2.966
F1200 X-3.279 Y124.167 Z-2.941 ; Z-2.941
F1200 X-3.279 Y124.167 Z-2.941 ; Z-2.941
F1200 X-3.338 Y124.167 Z-2.908 ; Z-2.908
F1200 X-3.338 Y124.167 Z-2.908 ; Z-2.908
F1200 X-3.393 Y124.167 Z-2.869 ; Z-2.869
F1200 X-3.393 Y124.167 Z-2.869 ; Z-2.869
F1200 X-3.443 Y124.167 Z-2.824 ; Z-2.824
F1200 X-3.443 Y124.167 Z-2.824 ; Z-2.824
F1200 X-3.488 Y124.167 Z-2.774 ; Z-2.774
F1200 X-3.488 Y124.167 Z-2.774 ; Z-2.774
F1200 X-3.527 Y124.167 Z-2.719 ; Z-2.719
F1200 X-3.527 Y124.167 Z-2.719 ; Z-2.719
F1200 X-3.559 Y124.167 Z-2.660 ; Z-2.660
F1200 X-3.559 Y124.167 Z-2.660 ; Z-2.660
F1200 X-3.585 Y124.167 Z-2.598 ; Z-2.598
F1200 X-3.585 Y124.167 Z-2.598 ; Z-2.598
F1200 X-3.604 Y124.167 Z-2.534 ; Z-2.534
F1200 X-3.604 Y124.167 Z-2.534 ; Z-2.534
F1200 X-3.615 Y124.167 Z-2.467 ; Z-2.467
F1200 X-3.615 Y124.167 Z-2.467 ; Z-2.467
F1200 X-3.619 Y124.168 Z-2.400 ; Z-2.400
( MOVEMENT_RAPID)
G0F300 X-3.619 Y124.168 Z-2.400 ; Z-2.400
G0F300 X-3.619 Y124.168 Z2.600 ; Z2.600
G0F300 X-3.619 Y124.168 Z5.000 ; Z5.000
F2500 X-3.619 Y124.168 Z5.000 ; Z5.000
F2500 X-3.620 Y122.968 Z5.000 ; Z5.000
( MOVEMENT_PLUNGE)
G1F333 X-3.620 Y122.968 Z5.000 ; Z5.000
G1F333 X-3.620 Y122.968 Z0.000 ; Z0.000
G1F333 X-3.620 Y122.968 Z-2.000 ; Z-2.000
F333 X-3.620 Y122.968 Z-2.000 ; Z-2.000
F333 X-3.620 Y122.968 Z-5.400 ; Z-5.400
( MOVEMENT_LEAD_IN)
F1200 X-3.620 Y122.968 Z-5.400 ; Z-5.400
F1200 X-3.617 Y122.968 Z-5.467 ; Z-5.467
F1200 X-3.617 Y122.968 Z-5.467 ; Z-5.467
F1200 X-3.605 Y122.967 Z-5.534 ; Z-5.534
F1200 X-3.605 Y122.967 Z-5.534 ; Z-5.534
F1200 X-3.587 Y122.967 Z-5.598 ; Z-5.598
F1200 X-3.587 Y122.967 Z-5.598 ; Z-5.598
F1200 X-3.561 Y122.967 Z-5.660 ; Z-5.660
F1200 X-3.561 Y122.967 Z-5.660 ; Z-5.660
F1200 X-3.528 Y122.967 Z-5.719 ; Z-5.719
F1200 X-3.528 Y122.967 Z-5.719 ; Z-5.719
F1200 X-3.489 Y122.967 Z-5.774 ; Z-5.774
F1200 X-3.489 Y122.967 Z-5.774 ; Z-5.774
F1200 X-3.445 Y122.967 Z-5.824 ; Z-5.824
F1200 X-3.445 Y122.967 Z-5.824 ; Z-5.824
F1200 X-3.394 Y122.967 Z-5.869 ; Z-5.869
F1200 X-3.394 Y122.967 Z-5.869 ; Z-5.869
F1200 X-3.340 Y122.967 Z-5.908 ; Z-5.908
F1200 X-3.340 Y122.967 Z-5.908 ; Z-5.908
F1200 X-3.281 Y122.967 Z-5.941 ; Z-5.941
F1200 X-3.281 Y122.967 Z-5.941 ; Z-5.941
F1200 X-3.219 Y122.967 Z-5.966 ; Z-5.966
F1200 X-3.219 Y122.967 Z-5.966 ; Z-5.966
F1200 X-3.154 Y122.967 Z-5.985 ; Z-5.985
F1200 X-3.154 Y122.967 Z-5.985 ; Z-5.985
F1200 X-3.088 Y122.967 Z-5.996 ; Z-5.996
F1200 X-3.088 Y122.967 Z-5.996 ; Z-5.996
F1200 X-3.020 Y122.967 Z-6.000 ; Z-6.000
F1200 X-3.020 Y122.967 Z-6.000 ; Z-6.000
F1200 X-2.420 Y122.966 Z-6.000 ; Z-6.000
G3 X-1.82 Y123.565 I0.001 J0.6 F1200
( MOVEMENT_FINISH_CUTTING)
G2 X-0.087 Y126.28 I3 J-0.004 F1200
G1F1200 X-0.087 Y126.280 Z-6.000 ; Z-6.000
G1F1200 X4.445 Y128.393 Z-6.000 ; Z-6.000
G1F1200 X8.976 Y130.506 Z-6.000 ; Z-6.000
G1F1200 X13.508 Y132.619 Z-6.000 ; Z-6.000
G1F1200 X18.039 Y134.732 Z-6.000 ; Z-6.000
G1F1200 X22.571 Y136.845 Z-6.000 ; Z-6.000
G1F1200 X27.102 Y138.959 Z-6.000 ; Z-6.000
G1F1200 X31.634 Y141.072 Z-6.000 ; Z-6.000
G1F1200 X36.165 Y143.185 Z-6.000 ; Z-6.000
G1F1200 X40.697 Y145.298 Z-6.000 ; Z-6.000
G1F1200 X45.228 Y147.411 Z-6.000 ; Z-6.000
G1F1200 X49.760 Y149.524 Z-6.000 ; Z-6.000
G1F1200 X54.291 Y151.637 Z-6.000 ; Z-6.000
G1F1200 X58.823 Y153.750 Z-6.000 ; Z-6.000
G1F1200 X63.355 Y155.863 Z-6.000 ; Z-6.000
G1F1200 X67.886 Y157.976 Z-6.000 ; Z-6.000
G1F1200 X72.418 Y160.089 Z-6.000 ; Z-6.000
G1F1200 X76.949 Y162.203 Z-6.000 ; Z-6.000
G1F1200 X81.481 Y164.316 Z-6.000 ; Z-6.000
G1F1200 X86.012 Y166.429 Z-6.000 ; Z-6.000
G1F1200 X90.544 Y168.542 Z-6.000 ; Z-6.000
G1F1200 X95.075 Y170.655 Z-6.000 ; Z-6.000
G1F1200 X99.607 Y172.768 Z-6.000 ; Z-6.000
G1F1200 X104.138 Y174.881 Z-6.000 ; Z-6.000
G1F1200 X108.670 Y176.994 Z-6.000 ; Z-6.000
G1F1200 X113.201 Y179.107 Z-6.000 ; Z-6.000
G1F1200 X117.733 Y181.220 Z-6.000 ; Z-6.000
G1F1200 X122.265 Y183.333 Z-6.000 ; Z-6.000
G1F1200 X126.796 Y185.447 Z-6.000 ; Z-6.000
G1F1200 X131.328 Y187.560 Z-6.000 ; Z-6.000
G1F1200 X135.859 Y189.673 Z-6.000 ; Z-6.000
G1F1200 X138.416 Y190.865 Z-6.000 ; Z-6.000
G2 X142.684 Y188.146 I1.268 J-2.719 F1200
G1F1200 X142.684 Y188.146 Z-6.000 ; Z-6.000
G1F1200 X142.684 Y183.146 Z-6.000 ; Z-6.000
G1F1200 X142.684 Y178.146 Z-6.000 ; Z-6.000
G1F1200 X142.684 Y173.146 Z-6.000 ; Z-6.000
G1F1200 X142.684 Y168.146 Z-6.000 ; Z-6.000
G1F1200 X142.684 Y163.146 Z-6.000 ; Z-6.000
G1F1200 X142.684 Y158.146 Z-6.000 ; Z-6.000
G1F1200 X142.684 Y153.146 Z-6.000 ; Z-6.000
G1F1200 X142.684 Y148.146 Z-6.000 ; Z-6.000
G1F1200 X142.684 Y143.146 Z-6.000 ; Z-6.000
G1F1200 X142.684 Y138.146 Z-6.000 ; Z-6.000
G1F1200 X142.684 Y133.146 Z-6.000 ; Z-6.000
G1F1200 X142.684 Y128.146 Z-6.000 ; Z-6.000
G1F1200 X142.684 Y123.146 Z-6.000 ; Z-6.000
G1F1200 X142.684 Y118.146 Z-6.000 ; Z-6.000
G1F1200 X142.684 Y113.146 Z-6.000 ; Z-6.000
G1F1200 X142.684 Y108.146 Z-6.000 ; Z-6.000
G1F1200 X142.684 Y103.146 Z-6.000 ; Z-6.000
G1F1200 X142.684 Y98.146 Z-6.000 ; Z-6.000
G1F1200 X142.684 Y93.146 Z-6.000 ; Z-6.000
G1F1200 X142.684 Y88.146 Z-6.000 ; Z-6.000
G1F1200 X142.684 Y83.146 Z-6.000 ; Z-6.000
G1F1200 X142.684 Y80.718 Z-6.000 ; Z-6.000
G2 X138.797 Y77.852 I-3 F1200
G1F1200 X138.797 Y77.852 Z-6.000 ; Z-6.000
G1F1200 X134.020 Y79.330 Z-6.000 ; Z-6.000
G1F1200 X129.244 Y80.807 Z-6.000 ; Z-6.000
G1F1200 X124.467 Y82.285 Z-6.000 ; Z-6.000
G1F1200 X119.690 Y83.762 Z-6.000 ; Z-6.000
G1F1200 X114.914 Y85.240 Z-6.000 ; Z-6.000
G1F1200 X110.137 Y86.717 Z-6.000 ; Z-6.000
G1F1200 X105.360 Y88.195 Z-6.000 ; Z-6.000
G1F1200 X100.583 Y89.673 Z-6.000 ; Z-6.000
G1F1200 X95.807 Y91.150 Z-6.000 ; Z-6.000
G1F1200 X91.030 Y92.628 Z-6.000 ; Z-6.000
G1F1200 X86.253 Y94.105 Z-6.000 ; Z-6.000
G1F1200 X81.477 Y95.583 Z-6.000 ; Z-6.000
G1F1200 X76.700 Y97.060 Z-6.000 ; Z-6.000
G1F1200 X71.923 Y98.538 Z-6.000 ; Z-6.000
G1F1200 X67.147 Y100.016 Z-6.000 ; Z-6.000
G1F1200 X62.370 Y101.493 Z-6.000 ; Z-6.000
G1F1200 X57.593 Y102.971 Z-6.000 ; Z-6.000
G1F1200 X52.817 Y104.448 Z-6.000 ; Z-6.000
G1F1200 X48.040 Y105.926 Z-6.000 ; Z-6.000
G1F1200 X43.263 Y107.403 Z-6.000 ; Z-6.000
G1F1200 X38.486 Y108.881 Z-6.000 ; Z-6.000
G1F1200 X33.710 Y110.359 Z-6.000 ; Z-6.000
G1F1200 X28.933 Y111.836 Z-6.000 ; Z-6.000
G1F1200 X24.156 Y113.314 Z-6.000 ; Z-6.000
G1F1200 X19.380 Y114.791 Z-6.000 ; Z-6.000
G1F1200 X14.603 Y116.269 Z-6.000 ; Z-6.000
G1F1200 X9.826 Y117.746 Z-6.000 ; Z-6.000
G1F1200 X5.050 Y119.224 Z-6.000 ; Z-6.000
G1F1200 X0.294 Y120.695 Z-6.000 ; Z-6.000
G2 X-1.82 Y123.565 I0.887 J2.866 F1200
( MOVEMENT_LEAD_OUT)
G3 X-2.419 Y124.166 I-0.6 J0.001 F1200
G1F1200 X-2.419 Y124.166 Z-6.000 ; Z-6.000
G1F1200 X-3.019 Y124.167 Z-6.000 ; Z-6.000
F1200 X-3.019 Y124.167 Z-6.000 ; Z-6.000
F1200 X-3.086 Y124.167 Z-5.996 ; Z-5.996
F1200 X-3.086 Y124.167 Z-5.996 ; Z-5.996
F1200 X-3.152 Y124.167 Z-5.985 ; Z-5.985
F1200 X-3.152 Y124.167 Z-5.985 ; Z-5.985
F1200 X-3.217 Y124.167 Z-5.966 ; Z-5.966
F1200 X-3.217 Y124.167 Z-5.966 ; Z-5.966
F1200 X-3.279 Y124.167 Z-5.941 ; Z-5.941
F1200 X-3.279 Y124.167 Z-5.941 ; Z-5.941
F1200 X-3.338 Y124.167 Z-5.908 ; Z-5.908
F1200 X-3.338 Y124.167 Z-5.908 ; Z-5.908
F1200 X-3.393 Y124.167 Z-5.869 ; Z-5.869
F1200 X-3.393 Y124.167 Z-5.869 ; Z-5.869
F1200 X-3.443 Y124.167 Z-5.824 ; Z-5.824
F1200 X-3.443 Y124.167 Z-5.824 ; Z-5.824
F1200 X-3.488 Y124.167 Z-5.774 ; Z-5.774
F1200 X-3.488 Y124.167 Z-5.774 ; Z-5.774
F1200 X-3.527 Y124.167 Z-5.719 ; Z-5.719
F1200 X-3.527 Y124.167 Z-5.719 ; Z-5.719
F1200 X-3.559 Y124.167 Z-5.660 ; Z-5.660
F1200 X-3.559 Y124.167 Z-5.660 ; Z-5.660
F1200 X-3.585 Y124.167 Z-5.598 ; Z-5.598
F1200 X-3.585 Y124.167 Z-5.598 ; Z-5.598
F1200 X-3.604 Y124.167 Z-5.534 ; Z-5.534
F1200 X-3.604 Y124.167 Z-5.534 ; Z-5.534
F1200 X-3.615 Y124.167 Z-5.467 ; Z-5.467
F1200 X-3.615 Y124.167 Z-5.467 ; Z-5.467
F1200 X-3.619 Y124.168 Z-5.400 ; Z-5.400
( MOVEMENT_RAPID)
G0F300 X-3.619 Y124.168 Z-5.400 ; Z-5.400
G0F300 X-3.619 Y124.168 Z-0.400 ; Z-0.400
G0F300 X-3.619 Y124.168 Z4.600 ; Z4.600
G0F300 X-3.619 Y124.168 Z5.000 ; Z5.000
F2500 X-3.619 Y124.168 Z5.000 ; Z5.000
F2500 X-3.620 Y122.968 Z5.000 ; Z5.000
( MOVEMENT_PLUNGE)
G1F333 X-3.620 Y122.968 Z5.000 ; Z5.000
G1F333 X-3.620 Y122.968 Z0.000 ; Z0.000
G1F333 X-3.620 Y122.968 Z-5.000 ; Z-5.000
F333 X-3.620 Y122.968 Z-5.000 ; Z-5.000
F333 X-3.620 Y122.968 Z-8.400 ; Z-8.400
( MOVEMENT_LEAD_IN)
F1200 X-3.620 Y122.968 Z-8.400 ; Z-8.400
F1200 X-3.617 Y122.968 Z-8.467 ; Z-8.467
F1200 X-3.617 Y122.968 Z-8.467 ; Z-8.467
F1200 X-3.605 Y122.967 Z-8.534 ; Z-8.534
F1200 X-3.605 Y122.967 Z-8.534 ; Z-8.534
F1200 X-3.587 Y122.967 Z-8.598 ; Z-8.598
F1200 X-3.587 Y122.967 Z-8.598 ; Z-8.598
F1200 X-3.561 Y122.967 Z-8.660 ; Z-8.660
F1200 X-3.561 Y122.967 Z-8.660 ; Z-8.660
F1200 X-3.528 Y122.967 Z-8.719 ; Z-8.719
F1200 X-3.528 Y122.967 Z-8.719 ; Z-8.719
F1200 X-3.489 Y122.967 Z-8.774 ; Z-8.774
F1200 X-3.489 Y122.967 Z-8.774 ; Z-8.774
F1200 X-3.445 Y122.967 Z-8.824 ; Z-8.824
F1200 X-3.445 Y122.967 Z-8.824 ; Z-8.824
F1200 X-3.394 Y122.967 Z-8.869 ; Z-8.869
F1200 X-3.394 Y122.967 Z-8.869 ; Z-8.869
F1200 X-3.340 Y122.967 Z-8.908 ; Z-8.908
F1200 X-3.340 Y122.967 Z-8.908 ; Z-8.908
F1200 X-3.281 Y122.967 Z-8.941 ; Z-8.941
F1200 X-3.281 Y122.967 Z-8.941 ; Z-8.941
F1200 X-3.219 Y122.967 Z-8.966 ; Z-8.966
F1200 X-3.219 Y122.967 Z-8.966 ; Z-8.966
F1200 X-3.154 Y122.967 Z-8.985 ; Z-8.985
F1200 X-3.154 Y122.967 Z-8.985 ; Z-8.985
F1200 X-3.088 Y122.967 Z-8.996 ; Z-8.996
F1200 X-3.088 Y122.967 Z-8.996 ; Z-8.996
F1200 X-3.020 Y122.967 Z-9.000 ; Z-9.000
F1200 X-3.020 Y122.967 Z-9.000 ; Z-9.000
F1200 X-2.420 Y122.966 Z-9.000 ; Z-9.000
G3 X-1.82 Y123.565 I0.001 J0.6 F1200
( MOVEMENT_FINISH_CUTTING)
G2 X-0.087 Y126.28 I3 J-0.004 F1200
G1F1200 X-0.087 Y126.280 Z-9.000 ; Z-9.000
G1F1200 X4.445 Y128.393 Z-9.000 ; Z-9.000
G1F1200 X8.976 Y130.506 Z-9.000 ; Z-9.000
G1F1200 X13.508 Y132.619 Z-9.000 ; Z-9.000
G1F1200 X18.039 Y134.732 Z-9.000 ; Z-9.000
G1F1200 X22.571 Y136.845 Z-9.000 ; Z-9.000
G1F1200 X27.102 Y138.959 Z-9.000 ; Z-9.000
G1F1200 X31.634 Y141.072 Z-9.000 ; Z-9.000
G1F1200 X36.165 Y143.185 Z-9.000 ; Z-9.000
G1F1200 X40.697 Y145.298 Z-9.000 ; Z-9.000
G1F1200 X45.228 Y147.411 Z-9.000 ; Z-9.000
G1F1200 X49.760 Y149.524 Z-9.000 ; Z-9.000
G1F1200 X54.291 Y151.637 Z-9.000 ; Z-9.000
G1F1200 X58.823 Y153.750 Z-9.000 ; Z-9.000
G1F1200 X63.355 Y155.863 Z-9.000 ; Z-9.000
G1F1200 X67.886 Y157.976 Z-9.000 ; Z-9.000
G1F1200 X72.418 Y160.089 Z-9.000 ; Z-9.000
G1F1200 X76.949 Y162.203 Z-9.000 ; Z-9.000
G1F1200 X81.481 Y164.316 Z-9.000 ; Z-9.000
G1F1200 X86.012 Y166.429 Z-9.000 ; Z-9.000
G1F1200 X90.544 Y168.542 Z-9.000 ; Z-9.000
G1F1200 X95.075 Y170.655 Z-9.000 ; Z-9.000
G1F1200 X99.607 Y172.768 Z-9.000 ; Z-9.000
G1F1200 X104.138 Y174.881 Z-9.000 ; Z-9.000
G1F1200 X108.670 Y176.994 Z-9.000 ; Z-9.000
G1F1200 X113.201 Y179.107 Z-9.000 ; Z-9.000
G1F1200 X117.733 Y181.220 Z-9.000 ; Z-9.000
G1F1200 X122.265 Y183.333 Z-9.000 ; Z-9.000
G1F1200 X126.796 Y185.447 Z-9.000 ; Z-9.000
G1F1200 X131.328 Y187.560 Z-9.000 ; Z-9.000
G1F1200 X135.859 Y189.673 Z-9.000 ; Z-9.000
G1F1200 X138.416 Y190.865 Z-9.000 ; Z-9.000
G2 X142.684 Y188.146 I1.268 J-2.719 F1200
G1F1200 X142.684 Y188.146 Z-9.000 ; Z-9.000
G1F1200 X142.684 Y183.146 Z-9.000 ; Z-9.000
G1F1200 X142.684 Y178.146 Z-9.000 ; Z-9.000
G1F1200 X142.684 Y173.146 Z-9.000 ; Z-9.000
G1F1200 X142.684 Y168.146 Z-9.000 ; Z-9.000
G1F1200 X142.684 Y163.146 Z-9.000 ; Z-9.000
G1F1200 X142.684 Y158.146 Z-9.000 ; Z-9.000
G1F1200 X142.684 Y153.146 Z-9.000 ; Z-9.000
G1F1200 X142.684 Y148.146 Z-9.000 ; Z-9.000
G1F1200 X142.684 Y143.146 Z-9.000 ; Z-9.000
G1F1200 X142.684 Y138.146 Z-9.000 ; Z-9.000
G1F1200 X142.684 Y133.146 Z-9.000 ; Z-9.000
G1F1200 X142.684 Y128.146 Z-9.000 ; Z-9.000
G1F1200 X142.684 Y123.146 Z-9.000 ; Z-9.000
G1F1200 X142.684 Y118.146 Z-9.000 ; Z-9.000
G1F1200 X142.684 Y113.146 Z-9.000 ; Z-9.000
G1F1200 X142.684 Y108.146 Z-9.000 ; Z-9.000
G1F1200 X142.684 Y103.146 Z-9.000 ; Z-9.000
G1F1200 X142.684 Y98.146 Z-9.000 ; Z-9.000
G1F1200 X142.684 Y93.146 Z-9.000 ; Z-9.000
G1F1200 X142.684 Y88.146 Z-9.000 ; Z-9.000
G1F1200 X142.684 Y83.146 Z-9.000 ; Z-9.000
G1F1200 X142.684 Y80.718 Z-9.000 ; Z-9.000
G2 X138.797 Y77.852 I-3 F1200
G1F1200 X138.797 Y77.852 Z-9.000 ; Z-9.000
G1F1200 X134.020 Y79.330 Z-9.000 ; Z-9.000
G1F1200 X129.244 Y80.807 Z-9.000 ; Z-9.000
G1F1200 X124.467 Y82.285 Z-9.000 ; Z-9.000
G1F1200 X119.690 Y83.762 Z-9.000 ; Z-9.000
G1F1200 X114.914 Y85.240 Z-9.000 ; Z-9.000
G1F1200 X110.137 Y86.717 Z-9.000 ; Z-9.000
G1F1200 X105.360 Y88.195 Z-9.000 ; Z-9.000
G1F1200 X100.583 Y89.673 Z-9.000 ; Z-9.000
G1F1200 X95.807 Y91.150 Z-9.000 ; Z-9.000
G1F1200 X91.030 Y92.628 Z-9.000 ; Z-9.000
G1F1200 X86.253 Y94.105 Z-9.000 ; Z-9.000
G1F1200 X81.477 Y95.583 Z-9.000 ; Z-9.000
G1F1200 X76.700 Y97.060 Z-9.000 ; Z-9.000
G1F1200 X71.923 Y98.538 Z-9.000 ; Z-9.000
G1F1200 X67.147 Y100.016 Z-9.000 ; Z-9.000
G1F1200 X62.370 Y101.493 Z-9.000 ; Z-9.000
G1F1200 X57.593 Y102.971 Z-9.000 ; Z-9.000
G1F1200 X52.817 Y104.448 Z-9.000 ; Z-9.000
G1F1200 X48.040 Y105.926 Z-9.000 ; Z-9.000
G1F1200 X43.263 Y107.403 Z-9.000 ; Z-9.000
G1F1200 X38.486 Y108.881 Z-9.000 ; Z-9.000
G1F1200 X33.710 Y110.359 Z-9.000 ; Z-9.000
G1F1200 X28.933 Y111.836 Z-9.000 ; Z-9.000
G1F1200 X24.156 Y113.314 Z-9.000 ; Z-9.000
G1F1200 X19.380 Y114.791 Z-9.000 ; Z-9.000
G1F1200 X14.603 Y116.269 Z-9.000 ; Z-9.000
G1F1200 X9.826 Y117.746 Z-9.000 ; Z-9.000
G1F1200 X5.050 Y119.224 Z-9.000 ; Z-9.000
G1F1200 X0.294 Y120.695 Z-9.000 ; Z-9.000
G2 X-1.82 Y123.565 I0.887 J2.866 F1200
( MOVEMENT_LEAD_OUT)
G3 X-2.419 Y124.166 I-0.6 J0.001 F1200
G1F1200 X-2.419 Y124.166 Z-9.000 ; Z-9.000
G1F1200 X-3.019 Y124.167 Z-9.000 ; Z-9.000
F1200 X-3.019 Y124.167 Z-9.000 ; Z-9.000
F1200 X-3.086 Y124.167 Z-8.996 ; Z-8.996
F1200 X-3.086 Y124.167 Z-8.996 ; Z-8.996
F1200 X-3.152 Y124.167 Z-8.985 ; Z-8.985
F1200 X-3.152 Y124.167 Z-8.985 ; Z-8.985
F1200 X-3.217 Y124.167 Z-8.966 ; Z-8.966
F1200 X-3.217 Y124.167 Z-8.966 ; Z-8.966
F1200 X-3.279 Y124.167 Z-8.941 ; Z-8.941
F1200 X-3.279 Y124.167 Z-8.941 ; Z-8.941
F1200 X-3.338 Y124.167 Z-8.908 ; Z-8.908
F1200 X-3.338 Y124.167 Z-8.908 ; Z-8.908
F1200 X-3.393 Y124.167 Z-8.869 ; Z-8.869
F1200 X-3.393 Y124.167 Z-8.869 ; Z-8.869
F1200 X-3.443 Y124.167 Z-8.824 ; Z-8.824
F1200 X-3.443 Y124.167 Z-8.824 ; Z-8.824
F1200 X-3.488 Y124.167 Z-8.774 ; Z-8.774
F1200 X-3.488 Y124.167 Z-8.774 ; Z-8.774
F1200 X-3.527 Y124.167 Z-8.719 ; Z-8.719
F1200 X-3.527 Y124.167 Z-8.719 ; Z-8.719
F1200 X-3.559 Y124.167 Z-8.660 ; Z-8.660
F1200 X-3.559 Y124.167 Z-8.660 ; Z-8.660
F1200 X-3.585 Y124.167 Z-8.598 ; Z-8.598
F1200 X-3.585 Y124.167 Z-8.598 ; Z-8.598
F1200 X-3.604 Y124.167 Z-8.534 ; Z-8.534
F1200 X-3.604 Y124.167 Z-8.534 ; Z-8.534
F1200 X-3.615 Y124.167 Z-8.467 ; Z-8.467
F1200 X-3.615 Y124.167 Z-8.467 ; Z-8.467
F1200 X-3.619 Y124.168 Z-8.400 ; Z-8.400
( MOVEMENT_RAPID)
G0F300 X-3.619 Y124.168 Z-8.400 ; Z-8.400
G0F300 X-3.619 Y124.168 Z-3.400 ; Z-3.400
G0F300 X-3.619 Y124.168 Z1.600 ; Z1.600
G0F300 X-3.619 Y124.168 Z5.000 ; Z5.000
F2500 X-3.619 Y124.168 Z5.000 ; Z5.000
F2500 X-3.620 Y122.968 Z5.000 ; Z5.000
( MOVEMENT_PLUNGE)
G1F333 X-3.620 Y122.968 Z5.000 ; Z5.000
G1F333 X-3.620 Y122.968 Z0.000 ; Z0.000
G1F333 X-3.620 Y122.968 Z-5.000 ; Z-5.000
G1F333 X-3.620 Y122.968 Z-8.000 ; Z-8.000
F333 X-3.620 Y122.968 Z-8.000 ; Z-8.000
F333 X-3.620 Y122.968 Z-11.400 ; Z-11.400
( MOVEMENT_LEAD_IN)
F1200 X-3.620 Y122.968 Z-11.400 ; Z-11.400
F1200 X-3.617 Y122.968 Z-11.467 ; Z-11.467
F1200 X-3.617 Y122.968 Z-11.467 ; Z-11.467
F1200 X-3.605 Y122.967 Z-11.534 ; Z-11.534
F1200 X-3.605 Y122.967 Z-11.534 ; Z-11.534
F1200 X-3.587 Y122.967 Z-11.598 ; Z-11.598
F1200 X-3.587 Y122.967 Z-11.598 ; Z-11.598
F1200 X-3.561 Y122.967 Z-11.660 ; Z-11.660
F1200 X-3.561 Y122.967 Z-11.660 ; Z-11.660
F1200 X-3.528 Y122.967 Z-11.719 ; Z-11.719
F1200 X-3.528 Y122.967 Z-11.719 ; Z-11.719
F1200 X-3.489 Y122.967 Z-11.774 ; Z-11.774
F1200 X-3.489 Y122.967 Z-11.774 ; Z-11.774
F1200 X-3.445 Y122.967 Z-11.824 ; Z-11.824
F1200 X-3.445 Y122.967 Z-11.824 ; Z-11.824
F1200 X-3.394 Y122.967 Z-11.869 ; Z-11.869
F1200 X-3.394 Y122.967 Z-11.869 ; Z-11.869
F1200 X-3.340 Y122.967 Z-11.908 ; Z-11.908
F1200 X-3.340 Y122.967 Z-11.908 ; Z-11.908
F1200 X-3.281 Y122.967 Z-11.941 ; Z-11.941
F1200 X-3.281 Y122.967 Z-11.941 ; Z-11.941
F1200 X-3.219 Y122.967 Z-11.966 ; Z-11.966
F1200 X-3.219 Y122.967 Z-11.966 ; Z-11.966
F1200 X-3.154 Y122.967 Z-11.985 ; Z-11.985
F1200 X-3.154 Y122.967 Z-11.985 ; Z-11.985
F1200 X-3.088 Y122.967 Z-11.996 ; Z-11.996
F1200 X-3.088 Y122.967 Z-11.996 ; Z-11.996
F1200 X-3.020 Y122.967 Z-12.000 ; Z-12.000
F1200 X-3.020 Y122.967 Z-12.000 ; Z-12.000
F1200 X-2.420 Y122.966 Z-12.000 ; Z-12.000
G3 X-1.82 Y123.565 I0.001 J0.6 F1200
( MOVEMENT_FINISH_CUTTING)
G2 X-0.087 Y126.28 I3 J-0.004 F1200
G1F1200 X-0.087 Y126.280 Z-12.000 ; Z-12.000
G1F1200 X4.445 Y128.393 Z-12.000 ; Z-12.000
G1F1200 X8.976 Y130.506 Z-12.000 ; Z-12.000
G1F1200 X13.508 Y132.619 Z-12.000 ; Z-12.000
G1F1200 X18.039 Y134.732 Z-12.000 ; Z-12.000
G1F1200 X22.571 Y136.845 Z-12.000 ; Z-12.000
G1F1200 X27.102 Y138.959 Z-12.000 ; Z-12.000
G1F1200 X31.634 Y141.072 Z-12.000 ; Z-12.000
G1F1200 X36.165 Y143.185 Z-12.000 ; Z-12.000
G1F1200 X40.697 Y145.298 Z-12.000 ; Z-12.000
G1F1200 X45.228 Y147.411 Z-12.000 ; Z-12.000
G1F1200 X49.760 Y149.524 Z-12.000 ; Z-12.000
G1F1200 X54.291 Y151.637 Z-12.000 ; Z-12.000
G1F1200 X58.823 Y153.750 Z-12.000 ; Z-12.000
G1F1200 X63.355 Y155.863 Z-12.000 ; Z-12.000
G1F1200 X67.886 Y157.976 Z-12.000 ; Z-12.000
G1F1200 X72.418 Y160.089 Z-12.000 ; Z-12.000
G1F1200 X76.949 Y162.203 Z-12.000 ; Z-12.000
G1F1200 X81.481 Y164.316 Z-12.000 ; Z-12.000
G1F1200 X86.012 Y166.429 Z-12.000 ; Z-12.000
G1F1200 X90.544 Y168.542 Z-12.000 ; Z-12.000
G1F1200 X95.075 Y170.655 Z-12.000 ; Z-12.000
G1F1200 X99.607 Y172.768 Z-12.000 ; Z-12.000
G1F1200 X104.138 Y174.881 Z-12.000 ; Z-12.000
G1F1200 X108.670 Y176.994 Z-12.000 ; Z-12.000
G1F1200 X113.201 Y179.107 Z-12.000 ; Z-12.000
G1F1200 X117.733 Y181.220 Z-12.000 ; Z-12.000
G1F1200 X122.265 Y183.333 Z-12.000 ; Z-12.000
G1F1200 X126.796 Y185.447 Z-12.000 ; Z-12.000
G1F1200 X131.328 Y187.560 Z-12.000 ; Z-12.000
G1F1200 X135.859 Y189.673 Z-12.000 ; Z-12.000
G1F1200 X138.416 Y190.865 Z-12.000 ; Z-12.000
G2 X142.684 Y188.146 I1.268 J-2.719 F1200
G1F1200 X142.684 Y188.146 Z-12.000 ; Z-12.000
G1F1200 X142.684 Y183.146 Z-12.000 ; Z-12.000
G1F1200 X142.684 Y178.146 Z-12.000 ; Z-12.000
G1F1200 X142.684 Y173.146 Z-12.000 ; Z-12.000
G1F1200 X142.684 Y168.146 Z-12.000 ; Z-12.000
G1F1200 X142.684 Y163.146 Z-12.000 ; Z-12.000
G1F1200 X142.684 Y158.146 Z-12.000 ; Z-12.000
G1F1200 X142.684 Y153.146 Z-12.000 ; Z-12.000
G1F1200 X142.684 Y148.146 Z-12.000 ; Z-12.000
G1F1200 X142.684 Y143.146 Z-12.000 ; Z-12.000
G1F1200 X142.684 Y138.146 Z-12.000 ; Z-12.000
G1F1200 X142.684 Y133.146 Z-12.000 ; Z-12.000
G1F1200 X142.684 Y128.146 Z-12.000 ; Z-12.000
G1F1200 X142.684 Y123.146 Z-12.000 ; Z-12.000
G1F1200 X142.684 Y118.146 Z-12.000 ; Z-12.000
G1F1200 X142.684 Y113.146 Z-12.000 ; Z-12.000
G1F1200 X142.684 Y108.146 Z-12.000 ; Z-12.000
G1F1200 X142.684 Y103.146 Z-12.000 ; Z-12.000
G1F1200 X142.684 Y98.146 Z-12.000 ; Z-12.000
G1F1200 X142.684 Y93.146 Z-12.000 ; Z-12.000
G1F1200 X142.684 Y88.146 Z-12.000 ; Z-12.000
G1F1200 X142.684 Y83.146 Z-12.000 ; Z-12.000
G1F1200 X142.684 Y80.718 Z-12.000 ; Z-12.000
G2 X138.797 Y77.852 I-3 F1200
G1F1200 X138.797 Y77.852 Z-12.000 ; Z-12.000
G1F1200 X134.020 Y79.330 Z-12.000 ; Z-12.000
G1F1200 X129.244 Y80.807 Z-12.000 ; Z-12.000
G1F1200 X124.467 Y82.285 Z-12.000 ; Z-12.000
G1F1200 X119.690 Y83.762 Z-12.000 ; Z-12.000
G1F1200 X114.914 Y85.240 Z-12.000 ; Z-12.000
G1F1200 X110.137 Y86.717 Z-12.000 ; Z-12.000
G1F1200 X105.360 Y88.195 Z-12.000 ; Z-12.000
G1F1200 X100.583 Y89.673 Z-12.000 ; Z-12.000
G1F1200 X95.807 Y91.150 Z-12.000 ; Z-12.000
G1F1200 X91.030 Y92.628 Z-12.000 ; Z-12.000
G1F1200 X86.253 Y94.105 Z-12.000 ; Z-12.000
G1F1200 X81.477 Y95.583 Z-12.000 ; Z-12.000
G1F1200 X76.700 Y97.060 Z-12.000 ; Z-12.000
G1F1200 X71.923 Y98.538 Z-12.000 ; Z-12.000
G1F1200 X67.147 Y100.016 Z-12.000 ; Z-12.000
G1F1200 X62.370 Y101.493 Z-12.000 ; Z-12.000
G1F1200 X57.593 Y102.971 Z-12.000 ; Z-12.000
G1F1200 X52.817 Y104.448 Z-12.000 ; Z-12.000
G1F1200 X48.040 Y105.926 Z-12.000 ; Z-12.000
G1F1200 X43.263 Y107.403 Z-12.000 ; Z-12.000
G1F1200 X38.486 Y108.881 Z-12.000 ; Z-12.000
G1F1200 X33.710 Y110.359 Z-12.000 ; Z-12.000
G1F1200 X28.933 Y111.836 Z-12.000 ; Z-12.000
G1F1200 X24.156 Y113.314 Z-12.000 ; Z-12.000
G1F1200 X19.380 Y114.791 Z-12.000 ; Z-12.000
G1F1200 X14.603 Y116.269 Z-12.000 ; Z-12.000
G1F1200 X9.826 Y117.746 Z-12.000 ; Z-12.000
G1F1200 X5.050 Y119.224 Z-12.000 ; Z-12.000
G1F1200 X0.294 Y120.695 Z-12.000 ; Z-12.000
G2 X-1.82 Y123.565 I0.887 J2.866 F1200
( MOVEMENT_LEAD_OUT)
G3 X-2.419 Y124.166 I-0.6 J0.001 F1200
G1F1200 X-2.419 Y124.166 Z-12.000 ; Z-12.000
G1F1200 X-3.019 Y124.167 Z-12.000 ; Z-12.000
F1200 X-3.019 Y124.167 Z-12.000 ; Z-12.000
F1200 X-3.086 Y124.167 Z-11.996 ; Z-11.996
F1200 X-3.086 Y124.167 Z-11.996 ; Z-11.996
F1200 X-3.152 Y124.167 Z-11.985 ; Z-11.985
F1200 X-3.152 Y124.167 Z-11.985 ; Z-11.985
F1200 X-3.217 Y124.167 Z-11.966 ; Z-11.966
F1200 X-3.217 Y124.167 Z-11.966 ; Z-11.966
F1200 X-3.279 Y124.167 Z-11.941 ; Z-11.941
F1200 X-3.279 Y124.167 Z-11.941 ; Z-11.941
F1200 X-3.338 Y124.167 Z-11.908 ; Z-11.908
F1200 X-3.338 Y124.167 Z-11.908 ; Z-11.908
F1200 X-3.393 Y124.167 Z-11.869 ; Z-11.869
F1200 X-3.393 Y124.167 Z-11.869 ; Z-11.869
F1200 X-3.443 Y124.167 Z-11.824 ; Z-11.824
F1200 X-3.443 Y124.167 Z-11.824 ; Z-11.824
F1200 X-3.488 Y124.167 Z-11.774 ; Z-11.774
F1200 X-3.488 Y124.167 Z-11.774 ; Z-11.774
F1200 X-3.527 Y124.167 Z-11.719 ; Z-11.719
F1200 X-3.527 Y124.167 Z-11.719 ; Z-11.719
F1200 X-3.559 Y124.167 Z-11.660 ; Z-11.660
F1200 X-3.559 Y124.167 Z-11.660 ; Z-11.660
F1200 X-3.585 Y124.167 Z-11.598 ; Z-11.598
F1200 X-3.585 Y124.167 Z-11.598 ; Z-11.598
F1200 X-3.604 Y124.167 Z-11.534 ; Z-11.534
F1200 X-3.604 Y124.167 Z-11.534 ; Z-11.534
F1200 X-3.615 Y124.167 Z-11.467 ; Z-11.467
F1200 X-3.615 Y124.167 Z-11.467 ; Z-11.467
F1200 X-3.619 Y124.168 Z-11.400 ; Z-11.400
( MOVEMENT_RAPID)
G0F300 X-3.619 Y124.168 Z-11.400 ; Z-11.400
G0F300 X-3.619 Y124.168 Z-6.400 ; Z-6.400
G0F300 X-3.619 Y124.168 Z-1.400 ; Z-1.400
G0F300 X-3.619 Y124.168 Z3.600 ; Z3.600
G0F300 X-3.619 Y124.168 Z5.000 ; Z5.000
F2500 X-3.619 Y124.168 Z5.000 ; Z5.000
F2500 X-3.620 Y122.968 Z5.000 ; Z5.000
( MOVEMENT_PLUNGE)
G1F333 X-3.620 Y122.968 Z5.000 ; Z5.000
G1F333 X-3.620 Y122.968 Z0.000 ; Z0.000
G1F333 X-3.620 Y122.968 Z-5.000 ; Z-5.000
G1F333 X-3.620 Y122.968 Z-10.000 ; Z-10.000
G1F333 X-3.620 Y122.968 Z-11.000 ; Z-11.000
F333 X-3.620 Y122.968 Z-11.000 ; Z-11.000
F333 X-3.620 Y122.968 Z-14.400 ; Z-14.400
( MOVEMENT_LEAD_IN)
F1200 X-3.620 Y122.968 Z-14.400 ; Z-14.400
F1200 X-3.617 Y122.968 Z-14.467 ; Z-14.467
F1200 X-3.617 Y122.968 Z-14.467 ; Z-14.467
F1200 X-3.605 Y122.967 Z-14.534 ; Z-14.534
F1200 X-3.605 Y122.967 Z-14.534 ; Z-14.534
F1200 X-3.587 Y122.967 Z-14.598 ; Z-14.598
F1200 X-3.587 Y122.967 Z-14.598 ; Z-14.598
F1200 X-3.561 Y122.967 Z-14.660 ; Z-14.660
F1200 X-3.561 Y122.967 Z-14.660 ; Z-14.660
F1200 X-3.528 Y122.967 Z-14.719 ; Z-14.719
F1200 X-3.528 Y122.967 Z-14.719 ; Z-14.719
F1200 X-3.489 Y122.967 Z-14.774 ; Z-14.774
F1200 X-3.489 Y122.967 Z-14.774 ; Z-14.774
F1200 X-3.445 Y122.967 Z-14.824 ; Z-14.824
F1200 X-3.445 Y122.967 Z-14.824 ; Z-14.824
F1200 X-3.394 Y122.967 Z-14.869 ; Z-14.869
F1200 X-3.394 Y122.967 Z-14.869 ; Z-14.869
F1200 X-3.340 Y122.967 Z-14.908 ; Z-14.908
F1200 X-3.340 Y122.967 Z-14.908 ; Z-14.908
F1200 X-3.281 Y122.967 Z-14.941 ; Z-14.941
F1200 X-3.281 Y122.967 Z-14.941 ; Z-14.941
F1200 X-3.219 Y122.967 Z-14.966 ; Z-14.966
F1200 X-3.219 Y122.967 Z-14.966 ; Z-14.966
F1200 X-3.154 Y122.967 Z-14.985 ; Z-14.985
F1200 X-3.154 Y122.967 Z-14.985 ; Z-14.985
F1200 X-3.088 Y122.967 Z-14.996 ; Z-14.996
F1200 X-3.088 Y122.967 Z-14.996 ; Z-14.996
F1200 X-3.020 Y122.967 Z-15.000 ; Z-15.000
F1200 X-3.020 Y122.967 Z-15.000 ; Z-15.000
F1200 X-2.420 Y122.966 Z-15.000 ; Z-15.000
G3 X-1.82 Y123.565 I0.001 J0.6 F1200
( MOVEMENT_FINISH_CUTTING)
G2 X-0.087 Y126.28 I3 J-0.004 F1200
G1F1200 X-0.087 Y126.280 Z-15.000 ; Z-15.000
G1F1200 X4.445 Y128.393 Z-15.000 ; Z-15.000
G1F1200 X8.976 Y130.506 Z-15.000 ; Z-15.000
G1F1200 X13.508 Y132.619 Z-15.000 ; Z-15.000
G1F1200 X18.039 Y134.732 Z-15.000 ; Z-15.000
G1F1200 X18.843 Y135.107 Z-15.000 ; Z-15.000
F1200 X18.843 Y135.107 Z-15.000 ; Z-15.000
F1200 X20.928 Y136.079 Z-12.700 ; Z-12.700
F1200 X20.928 Y136.079 Z-12.700 ; Z-12.700
F1200 X25.459 Y138.192 Z-12.700 ; Z-12.700
F1200 X26.366 Y138.615 Z-12.700 ; Z-12.700
( MOVEMENT_PLUNGE)
F333 X26.366 Y138.615 Z-12.700 ; Z-12.700
F333 X28.450 Y139.587 Z-15.000 ; Z-15.000
( MOVEMENT_FINISH_CUTTING)
F1200 X28.450 Y139.587 Z-15.000 ; Z-15.000
F1200 X32.982 Y141.700 Z-15.000 ; Z-15.000
F1200 X37.513 Y143.813 Z-15.000 ; Z-15.000
F1200 X42.045 Y145.926 Z-15.000 ; Z-15.000
F1200 X46.576 Y148.039 Z-15.000 ; Z-15.000
F1200 X51.108 Y150.152 Z-15.000 ; Z-15.000
F1200 X55.639 Y152.265 Z-15.000 ; Z-15.000
F1200 X60.171 Y154.378 Z-15.000 ; Z-15.000
F1200 X64.702 Y156.491 Z-15.000 ; Z-15.000
F1200 X64.751 Y156.514 Z-15.000 ; Z-15.000
F1200 X64.751 Y156.514 Z-15.000 ; Z-15.000
F1200 X66.835 Y157.486 Z-12.700 ; Z-12.700
F1200 X66.835 Y157.486 Z-12.700 ; Z-12.700
F1200 X71.366 Y159.599 Z-12.700 ; Z-12.700
F1200 X72.273 Y160.022 Z-12.700 ; Z-12.700
( MOVEMENT_PLUNGE)
F333 X72.273 Y160.022 Z-12.700 ; Z-12.700
F333 X74.358 Y160.994 Z-15.000 ; Z-15.000
( MOVEMENT_FINISH_CUTTING)
F1200 X74.358 Y160.994 Z-15.000 ; Z-15.000
F1200 X78.890 Y163.107 Z-15.000 ; Z-15.000
F1200 X83.421 Y165.220 Z-15.000 ; Z-15.000
F1200 X87.953 Y167.333 Z-15.000 ; Z-15.000
F1200 X92.484 Y169.447 Z-15.000 ; Z-15.000
F1200 X97.016 Y171.560 Z-15.000 ; Z-15.000
F1200 X101.547 Y173.673 Z-15.000 ; Z-15.000
F1200 X106.079 Y175.786 Z-15.000 ; Z-15.000
F1200 X110.610 Y177.899 Z-15.000 ; Z-15.000
F1200 X110.659 Y177.922 Z-15.000 ; Z-15.000
F1200 X110.659 Y177.922 Z-15.000 ; Z-15.000
F1200 X112.743 Y178.894 Z-12.700 ; Z-12.700
F1200 X112.743 Y178.894 Z-12.700 ; Z-12.700
F1200 X117.275 Y181.007 Z-12.700 ; Z-12.700
F1200 X118.181 Y181.429 Z-12.700 ; Z-12.700
( MOVEMENT_PLUNGE)
F333 X118.181 Y181.429 Z-12.700 ; Z-12.700
F333 X120.266 Y182.401 Z-15.000 ; Z-15.000
( MOVEMENT_FINISH_CUTTING)
F1200 X120.266 Y182.401 Z-15.000 ; Z-15.000
F1200 X124.797 Y184.514 Z-15.000 ; Z-15.000
F1200 X129.329 Y186.627 Z-15.000 ; Z-15.000
F1200 X133.860 Y188.741 Z-15.000 ; Z-15.000
F1200 X138.392 Y190.854 Z-15.000 ; Z-15.000
F1200 X138.416 Y190.865 Z-15.000 ; Z-15.000
G2 X142.684 Y188.146 I1.268 J-2.719 F1200
G1F1200 X142.684 Y188.146 Z-15.000 ; Z-15.000
G1F1200 X142.684 Y183.146 Z-15.000 ; Z-15.000
G1F1200 X142.684 Y178.146 Z-15.000 ; Z-15.000
G1F1200 X142.684 Y173.146 Z-15.000 ; Z-15.000
G1F1200 X142.684 Y168.146 Z-15.000 ; Z-15.000
G1F1200 X142.684 Y168.119 Z-15.000 ; Z-15.000
F1200 X142.684 Y168.119 Z-15.000 ; Z-15.000
F1200 X142.684 Y165.819 Z-12.700 ; Z-12.700
F1200 X142.684 Y165.819 Z-12.700 ; Z-12.700
F1200 X142.684 Y160.819 Z-12.700 ; Z-12.700
F1200 X142.684 Y159.819 Z-12.700 ; Z-12.700
( MOVEMENT_PLUNGE)
F333 X142.684 Y159.819 Z-12.700 ; Z-12.700
F333 X142.684 Y157.519 Z-15.000 ; Z-15.000
( MOVEMENT_FINISH_CUTTING)
F1200 X142.684 Y157.519 Z-15.000 ; Z-15.000
F1200 X142.684 Y152.519 Z-15.000 ; Z-15.000
F1200 X142.684 Y147.519 Z-15.000 ; Z-15.000
F1200 X142.684 Y142.519 Z-15.000 ; Z-15.000
F1200 X142.684 Y137.519 Z-15.000 ; Z-15.000
F1200 X142.684 Y132.519 Z-15.000 ; Z-15.000
F1200 X142.684 Y127.519 Z-15.000 ; Z-15.000
F1200 X142.684 Y122.519 Z-15.000 ; Z-15.000
F1200 X142.684 Y117.519 Z-15.000 ; Z-15.000
F1200 X142.684 Y117.466 Z-15.000 ; Z-15.000
F1200 X142.684 Y117.466 Z-15.000 ; Z-15.000
F1200 X142.684 Y115.166 Z-12.700 ; Z-12.700
F1200 X142.684 Y115.166 Z-12.700 ; Z-12.700
F1200 X142.684 Y110.166 Z-12.700 ; Z-12.700
F1200 X142.684 Y109.166 Z-12.700 ; Z-12.700
( MOVEMENT_PLUNGE)
F333 X142.684 Y109.166 Z-12.700 ; Z-12.700
F333 X142.684 Y106.866 Z-15.000 ; Z-15.000
( MOVEMENT_FINISH_CUTTING)
F1200 X142.684 Y106.866 Z-15.000 ; Z-15.000
F1200 X142.684 Y101.866 Z-15.000 ; Z-15.000
F1200 X142.684 Y96.866 Z-15.000 ; Z-15.000
F1200 X142.684 Y91.866 Z-15.000 ; Z-15.000
F1200 X142.684 Y86.866 Z-15.000 ; Z-15.000
F1200 X142.684 Y81.866 Z-15.000 ; Z-15.000
F1200 X142.684 Y80.718 Z-15.000 ; Z-15.000
G2 X138.797 Y77.852 I-3 F1200
G1F1200 X138.797 Y77.852 Z-15.000 ; Z-15.000
G1F1200 X134.020 Y79.330 Z-15.000 ; Z-15.000
G1F1200 X129.244 Y80.807 Z-15.000 ; Z-15.000
G1F1200 X125.513 Y81.961 Z-15.000 ; Z-15.000
F1200 X125.513 Y81.961 Z-15.000 ; Z-15.000
F1200 X123.315 Y82.641 Z-12.700 ; Z-12.700
F1200 X123.315 Y82.641 Z-12.700 ; Z-12.700
F1200 X118.538 Y84.119 Z-12.700 ; Z-12.700
F1200 X117.583 Y84.414 Z-12.700 ; Z-12.700
( MOVEMENT_PLUNGE)
F333 X117.583 Y84.414 Z-12.700 ; Z-12.700
F333 X115.386 Y85.094 Z-15.000 ; Z-15.000
( MOVEMENT_FINISH_CUTTING)
F1200 X115.386 Y85.094 Z-15.000 ; Z-15.000
F1200 X110.609 Y86.572 Z-15.000 ; Z-15.000
F1200 X105.833 Y88.049 Z-15.000 ; Z-15.000
F1200 X101.056 Y89.527 Z-15.000 ; Z-15.000
F1200 X96.279 Y91.004 Z-15.000 ; Z-15.000
F1200 X91.503 Y92.482 Z-15.000 ; Z-15.000
F1200 X86.726 Y93.959 Z-15.000 ; Z-15.000
F1200 X81.949 Y95.437 Z-15.000 ; Z-15.000
F1200 X77.172 Y96.914 Z-15.000 ; Z-15.000
F1200 X77.122 Y96.930 Z-15.000 ; Z-15.000
F1200 X77.122 Y96.930 Z-15.000 ; Z-15.000
F1200 X74.924 Y97.610 Z-12.700 ; Z-12.700
F1200 X74.924 Y97.610 Z-12.700 ; Z-12.700
F1200 X70.147 Y99.088 Z-12.700 ; Z-12.700
F1200 X69.192 Y99.383 Z-12.700 ; Z-12.700
( MOVEMENT_PLUNGE)
F333 X69.192 Y99.383 Z-12.700 ; Z-12.700
F333 X66.995 Y100.062 Z-15.000 ; Z-15.000
( MOVEMENT_FINISH_CUTTING)
F1200 X66.995 Y100.062 Z-15.000 ; Z-15.000
F1200 X62.218 Y101.540 Z-15.000 ; Z-15.000
F1200 X57.442 Y103.017 Z-15.000 ; Z-15.000
F1200 X52.665 Y104.495 Z-15.000 ; Z-15.000
F1200 X47.888 Y105.973 Z-15.000 ; Z-15.000
F1200 X43.112 Y107.450 Z-15.000 ; Z-15.000
F1200 X38.335 Y108.928 Z-15.000 ; Z-15.000
F1200 X33.558 Y110.405 Z-15.000 ; Z-15.000
F1200 X28.782 Y111.883 Z-15.000 ; Z-15.000
F1200 X28.730 Y111.899 Z-15.000 ; Z-15.000
F1200 X28.730 Y111.899 Z-15.000 ; Z-15.000
F1200 X26.533 Y112.579 Z-12.700 ; Z-12.700
F1200 X26.533 Y112.579 Z-12.700 ; Z-12.700
F1200 X21.756 Y114.057 Z-12.700 ; Z-12.700
F1200 X20.801 Y114.352 Z-12.700 ; Z-12.700
( MOVEMENT_PLUNGE)
F333 X20.801 Y114.352 Z-12.700 ; Z-12.700
F333 X18.604 Y115.031 Z-15.000 ; Z-15.000
( MOVEMENT_FINISH_CUTTING)
F1200 X18.604 Y115.031 Z-15.000 ; Z-15.000
F1200 X13.827 Y116.509 Z-15.000 ; Z-15.000
F1200 X9.051 Y117.986 Z-15.000 ; Z-15.000
F1200 X4.274 Y119.464 Z-15.000 ; Z-15.000
F1200 X0.294 Y120.695 Z-15.000 ; Z-15.000
G2 X-1.82 Y123.565 I0.887 J2.866 F1200
( MOVEMENT_LEAD_OUT)
G3 X-2.419 Y124.166 I-0.6 J0.001 F1200
G1F1200 X-2.419 Y124.166 Z-15.000 ; Z-15.000
G1F1200 X-3.019 Y124.167 Z-15.000 ; Z-15.000
F1200 X-3.019 Y124.167 Z-15.000 ; Z-15.000
F1200 X-3.086 Y124.167 Z-14.996 ; Z-14.996
F1200 X-3.086 Y124.167 Z-14.996 ; Z-14.996
F1200 X-3.152 Y124.167 Z-14.985 ; Z-14.985
F1200 X-3.152 Y124.167 Z-14.985 ; Z-14.985
F1200 X-3.217 Y124.167 Z-14.966 ; Z-14.966
F1200 X-3.217 Y124.167 Z-14.966 ; Z-14.966
F1200 X-3.279 Y124.167 Z-14.941 ; Z-14.941
F1200 X-3.279 Y124.167 Z-14.941 ; Z-14.941
F1200 X-3.338 Y124.167 Z-14.908 ; Z-14.908
F1200 X-3.338 Y124.167 Z-14.908 ; Z-14.908
F1200 X-3.393 Y124.167 Z-14.869 ; Z-14.869
F1200 X-3.393 Y124.167 Z-14.869 ; Z-14.869
F1200 X-3.443 Y124.167 Z-14.824 ; Z-14.824
F1200 X-3.443 Y124.167 Z-14.824 ; Z-14.824
F1200 X-3.488 Y124.167 Z-14.774 ; Z-14.774
F1200 X-3.488 Y124.167 Z-14.774 ; Z-14.774
F1200 X-3.527 Y124.167 Z-14.719 ; Z-14.719
F1200 X-3.527 Y124.167 Z-14.719 ; Z-14.719
F1200 X-3.559 Y124.167 Z-14.660 ; Z-14.660
F1200 X-3.559 Y124.167 Z-14.660 ; Z-14.660
F1200 X-3.585 Y124.167 Z-14.598 ; Z-14.598
F1200 X-3.585 Y124.167 Z-14.598 ; Z-14.598
F1200 X-3.604 Y124.167 Z-14.534 ; Z-14.534
F1200 X-3.604 Y124.167 Z-14.534 ; Z-14.534
F1200 X-3.615 Y124.167 Z-14.467 ; Z-14.467
F1200 X-3.615 Y124.167 Z-14.467 ; Z-14.467
F1200 X-3.619 Y124.168 Z-14.400 ; Z-14.400
( MOVEMENT_RAPID)
G0F300 X-3.619 Y124.168 Z-14.400 ; Z-14.400
G0F300 X-3.619 Y124.168 Z-9.400 ; Z-9.400
G0F300 X-3.619 Y124.168 Z-4.400 ; Z-4.400
G0F300 X-3.619 Y124.168 Z0.600 ; Z0.600
G0F300 X-3.619 Y124.168 Z5.000 ; Z5.000
F2500 X-3.619 Y124.168 Z5.000 ; Z5.000
F2500 X-3.620 Y122.968 Z5.000 ; Z5.000
( MOVEMENT_PLUNGE)
G1F333 X-3.620 Y122.968 Z5.000 ; Z5.000
G1F333 X-3.620 Y122.968 Z0.000 ; Z0.000
G1F333 X-3.620 Y122.968 Z-5.000 ; Z-5.000
G1F333 X-3.620 Y122.968 Z-10.000 ; Z-10.000
G1F333 X-3.620 Y122.968 Z-14.000 ; Z-14.000
F333 X-3.620 Y122.968 Z-14.000 ; Z-14.000
F333 X-3.620 Y122.968 Z-17.100 ; Z-17.100
( MOVEMENT_LEAD_IN)
F1200 X-3.620 Y122.968 Z-17.100 ; Z-17.100
F1200 X-3.617 Y122.968 Z-17.167 ; Z-17.167
F1200 X-3.617 Y122.968 Z-17.167 ; Z-17.167
F1200 X-3.605 Y122.967 Z-17.234 ; Z-17.234
F1200 X-3.605 Y122.967 Z-17.234 ; Z-17.234
F1200 X-3.587 Y122.967 Z-17.298 ; Z-17.298
F1200 X-3.587 Y122.967 Z-17.298 ; Z-17.298
F1200 X-3.561 Y122.967 Z-17.360 ; Z-17.360
F1200 X-3.561 Y122.967 Z-17.360 ; Z-17.360
F1200 X-3.528 Y122.967 Z-17.419 ; Z-17.419
F1200 X-3.528 Y122.967 Z-17.419 ; Z-17.419
F1200 X-3.489 Y122.967 Z-17.474 ; Z-17.474
F1200 X-3.489 Y122.967 Z-17.474 ; Z-17.474
F1200 X-3.445 Y122.967 Z-17.524 ; Z-17.524
F1200 X-3.445 Y122.967 Z-17.524 ; Z-17.524
F1200 X-3.394 Y122.967 Z-17.569 ; Z-17.569
F1200 X-3.394 Y122.967 Z-17.569 ; Z-17.569
F1200 X-3.340 Y122.967 Z-17.608 ; Z-17.608
F1200 X-3.340 Y122.967 Z-17.608 ; Z-17.608
F1200 X-3.281 Y122.967 Z-17.641 ; Z-17.641
F1200 X-3.281 Y122.967 Z-17.641 ; Z-17.641
F1200 X-3.219 Y122.967 Z-17.666 ; Z-17.666
F1200 X-3.219 Y122.967 Z-17.666 ; Z-17.666
F1200 X-3.154 Y122.967 Z-17.685 ; Z-17.685
F1200 X-3.154 Y122.967 Z-17.685 ; Z-17.685
F1200 X-3.088 Y122.967 Z-17.696 ; Z-17.696
F1200 X-3.088 Y122.967 Z-17.696 ; Z-17.696
F1200 X-3.020 Y122.967 Z-17.700 ; Z-17.700
F1200 X-3.020 Y122.967 Z-17.700 ; Z-17.700
F1200 X-2.420 Y122.966 Z-17.700 ; Z-17.700
G3 X-1.82 Y123.565 I0.001 J0.6 F1200
( MOVEMENT_FINISH_CUTTING)
G2 X-0.087 Y126.28 I3 J-0.004 F1200
G1F1200 X-0.087 Y126.280 Z-17.700 ; Z-17.700
G1F1200 X4.445 Y128.393 Z-17.700 ; Z-17.700
G1F1200 X8.976 Y130.506 Z-17.700 ; Z-17.700
G1F1200 X13.508 Y132.619 Z-17.700 ; Z-17.700
G1F1200 X16.396 Y133.966 Z-17.700 ; Z-17.700
F1200 X16.396 Y133.966 Z-17.700 ; Z-17.700
F1200 X19.600 Y135.460 Z-14.165 ; Z-14.165
F1200 X20.928 Y136.079 Z-12.700 ; Z-12.700
F1200 X20.928 Y136.079 Z-12.700 ; Z-12.700
F1200 X25.459 Y138.192 Z-12.700 ; Z-12.700
F1200 X26.366 Y138.615 Z-12.700 ; Z-12.700
( MOVEMENT_PLUNGE)
F333 X26.366 Y138.615 Z-12.700 ; Z-12.700
F333 X29.570 Y140.109 Z-16.236 ; Z-16.236
F333 X30.897 Y140.728 Z-17.700 ; Z-17.700
( MOVEMENT_FINISH_CUTTING)
F1200 X30.897 Y140.728 Z-17.700 ; Z-17.700
F1200 X35.429 Y142.841 Z-17.700 ; Z-17.700
F1200 X39.960 Y144.954 Z-17.700 ; Z-17.700
F1200 X44.492 Y147.067 Z-17.700 ; Z-17.700
F1200 X49.023 Y149.180 Z-17.700 ; Z-17.700
F1200 X53.555 Y151.293 Z-17.700 ; Z-17.700
F1200 X58.086 Y153.406 Z-17.700 ; Z-17.700
F1200 X62.304 Y155.373 Z-17.700 ; Z-17.700
F1200 X62.304 Y155.373 Z-17.700 ; Z-17.700
F1200 X65.508 Y156.867 Z-14.164 ; Z-14.164
F1200 X66.835 Y157.486 Z-12.700 ; Z-12.700
F1200 X66.835 Y157.486 Z-12.700 ; Z-12.700
F1200 X71.366 Y159.599 Z-12.700 ; Z-12.700
F1200 X72.273 Y160.022 Z-12.700 ; Z-12.700
( MOVEMENT_PLUNGE)
F333 X72.273 Y160.022 Z-12.700 ; Z-12.700
F333 X75.477 Y161.516 Z-16.235 ; Z-16.235
F333 X76.805 Y162.135 Z-17.700 ; Z-17.700
( MOVEMENT_FINISH_CUTTING)
F1200 X76.805 Y162.135 Z-17.700 ; Z-17.700
F1200 X81.337 Y164.248 Z-17.700 ; Z-17.700
F1200 X85.868 Y166.361 Z-17.700 ; Z-17.700
F1200 X90.400 Y168.475 Z-17.700 ; Z-17.700
F1200 X94.931 Y170.588 Z-17.700 ; Z-17.700
F1200 X99.463 Y172.701 Z-17.700 ; Z-17.700
F1200 X103.994 Y174.814 Z-17.700 ; Z-17.700
F1200 X108.212 Y176.781 Z-17.700 ; Z-17.700
F1200 X108.212 Y176.781 Z-17.700 ; Z-17.700
F1200 X111.416 Y178.275 Z-14.164 ; Z-14.164
F1200 X112.743 Y178.894 Z-12.700 ; Z-12.700
F1200 X112.743 Y178.894 Z-12.700 ; Z-12.700
F1200 X117.275 Y181.007 Z-12.700 ; Z-12.700
F1200 X118.181 Y181.429 Z-12.700 ; Z-12.700
( MOVEMENT_PLUNGE)
F333 X118.181 Y181.429 Z-12.700 ; Z-12.700
F333 X121.385 Y182.923 Z-16.235 ; Z-16.235
F333 X122.713 Y183.542 Z-17.700 ; Z-17.700
( MOVEMENT_FINISH_CUTTING)
F1200 X122.713 Y183.542 Z-17.700 ; Z-17.700
F1200 X127.244 Y185.655 Z-17.700 ; Z-17.700
F1200 X131.776 Y187.768 Z-17.700 ; Z-17.700
F1200 X136.307 Y189.882 Z-17.700 ; Z-17.700
F1200 X138.416 Y190.865 Z-17.700 ; Z-17.700
G2 X142.684 Y188.146 I1.268 J-2.719 F1200
G1F1200 X142.684 Y188.146 Z-17.700 ; Z-17.700
G1F1200 X142.684 Y183.146 Z-17.700 ; Z-17.700
G1F1200 X142.684 Y178.146 Z-17.700 ; Z-17.700
G1F1200 X142.684 Y173.146 Z-17.700 ; Z-17.700
G1F1200 X142.684 Y170.819 Z-17.700 ; Z-17.700
F1200 X142.684 Y170.819 Z-17.700 ; Z-17.700
F1200 X142.684 Y167.283 Z-14.164 ; Z-14.164
F1200 X142.684 Y165.819 Z-12.700 ; Z-12.700
F1200 X142.684 Y165.819 Z-12.700 ; Z-12.700
F1200 X142.684 Y160.819 Z-12.700 ; Z-12.700
F1200 X142.684 Y159.819 Z-12.700 ; Z-12.700
( MOVEMENT_PLUNGE)
F333 X142.684 Y159.819 Z-12.700 ; Z-12.700
F333 X142.684 Y156.283 Z-16.236 ; Z-16.236
F333 X142.684 Y154.819 Z-17.700 ; Z-17.700
( MOVEMENT_FINISH_CUTTING)
F1200 X142.684 Y154.819 Z-17.700 ; Z-17.700
F1200 X142.684 Y149.819 Z-17.700 ; Z-17.700
F1200 X142.684 Y144.819 Z-17.700 ; Z-17.700
F1200 X142.684 Y139.819 Z-17.700 ; Z-17.700
F1200 X142.684 Y134.819 Z-17.700 ; Z-17.700
F1200 X142.684 Y129.819 Z-17.700 ; Z-17.700
F1200 X142.684 Y124.819 Z-17.700 ; Z-17.700
F1200 X142.684 Y120.166 Z-17.700 ; Z-17.700
F1200 X142.684 Y120.166 Z-17.700 ; Z-17.700
F1200 X142.684 Y116.630 Z-14.164 ; Z-14.164
F1200 X142.684 Y115.166 Z-12.700 ; Z-12.700
F1200 X142.684 Y115.166 Z-12.700 ; Z-12.700
F1200 X142.684 Y110.166 Z-12.700 ; Z-12.700
F1200 X142.684 Y109.166 Z-12.700 ; Z-12.700
( MOVEMENT_PLUNGE)
F333 X142.684 Y109.166 Z-12.700 ; Z-12.700
F333 X142.684 Y105.630 Z-16.236 ; Z-16.236
F333 X142.684 Y104.166 Z-17.700 ; Z-17.700
( MOVEMENT_FINISH_CUTTING)
F1200 X142.684 Y104.166 Z-17.700 ; Z-17.700
F1200 X142.684 Y99.166 Z-17.700 ; Z-17.700
F1200 X142.684 Y94.166 Z-17.700 ; Z-17.700
F1200 X142.684 Y89.166 Z-17.700 ; Z-17.700
F1200 X142.684 Y84.166 Z-17.700 ; Z-17.700
F1200 X142.684 Y80.718 Z-17.700 ; Z-17.700
G2 X138.797 Y77.852 I-3 F1200
G1F1200 X138.797 Y77.852 Z-17.700 ; Z-17.700
G1F1200 X134.020 Y79.329 Z-17.700 ; Z-17.700
G1F1200 X129.244 Y80.807 Z-17.700 ; Z-17.700
G1F1200 X128.092 Y81.163 Z-17.700 ; Z-17.700
F1200 X128.092 Y81.163 Z-17.700 ; Z-17.700
F1200 X124.714 Y82.208 Z-14.165 ; Z-14.165
F1200 X123.315 Y82.641 Z-12.700 ; Z-12.700
F1200 X123.315 Y82.641 Z-12.700 ; Z-12.700
F1200 X118.538 Y84.119 Z-12.700 ; Z-12.700
F1200 X117.583 Y84.414 Z-12.700 ; Z-12.700
( MOVEMENT_PLUNGE)
F333 X117.583 Y84.414 Z-12.700 ; Z-12.700
F333 X114.206 Y85.459 Z-16.236 ; Z-16.236
F333 X112.807 Y85.892 Z-17.700 ; Z-17.700
( MOVEMENT_FINISH_CUTTING)
F1200 X112.807 Y85.892 Z-17.700 ; Z-17.700
F1200 X108.030 Y87.369 Z-17.700 ; Z-17.700
F1200 X103.254 Y88.847 Z-17.700 ; Z-17.700
F1200 X98.477 Y90.324 Z-17.700 ; Z-17.700
F1200 X93.700 Y91.802 Z-17.700 ; Z-17.700
F1200 X88.923 Y93.279 Z-17.700 ; Z-17.700
F1200 X84.147 Y94.757 Z-17.700 ; Z-17.700
F1200 X79.701 Y96.132 Z-17.700 ; Z-17.700
F1200 X79.701 Y96.132 Z-17.700 ; Z-17.700
F1200 X76.323 Y97.177 Z-14.165 ; Z-14.165
F1200 X74.924 Y97.610 Z-12.700 ; Z-12.700
F1200 X74.924 Y97.610 Z-12.700 ; Z-12.700
F1200 X70.147 Y99.088 Z-12.700 ; Z-12.700
F1200 X69.192 Y99.383 Z-12.700 ; Z-12.700
( MOVEMENT_PLUNGE)
F333 X69.192 Y99.383 Z-12.700 ; Z-12.700
F333 X65.815 Y100.427 Z-16.236 ; Z-16.236
F333 X64.416 Y100.860 Z-17.700 ; Z-17.700
( MOVEMENT_FINISH_CUTTING)
F1200 X64.416 Y100.860 Z-17.700 ; Z-17.700
F1200 X59.639 Y102.338 Z-17.700 ; Z-17.700
F1200 X54.863 Y103.815 Z-17.700 ; Z-17.700
F1200 X50.086 Y105.293 Z-17.700 ; Z-17.700
F1200 X45.309 Y106.770 Z-17.700 ; Z-17.700
F1200 X40.533 Y108.248 Z-17.700 ; Z-17.700
F1200 X35.756 Y109.726 Z-17.700 ; Z-17.700
F1200 X31.310 Y111.101 Z-17.700 ; Z-17.700
F1200 X31.310 Y111.101 Z-17.700 ; Z-17.700
F1200 X27.932 Y112.146 Z-14.165 ; Z-14.165
F1200 X26.533 Y112.579 Z-12.700 ; Z-12.700
F1200 X26.533 Y112.579 Z-12.700 ; Z-12.700
F1200 X21.756 Y114.057 Z-12.700 ; Z-12.700
F1200 X20.801 Y114.352 Z-12.700 ; Z-12.700
( MOVEMENT_PLUNGE)
F333 X20.801 Y114.352 Z-12.700 ; Z-12.700
F333 X17.423 Y115.396 Z-16.235 ; Z-16.235
F333 X16.024 Y115.829 Z-17.700 ; Z-17.700
( MOVEMENT_FINISH_CUTTING)
F1200 X16.024 Y115.829 Z-17.700 ; Z-17.700
F1200 X11.247 Y117.307 Z-17.700 ; Z-17.700
F1200 X6.471 Y118.784 Z-17.700 ; Z-17.700
F1200 X1.694 Y120.262 Z-17.700 ; Z-17.700
F1200 X0.294 Y120.695 Z-17.700 ; Z-17.700
G2 X-1.82 Y123.565 I0.887 J2.866 F1200
( MOVEMENT_LEAD_OUT)
G3 X-2.419 Y124.166 I-0.6 J0.001 F1200
G1F1200 X-2.419 Y124.166 Z-17.700 ; Z-17.700
G1F1200 X-3.019 Y124.167 Z-17.700 ; Z-17.700
F1200 X-3.019 Y124.167 Z-17.700 ; Z-17.700
F1200 X-3.086 Y124.167 Z-17.696 ; Z-17.696
F1200 X-3.086 Y124.167 Z-17.696 ; Z-17.696
F1200 X-3.152 Y124.167 Z-17.685 ; Z-17.685
F1200 X-3.152 Y124.167 Z-17.685 ; Z-17.685
F1200 X-3.217 Y124.167 Z-17.666 ; Z-17.666
F1200 X-3.217 Y124.167 Z-17.666 ; Z-17.666
F1200 X-3.279 Y124.167 Z-17.641 ; Z-17.641
F1200 X-3.279 Y124.167 Z-17.641 ; Z-17.641
F1200 X-3.338 Y124.167 Z-17.608 ; Z-17.608
F1200 X-3.338 Y124.167 Z-17.608 ; Z-17.608
F1200 X-3.393 Y124.167 Z-17.569 ; Z-17.569
F1200 X-3.393 Y124.167 Z-17.569 ; Z-17.569
F1200 X-3.443 Y124.167 Z-17.524 ; Z-17.524
F1200 X-3.443 Y124.167 Z-17.524 ; Z-17.524
F1200 X-3.488 Y124.167 Z-17.474 ; Z-17.474
F1200 X-3.488 Y124.167 Z-17.474 ; Z-17.474
F1200 X-3.527 Y124.167 Z-17.419 ; Z-17.419
F1200 X-3.527 Y124.167 Z-17.419 ; Z-17.419
F1200 X-3.559 Y124.167 Z-17.360 ; Z-17.360
F1200 X-3.559 Y124.167 Z-17.360 ; Z-17.360
F1200 X-3.585 Y124.167 Z-17.298 ; Z-17.298
F1200 X-3.585 Y124.167 Z-17.298 ; Z-17.298
F1200 X-3.604 Y124.167 Z-17.234 ; Z-17.234
F1200 X-3.604 Y124.167 Z-17.234 ; Z-17.234
F1200 X-3.615 Y124.167 Z-17.167 ; Z-17.167
F1200 X-3.615 Y124.167 Z-17.167 ; Z-17.167
F1200 X-3.619 Y124.168 Z-17.100 ; Z-17.100
( MOVEMENT_RAPID)
G0F300 X-3.619 Y124.168 Z-17.100 ; Z-17.100
G0F300 X-3.619 Y124.168 Z-12.100 ; Z-12.100
G0F300 X-3.619 Y124.168 Z-7.100 ; Z-7.100
G0F300 X-3.619 Y124.168 Z-2.100 ; Z-2.100
G0F300 X-3.619 Y124.168 Z2.900 ; Z2.900
G0F300 X-3.619 Y124.168 Z5.000 ; Z5.000
F2500 X-3.619 Y124.168 Z5.000 ; Z5.000
F2500 X0.756 Y126.588 Z5.000 ; Z5.000
F2500 X5.132 Y129.008 Z5.000 ; Z5.000
F2500 X9.507 Y131.428 Z5.000 ; Z5.000
F2500 X13.882 Y133.848 Z5.000 ; Z5.000
F2500 X18.258 Y136.268 Z5.000 ; Z5.000
F2500 X22.633 Y138.688 Z5.000 ; Z5.000
F2500 X27.008 Y141.108 Z5.000 ; Z5.000
F2500 X31.384 Y143.528 Z5.000 ; Z5.000
F2500 X35.759 Y145.948 Z5.000 ; Z5.000
F2500 X40.134 Y148.368 Z5.000 ; Z5.000
F2500 X44.510 Y150.788 Z5.000 ; Z5.000
F2500 X48.885 Y153.208 Z5.000 ; Z5.000
F2500 X53.260 Y155.628 Z5.000 ; Z5.000
F2500 X57.636 Y158.048 Z5.000 ; Z5.000
F2500 X62.011 Y160.468 Z5.000 ; Z5.000
F2500 X66.386 Y162.888 Z5.000 ; Z5.000
F2500 X70.762 Y165.308 Z5.000 ; Z5.000
F2500 X75.137 Y167.728 Z5.000 ; Z5.000
F2500 X79.512 Y170.148 Z5.000 ; Z5.000
F2500 X83.888 Y172.568 Z5.000 ; Z5.000
F2500 X88.263 Y174.988 Z5.000 ; Z5.000
F2500 X92.638 Y177.408 Z5.000 ; Z5.000
F2500 X97.014 Y179.828 Z5.000 ; Z5.000
F2500 X101.389 Y182.248 Z5.000 ; Z5.000
F2500 X105.764 Y184.668 Z5.000 ; Z5.000
F2500 X110.140 Y187.088 Z5.000 ; Z5.000
F2500 X114.515 Y189.508 Z5.000 ; Z5.000
F2500 X118.890 Y191.928 Z5.000 ; Z5.000
F2500 X123.266 Y194.348 Z5.000 ; Z5.000
F2500 X127.641 Y196.768 Z5.000 ; Z5.000
F2500 X132.016 Y199.188 Z5.000 ; Z5.000
F2500 X136.392 Y201.608 Z5.000 ; Z5.000
F2500 X140.767 Y204.028 Z5.000 ; Z5.000
F2500 X143.269 Y205.412 Z5.000 ; Z5.000
( MOVEMENT_PLUNGE)
G1F333 X143.269 Y205.412 Z5.000 ; Z5.000
G1F333 X143.269 Y205.412 Z1.000 ; Z1.000
F333 X143.269 Y205.412 Z1.000 ; Z1.000
F333 X143.269 Y205.412 Z-2.400 ; Z-2.400
( MOVEMENT_LEAD_IN)
F1200 X143.269 Y205.412 Z-2.400 ; Z-2.400
F1200 X143.265 Y205.412 Z-2.467 ; Z-2.467
F1200 X143.265 Y205.412 Z-2.467 ; Z-2.467
F1200 X143.254 Y205.411 Z-2.534 ; Z-2.534
F1200 X143.254 Y205.411 Z-2.534 ; Z-2.534
F1200 X143.236 Y205.410 Z-2.598 ; Z-2.598
F1200 X143.236 Y205.410 Z-2.598 ; Z-2.598
F1200 X143.210 Y205.409 Z-2.660 ; Z-2.660
F1200 X143.210 Y205.409 Z-2.660 ; Z-2.660
F1200 X143.177 Y205.408 Z-2.719 ; Z-2.719
F1200 X143.177 Y205.408 Z-2.719 ; Z-2.719
F1200 X143.138 Y205.406 Z-2.774 ; Z-2.774
F1200 X143.138 Y205.406 Z-2.774 ; Z-2.774
F1200 X143.094 Y205.404 Z-2.824 ; Z-2.824
F1200 X143.094 Y205.404 Z-2.824 ; Z-2.824
F1200 X143.043 Y205.401 Z-2.869 ; Z-2.869
F1200 X143.043 Y205.401 Z-2.869 ; Z-2.869
F1200 X142.989 Y205.399 Z-2.908 ; Z-2.908
F1200 X142.989 Y205.399 Z-2.908 ; Z-2.908
F1200 X142.930 Y205.396 Z-2.941 ; Z-2.941
F1200 X142.930 Y205.396 Z-2.941 ; Z-2.941
F1200 X142.868 Y205.393 Z-2.966 ; Z-2.966
F1200 X142.868 Y205.393 Z-2.966 ; Z-2.966
F1200 X142.803 Y205.390 Z-2.985 ; Z-2.985
F1200 X142.803 Y205.390 Z-2.985 ; Z-2.985
F1200 X142.737 Y205.387 Z-2.996 ; Z-2.996
F1200 X142.737 Y205.387 Z-2.996 ; Z-2.996
F1200 X142.670 Y205.384 Z-3.000 ; Z-3.000
F1200 X142.670 Y205.384 Z-3.000 ; Z-3.000
F1200 X142.070 Y205.355 Z-3.000 ; Z-3.000
G3 X141.5 Y204.727 I0.028 J-0.599 F1200
( MOVEMENT_FINISH_CUTTING)
G2 X139.771 Y201.866 I-2.997 J-0.142 F1200
G1F1200 X139.771 Y201.866 Z-3.000 ; Z-3.000
G1F1200 X135.239 Y199.753 Z-3.000 ; Z-3.000
G1F1200 X130.708 Y197.640 Z-3.000 ; Z-3.000
G1F1200 X126.176 Y195.527 Z-3.000 ; Z-3.000
G1F1200 X121.645 Y193.414 Z-3.000 ; Z-3.000
G1F1200 X117.113 Y191.301 Z-3.000 ; Z-3.000
G1F1200 X112.582 Y189.187 Z-3.000 ; Z-3.000
G1F1200 X108.050 Y187.074 Z-3.000 ; Z-3.000
G1F1200 X103.519 Y184.961 Z-3.000 ; Z-3.000
G1F1200 X98.987 Y182.848 Z-3.000 ; Z-3.000
G1F1200 X94.456 Y180.735 Z-3.000 ; Z-3.000
G1F1200 X89.924 Y178.622 Z-3.000 ; Z-3.000
G1F1200 X85.393 Y176.509 Z-3.000 ; Z-3.000
G1F1200 X80.861 Y174.396 Z-3.000 ; Z-3.000
G1F1200 X76.329 Y172.283 Z-3.000 ; Z-3.000
G1F1200 X71.798 Y170.170 Z-3.000 ; Z-3.000
G1F1200 X67.266 Y168.057 Z-3.000 ; Z-3.000
G1F1200 X62.735 Y165.943 Z-3.000 ; Z-3.000
G1F1200 X58.203 Y163.830 Z-3.000 ; Z-3.000
G1F1200 X53.672 Y161.717 Z-3.000 ; Z-3.000
G1F1200 X49.140 Y159.604 Z-3.000 ; Z-3.000
G1F1200 X44.609 Y157.491 Z-3.000 ; Z-3.000
G1F1200 X40.077 Y155.378 Z-3.000 ; Z-3.000
G1F1200 X35.546 Y153.265 Z-3.000 ; Z-3.000
G1F1200 X31.014 Y151.152 Z-3.000 ; Z-3.000
G1F1200 X26.483 Y149.039 Z-3.000 ; Z-3.000
G1F1200 X21.951 Y146.926 Z-3.000 ; Z-3.000
G1F1200 X17.419 Y144.813 Z-3.000 ; Z-3.000
G1F1200 X12.888 Y142.699 Z-3.000 ; Z-3.000
G1F1200 X8.356 Y140.586 Z-3.000 ; Z-3.000
G1F1200 X3.825 Y138.473 Z-3.000 ; Z-3.000
G1F1200 X1.268 Y137.281 Z-3.000 ; Z-3.000
G2 X-3 Y140 I-1.268 J2.719 F1200
G1F1200 X-3.000 Y140.000 Z-3.000 ; Z-3.000
G1F1200 X-3.000 Y145.000 Z-3.000 ; Z-3.000
G1F1200 X-3.000 Y150.000 Z-3.000 ; Z-3.000
G1F1200 X-3.000 Y155.000 Z-3.000 ; Z-3.000
G1F1200 X-3.000 Y160.000 Z-3.000 ; Z-3.000
G1F1200 X-3.000 Y165.000 Z-3.000 ; Z-3.000
G1F1200 X-3.000 Y170.000 Z-3.000 ; Z-3.000
G1F1200 X-3.000 Y175.000 Z-3.000 ; Z-3.000
G1F1200 X-3.000 Y180.000 Z-3.000 ; Z-3.000
G1F1200 X-3.000 Y185.000 Z-3.000 ; Z-3.000
G1F1200 X-3.000 Y190.000 Z-3.000 ; Z-3.000
G1F1200 X-3.000 Y195.000 Z-3.000 ; Z-3.000
G1F1200 X-3.000 Y200.000 Z-3.000 ; Z-3.000
G1F1200 X-3.000 Y205.000 Z-3.000 ; Z-3.000
G1F1200 X-3.000 Y210.000 Z-3.000 ; Z-3.000
G1F1200 X-3.000 Y215.000 Z-3.000 ; Z-3.000
G1F1200 X-3.000 Y220.000 Z-3.000 ; Z-3.000
G1F1200 X-3.000 Y225.000 Z-3.000 ; Z-3.000
G1F1200 X-3.000 Y230.000 Z-3.000 ; Z-3.000
G1F1200 X-3.000 Y235.000 Z-3.000 ; Z-3.000
G1F1200 X-3.000 Y240.000 Z-3.000 ; Z-3.000
G1F1200 X-3.000 Y245.000 Z-3.000 ; Z-3.000
G1F1200 X-3.000 Y247.428 Z-3.000 ; Z-3.000
G2 X0.887 Y250.294 I3 F1200
G1F1200 X0.887 Y250.294 Z-3.000 ; Z-3.000
G1F1200 X5.664 Y248.816 Z-3.000 ; Z-3.000
G1F1200 X10.440 Y247.339 Z-3.000 ; Z-3.000
G1F1200 X15.217 Y245.861 Z-3.000 ; Z-3.000
G1F1200 X19.994 Y244.384 Z-3.000 ; Z-3.000
G1F1200 X24.770 Y242.906 Z-3.000 ; Z-3.000
G1F1200 X29.547 Y241.429 Z-3.000 ; Z-3.000
G1F1200 X34.324 Y239.951 Z-3.000 ; Z-3.000
G1F1200 X39.101 Y238.473 Z-3.000 ; Z-3.000
G1F1200 X43.877 Y236.996 Z-3.000 ; Z-3.000
G1F1200 X48.654 Y235.518 Z-3.000 ; Z-3.000
G1F1200 X53.431 Y234.041 Z-3.000 ; Z-3.000
G1F1200 X58.207 Y232.563 Z-3.000 ; Z-3.000
G1F1200 X62.984 Y231.086 Z-3.000 ; Z-3.000
G1F1200 X67.761 Y229.608 Z-3.000 ; Z-3.000
G1F1200 X72.537 Y228.130 Z-3.000 ; Z-3.000
G1F1200 X77.314 Y226.653 Z-3.000 ; Z-3.000
G1F1200 X82.091 Y225.175 Z-3.000 ; Z-3.000
G1F1200 X86.867 Y223.698 Z-3.000 ; Z-3.000
G1F1200 X91.644 Y222.220 Z-3.000 ; Z-3.000
G1F1200 X96.421 Y220.743 Z-3.000 ; Z-3.000
G1F1200 X101.198 Y219.265 Z-3.000 ; Z-3.000
G1F1200 X105.974 Y217.787 Z-3.000 ; Z-3.000
G1F1200 X110.751 Y216.310 Z-3.000 ; Z-3.000
G1F1200 X115.528 Y214.832 Z-3.000 ; Z-3.000
G1F1200 X120.304 Y213.355 Z-3.000 ; Z-3.000
G1F1200 X125.081 Y211.877 Z-3.000 ; Z-3.000
G1F1200 X129.858 Y210.400 Z-3.000 ; Z-3.000
G1F1200 X134.634 Y208.922 Z-3.000 ; Z-3.000
G1F1200 X139.390 Y207.451 Z-3.000 ; Z-3.000
G2 X141.5 Y204.727 I-0.887 J-2.866 F1200
( MOVEMENT_LEAD_OUT)
G3 X142.127 Y204.156 I0.599 J0.028 F1200
G1F1200 X142.127 Y204.156 Z-3.000 ; Z-3.000
G1F1200 X142.727 Y204.185 Z-3.000 ; Z-3.000
F1200 X142.727 Y204.185 Z-3.000 ; Z-3.000
F1200 X142.794 Y204.188 Z-2.996 ; Z-2.996
F1200 X142.794 Y204.188 Z-2.996 ; Z-2.996
F1200 X142.860 Y204.191 Z-2.985 ; Z-2.985
F1200 X142.860 Y204.191 Z-2.985 ; Z-2.985
F1200 X142.925 Y204.194 Z-2.966 ; Z-2.966
F1200 X142.925 Y204.194 Z-2.966 ; Z-2.966
F1200 X142.987 Y204.197 Z-2.941 ; Z-2.941
F1200 X142.987 Y204.197 Z-2.941 ; Z-2.941
F1200 X143.046 Y204.200 Z-2.908 ; Z-2.908
F1200 X143.046 Y204.200 Z-2.908 ; Z-2.908
F1200 X143.100 Y204.203 Z-2.869 ; Z-2.869
F1200 X143.100 Y204.203 Z-2.869 ; Z-2.869
F1200 X143.151 Y204.205 Z-2.824 ; Z-2.824
F1200 X143.151 Y204.205 Z-2.824 ; Z-2.824
F1200 X143.195 Y204.207 Z-2.774 ; Z-2.774
F1200 X143.195 Y204.207 Z-2.774 ; Z-2.774
F1200 X143.234 Y204.209 Z-2.719 ; Z-2.719
F1200 X143.234 Y204.209 Z-2.719 ; Z-2.719
F1200 X143.267 Y204.211 Z-2.660 ; Z-2.660
F1200 X143.267 Y204.211 Z-2.660 ; Z-2.660
F1200 X143.292 Y204.212 Z-2.598 ; Z-2.598
F1200 X143.292 Y204.212 Z-2.598 ; Z-2.598
F1200 X143.311 Y204.213 Z-2.534 ; Z-2.534
F1200 X143.311 Y204.213 Z-2.534 ; Z-2.534
F1200 X143.322 Y204.213 Z-2.467 ; Z-2.467
F1200 X143.322 Y204.213 Z-2.467 ; Z-2.467
F1200 X143.326 Y204.213 Z-2.400 ; Z-2.400
( MOVEMENT_RAPID)
G0F300 X143.326 Y204.213 Z-2.400 ; Z-2.400
G0F300 X143.326 Y204.213 Z2.600 ; Z2.600
G0F300 X143.326 Y204.213 Z5.000 ; Z5.000
F2500 X143.326 Y204.213 Z5.000 ; Z5.000
F2500 X143.269 Y205.412 Z5.000 ; Z5.000
( MOVEMENT_PLUNGE)
G1F333 X143.269 Y205.412 Z5.000 ; Z5.000
G1F333 X143.269 Y205.412 Z0.000 ; Z0.000
G1F333 X143.269 Y205.412 Z-2.000 ; Z-2.000
F333 X143.269 Y205.412 Z-2.000 ; Z-2.000
F333 X143.269 Y205.412 Z-5.400 ; Z-5.400
( MOVEMENT_LEAD_IN)
F1200 X143.269 Y205.412 Z-5.400 ; Z-5.400
F1200 X143.265 Y205.412 Z-5.467 ; Z-5.467
F1200 X143.265 Y205.412 Z-5.467 ; Z-5.467
F1200 X143.254 Y205.411 Z-5.534 ; Z-5.534
F1200 X143.254 Y205.411 Z-5.534 ; Z-5.534
F1200 X143.236 Y205.410 Z-5.598 ; Z-5.598
F1200 X143.236 Y205.410 Z-5.598 ; Z-5.598
F1200 X143.210 Y205.409 Z-5.660 ; Z-5.660
F1200 X143.210 Y205.409 Z-5.660 ; Z-5.660
F1200 X143.177 Y205.408 Z-5.719 ; Z-5.719
F1200 X143.177 Y205.408 Z-5.719 ; Z-5.719
F1200 X143.138 Y205.406 Z-5.774 ; Z-5.774
F1200 X143.138 Y205.406 Z-5.774 ; Z-5.774
F1200 X143.094 Y205.404 Z-5.824 ; Z-5.824
F1200 X143.094 Y205.404 Z-5.824 ; Z-5.824
F1200 X143.043 Y205.401 Z-5.869 ; Z-5.869
F1200 X143.043 Y205.401 Z-5.869 ; Z-5.869
F1200 X142.989 Y205.399 Z-5.908 ; Z-5.908
F1200 X142.989 Y205.399 Z-5.908 ; Z-5.908
F1200 X142.930 Y205.396 Z-5.941 ; Z-5.941
F1200 X142.930 Y205.396 Z-5.941 ; Z-5.941
F1200 X142.868 Y205.393 Z-5.966 ; Z-5.966
F1200 X142.868 Y205.393 Z-5.966 ; Z-5.966
F1200 X142.803 Y205.390 Z-5.985 ; Z-5.985
F1200 X142.803 Y205.390 Z-5.985 ; Z-5.985
F1200 X142.737 Y205.387 Z-5.996 ; Z-5.996
F1200 X142.737 Y205.387 Z-5.996 ; Z-5.996
F1200 X142.670 Y205.384 Z-6.000 ; Z-6.000
F1200 X142.670 Y205.384 Z-6.000 ; Z-6.000
F1200 X142.070 Y205.355 Z-6.000 ; Z-6.000
G3 X141.5 Y204.727 I0.028 J-0.599 F1200
( MOVEMENT_FINISH_CUTTING)
G2 X139.771 Y201.866 I-2.997 J-0.142 F1200
G1F1200 X139.771 Y201.866 Z-6.000 ; Z-6.000
G1F1200 X135.239 Y199.753 Z-6.000 ; Z-6.000
G1F1200 X130.708 Y197.640 Z-6.000 ; Z-6.000
G1F1200 X126.176 Y195.527 Z-6.000 ; Z-6.000
G1F1200 X121.645 Y193.414 Z-6.000 ; Z-6.000
G1F1200 X117.113 Y191.301 Z-6.000 ; Z-6.000
G1F1200 X112.582 Y189.187 Z-6.000 ; Z-6.000
G1F1200 X108.050 Y187.074 Z-6.000 ; Z-6.000
G1F1200 X103.519 Y184.961 Z-6.000 ; Z-6.000
G1F1200 X98.987 Y182.848 Z-6.000 ; Z-6.000
G1F1200 X94.456 Y180.735 Z-6.000 ; Z-6.000
G1F1200 X89.924 Y178.622 Z-6.000 ; Z-6.000
G1F1200 X85.393 Y176.509 Z-6.000 ; Z-6.000
G1F1200 X80.861 Y174.396 Z-6.000 ; Z-6.000
G1F1200 X76.329 Y172.283 Z-6.000 ; Z-6.000
G1F1200 X71.798 Y170.170 Z-6.000 ; Z-6.000
G1F1200 X67.266 Y168.057 Z-6.000 ; Z-6.000
G1F1200 X62.735 Y165.943 Z-6.000 ; Z-6.000
G1F1200 X58.203 Y163.830 Z-6.000 ; Z-6.000
G1F1200 X53.672 Y161.717 Z-6.000 ; Z-6.000
G1F1200 X49.140 Y159.604 Z-6.000 ; Z-6.000
G1F1200 X44.609 Y157.491 Z-6.000 ; Z-6.000
G1F1200 X40.077 Y155.378 Z-6.000 ; Z-6.000
G1F1200 X35.546 Y153.265 Z-6.000 ; Z-6.000
G1F1200 X31.014 Y151.152 Z-6.000 ; Z-6.000
G1F1200 X26.483 Y149.039 Z-6.000 ; Z-6.000
G1F1200 X21.951 Y146.926 Z-6.000 ; Z-6.000
G1F1200 X17.419 Y144.813 Z-6.000 ; Z-6.000
G1F1200 X12.888 Y142.699 Z-6.000 ; Z-6.000
G1F1200 X8.356 Y140.586 Z-6.000 ; Z-6.000
G1F1200 X3.825 Y138.473 Z-6.000 ; Z-6.000
G1F1200 X1.268 Y137.281 Z-6.000 ; Z-6.000
G2 X-3 Y140 I-1.268 J2.719 F1200
G1F1200 X-3.000 Y140.000 Z-6.000 ; Z-6.000
G1F1200 X-3.000 Y145.000 Z-6.000 ; Z-6.000
G1F1200 X-3.000 Y150.000 Z-6.000 ; Z-6.000
G1F1200 X-3.000 Y155.000 Z-6.000 ; Z-6.000
G1F1200 X-3.000 Y160.000 Z-6.000 ; Z-6.000
G1F1200 X-3.000 Y165.000 Z-6.000 ; Z-6.000
G1F1200 X-3.000 Y170.000 Z-6.000 ; Z-6.000
G1F1200 X-3.000 Y175.000 Z-6.000 ; Z-6.000
G1F1200 X-3.000 Y180.000 Z-6.000 ; Z-6.000
G1F1200 X-3.000 Y185.000 Z-6.000 ; Z-6.000
G1F1200 X-3.000 Y190.000 Z-6.000 ; Z-6.000
G1F1200 X-3.000 Y195.000 Z-6.000 ; Z-6.000
G1F1200 X-3.000 Y200.000 Z-6.000 ; Z-6.000
G1F1200 X-3.000 Y205.000 Z-6.000 ; Z-6.000
G1F1200 X-3.000 Y210.000 Z-6.000 ; Z-6.000
G1F1200 X-3.000 Y215.000 Z-6.000 ; Z-6.000
G1F1200 X-3.000 Y220.000 Z-6.000 ; Z-6.000
G1F1200 X-3.000 Y225.000 Z-6.000 ; Z-6.000
G1F1200 X-3.000 Y230.000 Z-6.000 ; Z-6.000
G1F1200 X-3.000 Y235.000 Z-6.000 ; Z-6.000
G1F1200 X-3.000 Y240.000 Z-6.000 ; Z-6.000
G1F1200 X-3.000 Y245.000 Z-6.000 ; Z-6.000
G1F1200 X-3.000 Y247.428 Z-6.000 ; Z-6.000
G2 X0.887 Y250.294 I3 F1200
G1F1200 X0.887 Y250.294 Z-6.000 ; Z-6.000
G1F1200 X5.664 Y248.816 Z-6.000 ; Z-6.000
G1F1200 X10.440 Y247.339 Z-6.000 ; Z-6.000
G1F1200 X15.217 Y245.861 Z-6.000 ; Z-6.000
G1F1200 X19.994 Y244.384 Z-6.000 ; Z-6.000
G1F1200 X24.770 Y242.906 Z-6.000 ; Z-6.000
G1F1200 X29.547 Y241.429 Z-6.000 ; Z-6.000
G1F1200 X34.324 Y239.951 Z-6.000 ; Z-6.000
G1F1200 X39.101 Y238.473 Z-6.000 ; Z-6.000
G1F1200 X43.877 Y236.996 Z-6.000 ; Z-6.000
G1F1200 X48.654 Y235.518 Z-6.000 ; Z-6.000
G1F1200 X53.431 Y234.041 Z-6.000 ; Z-6.000
G1F1200 X58.207 Y232.563 Z-6.000 ; Z-6.000
G1F1200 X62.984 Y231.086 Z-6.000 ; Z-6.000
G1F1200 X67.761 Y229.608 Z-6.000 ; Z-6.000
G1F1200 X72.537 Y228.130 Z-6.000 ; Z-6.000
G1F1200 X77.314 Y226.653 Z-6.000 ; Z-6.000
G1F1200 X82.091 Y225.175 Z-6.000 ; Z-6.000
G1F1200 X86.867 Y223.698 Z-6.000 ; Z-6.000
G1F1200 X91.644 Y222.220 Z-6.000 ; Z-6.000
G1F1200 X96.421 Y220.743 Z-6.000 ; Z-6.000
G1F1200 X101.198 Y219.265 Z-6.000 ; Z-6.000
G1F1200 X105.974 Y217.787 Z-6.000 ; Z-6.000
G1F1200 X110.751 Y216.310 Z-6.000 ; Z-6.000
G1F1200 X115.528 Y214.832 Z-6.000 ; Z-6.000
G1F1200 X120.304 Y213.355 Z-6.000 ; Z-6.000
G1F1200 X125.081 Y211.877 Z-6.000 ; Z-6.000
G1F1200 X129.858 Y210.400 Z-6.000 ; Z-6.000
G1F1200 X134.634 Y208.922 Z-6.000 ; Z-6.000
G1F1200 X139.390 Y207.451 Z-6.000 ; Z-6.000
G2 X141.5 Y204.727 I-0.887 J-2.866 F1200
( MOVEMENT_LEAD_OUT)
G3 X142.127 Y204.156 I0.599 J0.028 F1200
G1F1200 X142.127 Y204.156 Z-6.000 ; Z-6.000
G1F1200 X142.727 Y204.185 Z-6.000 ; Z-6.000
F1200 X142.727 Y204.185 Z-6.000 ; Z-6.000
F1200 X142.794 Y204.188 Z-5.996 ; Z-5.996
F1200 X142.794 Y204.188 Z-5.996 ; Z-5.996
F1200 X142.860 Y204.191 Z-5.985 ; Z-5.985
F1200 X142.860 Y204.191 Z-5.985 ; Z-5.985
F1200 X142.925 Y204.194 Z-5.966 ; Z-5.966
F1200 X142.925 Y204.194 Z-5.966 ; Z-5.966
F1200 X142.987 Y204.197 Z-5.941 ; Z-5.941
F1200 X142.987 Y204.197 Z-5.941 ; Z-5.941
F1200 X143.046 Y204.200 Z-5.908 ; Z-5.908
F1200 X143.046 Y204.200 Z-5.908 ; Z-5.908
F1200 X143.100 Y204.203 Z-5.869 ; Z-5.869
F1200 X143.100 Y204.203 Z-5.869 ; Z-5.869
F1200 X143.151 Y204.205 Z-5.824 ; Z-5.824
F1200 X143.151 Y204.205 Z-5.824 ; Z-5.824
F1200 X143.195 Y204.207 Z-5.774 ; Z-5.774
F1200 X143.195 Y204.207 Z-5.774 ; Z-5.774
F1200 X143.234 Y204.209 Z-5.719 ; Z-5.719
F1200 X143.234 Y204.209 Z-5.719 ; Z-5.719
F1200 X143.267 Y204.211 Z-5.660 ; Z-5.660
F1200 X143.267 Y204.211 Z-5.660 ; Z-5.660
F1200 X143.292 Y204.212 Z-5.598 ; Z-5.598
F1200 X143.292 Y204.212 Z-5.598 ; Z-5.598
F1200 X143.311 Y204.213 Z-5.534 ; Z-5.534
F1200 X143.311 Y204.213 Z-5.534 ; Z-5.534
F1200 X143.322 Y204.213 Z-5.467 ; Z-5.467
F1200 X143.322 Y204.213 Z-5.467 ; Z-5.467
F1200 X143.326 Y204.213 Z-5.400 ; Z-5.400
( MOVEMENT_RAPID)
G0F300 X143.326 Y204.213 Z-5.400 ; Z-5.400
G0F300 X143.326 Y204.213 Z-0.400 ; Z-0.400
G0F300 X143.326 Y204.213 Z4.600 ; Z4.600
G0F300 X143.326 Y204.213 Z5.000 ; Z5.000
F2500 X143.326 Y204.213 Z5.000 ; Z5.000
F2500 X143.269 Y205.412 Z5.000 ; Z5.000
( MOVEMENT_PLUNGE)
G1F333 X143.269 Y205.412 Z5.000 ; Z5.000
G1F333 X143.269 Y205.412 Z0.000 ; Z0.000
G1F333 X143.269 Y205.412 Z-5.000 ; Z-5.000
F333 X143.269 Y205.412 Z-5.000 ; Z-5.000
F333 X143.269 Y205.412 Z-8.400 ; Z-8.400
( MOVEMENT_LEAD_IN)
F1200 X143.269 Y205.412 Z-8.400 ; Z-8.400
F1200 X143.265 Y205.412 Z-8.467 ; Z-8.467
F1200 X143.265 Y205.412 Z-8.467 ; Z-8.467
F1200 X143.254 Y205.411 Z-8.534 ; Z-8.534
F1200 X143.254 Y205.411 Z-8.534 ; Z-8.534
F1200 X143.236 Y205.410 Z-8.598 ; Z-8.598
F1200 X143.236 Y205.410 Z-8.598 ; Z-8.598
F1200 X143.210 Y205.409 Z-8.660 ; Z-8.660
F1200 X143.210 Y205.409 Z-8.660 ; Z-8.660
F1200 X143.177 Y205.408 Z-8.719 ; Z-8.719
F1200 X143.177 Y205.408 Z-8.719 ; Z-8.719
F1200 X143.138 Y205.406 Z-8.774 ; Z-8.774
F1200 X143.138 Y205.406 Z-8.774 ; Z-8.774
F1200 X143.094 Y205.404 Z-8.824 ; Z-8.824
F1200 X143.094 Y205.404 Z-8.824 ; Z-8.824
F1200 X143.043 Y205.401 Z-8.869 ; Z-8.869
F1200 X143.043 Y205.401 Z-8.869 ; Z-8.869
F1200 X142.989 Y205.399 Z-8.908 ; Z-8.908
F1200 X142.989 Y205.399 Z-8.908 ; Z-8.908
F1200 X142.930 Y205.396 Z-8.941 ; Z-8.941
F1200 X142.930 Y205.396 Z-8.941 ; Z-8.941
F1200 X142.868 Y205.393 Z-8.966 ; Z-8.966
F1200 X142.868 Y205.393 Z-8.966 ; Z-8.966
F1200 X142.803 Y205.390 Z-8.985 ; Z-8.985
F1200 X142.803 Y205.390 Z-8.985 ; Z-8.985
F1200 X142.737 Y205.387 Z-8.996 ; Z-8.996
F1200 X142.737 Y205.387 Z-8.996 ; Z-8.996
F1200 X142.670 Y205.384 Z-9.000 ; Z-9.000
F1200 X142.670 Y205.384 Z-9.000 ; Z-9.000
F1200 X142.070 Y205.355 Z-9.000 ; Z-9.000
G3 X141.5 Y204.727 I0.028 J-0.599 F1200
( MOVEMENT_FINISH_CUTTING)
G2 X139.771 Y201.866 I-2.997 J-0.142 F1200
G1F1200 X139.771 Y201.866 Z-9.000 ; Z-9.000
G1F1200 X135.239 Y199.753 Z-9.000 ; Z-9.000
G1F1200 X130.708 Y197.640 Z-9.000 ; Z-9.000
G1F1200 X126.176 Y195.527 Z-9.000 ; Z-9.000
G1F1200 X121.645 Y193.414 Z-9.000 ; Z-9.000
G1F1200 X117.113 Y191.301 Z-9.000 ; Z-9.000
G1F1200 X112.582 Y189.187 Z-9.000 ; Z-9.000
G1F1200 X108.050 Y187.074 Z-9.000 ; Z-9.000
G1F1200 X103.519 Y184.961 Z-9.000 ; Z-9.000
G1F1200 X98.987 Y182.848 Z-9.000 ; Z-9.000
G1F1200 X94.456 Y180.735 Z-9.000 ; Z-9.000
G1F1200 X89.924 Y178.622 Z-9.000 ; Z-9.000
G1F1200 X85.393 Y176.509 Z-9.000 ; Z-9.000
G1F1200 X80.861 Y174.396 Z-9.000 ; Z-9.000
G1F1200 X76.329 Y172.283 Z-9.000 ; Z-9.000
G1F1200 X71.798 Y170.170 Z-9.000 ; Z-9.000
G1F1200 X67.266 Y168.057 Z-9.000 ; Z-9.000
G1F1200 X62.735 Y165.943 Z-9.000 ; Z-9.000
G1F1200 X58.203 Y163.830 Z-9.000 ; Z-9.000
G1F1200 X53.672 Y161.717 Z-9.000 ; Z-9.000
G1F1200 X49.140 Y159.604 Z-9.000 ; Z-9.000
G1F1200 X44.609 Y157.491 Z-9.000 ; Z-9.000
G1F1200 X40.077 Y155.378 Z-9.000 ; Z-9.000
G1F1200 X35.546 Y153.265 Z-9.000 ; Z-9.000
G1F1200 X31.014 Y151.152 Z-9.000 ; Z-9.000
G1F1200 X26.483 Y149.039 Z-9.000 ; Z-9.000
G1F1200 X21.951 Y146.926 Z-9.000 ; Z-9.000
G1F1200 X17.419 Y144.813 Z-9.000 ; Z-9.000
G1F1200 X12.888 Y142.699 Z-9.000 ; Z-9.000
G1F1200 X8.356 Y140.586 Z-9.000 ; Z-9.000
G1F1200 X3.825 Y138.473 Z-9.000 ; Z-9.000
G1F1200 X1.268 Y137.281 Z-9.000 ; Z-9.000
G2 X-3 Y140 I-1.268 J2.719 F1200
G1F1200 X-3.000 Y140.000 Z-9.000 ; Z-9.000
G1F1200 X-3.000 Y145.000 Z-9.000 ; Z-9.000
G1F1200 X-3.000 Y150.000 Z-9.000 ; Z-9.000
G1F1200 X-3.000 Y155.000 Z-9.000 ; Z-9.000
G1F1200 X-3.000 Y160.000 Z-9.000 ; Z-9.000
G1F1200 X-3.000 Y165.000 Z-9.000 ; Z-9.000
G1F1200 X-3.000 Y170.000 Z-9.000 ; Z-9.000
G1F1200 X-3.000 Y175.000 Z-9.000 ; Z-9.000
G1F1200 X-3.000 Y180.000 Z-9.000 ; Z-9.000
G1F1200 X-3.000 Y185.000 Z-9.000 ; Z-9.000
G1F1200 X-3.000 Y190.000 Z-9.000 ; Z-9.000
G1F1200 X-3.000 Y195.000 Z-9.000 ; Z-9.000
G1F1200 X-3.000 Y200.000 Z-9.000 ; Z-9.000
G1F1200 X-3.000 Y205.000 Z-9.000 ; Z-9.000
G1F1200 X-3.000 Y210.000 Z-9.000 ; Z-9.000
G1F1200 X-3.000 Y215.000 Z-9.000 ; Z-9.000
G1F1200 X-3.000 Y220.000 Z-9.000 ; Z-9.000
G1F1200 X-3.000 Y225.000 Z-9.000 ; Z-9.000
G1F1200 X-3.000 Y230.000 Z-9.000 ; Z-9.000
G1F1200 X-3.000 Y235.000 Z-9.000 ; Z-9.000
G1F1200 X-3.000 Y240.000 Z-9.000 ; Z-9.000
G1F1200 X-3.000 Y245.000 Z-9.000 ; Z-9.000
G1F1200 X-3.000 Y247.428 Z-9.000 ; Z-9.000
G2 X0.887 Y250.294 I3 F1200
G1F1200 X0.887 Y250.294 Z-9.000 ; Z-9.000
G1F1200 X5.664 Y248.816 Z-9.000 ; Z-9.000
G1F1200 X10.440 Y247.339 Z-9.000 ; Z-9.000
G1F1200 X15.217 Y245.861 Z-9.000 ; Z-9.000
G1F1200 X19.994 Y244.384 Z-9.000 ; Z-9.000
G1F1200 X24.770 Y242.906 Z-9.000 ; Z-9.000
G1F1200 X29.547 Y241.429 Z-9.000 ; Z-9.000
G1F1200 X34.324 Y239.951 Z-9.000 ; Z-9.000
G1F1200 X39.101 Y238.473 Z-9.000 ; Z-9.000
G1F1200 X43.877 Y236.996 Z-9.000 ; Z-9.000
G1F1200 X48.654 Y235.518 Z-9.000 ; Z-9.000
G1F1200 X53.431 Y234.041 Z-9.000 ; Z-9.000
G1F1200 X58.207 Y232.563 Z-9.000 ; Z-9.000
G1F1200 X62.984 Y231.086 Z-9.000 ; Z-9.000
G1F1200 X67.761 Y229.608 Z-9.000 ; Z-9.000
G1F1200 X72.537 Y228.130 Z-9.000 ; Z-9.000
G1F1200 X77.314 Y226.653 Z-9.000 ; Z-9.000
G1F1200 X82.091 Y225.175 Z-9.000 ; Z-9.000
G1F1200 X86.867 Y223.698 Z-9.000 ; Z-9.000
G1F1200 X91.644 Y222.220 Z-9.000 ; Z-9.000
G1F1200 X96.421 Y220.743 Z-9.000 ; Z-9.000
G1F1200 X101.198 Y219.265 Z-9.000 ; Z-9.000
G1F1200 X105.974 Y217.787 Z-9.000 ; Z-9.000
G1F1200 X110.751 Y216.310 Z-9.000 ; Z-9.000
G1F1200 X115.528 Y214.832 Z-9.000 ; Z-9.000
G1F1200 X120.304 Y213.355 Z-9.000 ; Z-9.000
G1F1200 X125.081 Y211.877 Z-9.000 ; Z-9.000
G1F1200 X129.858 Y210.400 Z-9.000 ; Z-9.000
G1F1200 X134.634 Y208.922 Z-9.000 ; Z-9.000
G1F1200 X139.390 Y207.451 Z-9.000 ; Z-9.000
G2 X141.5 Y204.727 I-0.887 J-2.866 F1200
( MOVEMENT_LEAD_OUT)
G3 X142.127 Y204.156 I0.599 J0.028 F1200
G1F1200 X142.127 Y204.156 Z-9.000 ; Z-9.000
G1F1200 X142.727 Y204.185 Z-9.000 ; Z-9.000
F1200 X142.727 Y204.185 Z-9.000 ; Z-9.000
F1200 X142.794 Y204.188 Z-8.996 ; Z-8.996
F1200 X142.794 Y204.188 Z-8.996 ; Z-8.996
F1200 X142.860 Y204.191 Z-8.985 ; Z-8.985
F1200 X142.860 Y204.191 Z-8.985 ; Z-8.985
F1200 X142.925 Y204.194 Z-8.966 ; Z-8.966
F1200 X142.925 Y204.194 Z-8.966 ; Z-8.966
F1200 X142.987 Y204.197 Z-8.941 ; Z-8.941
F1200 X142.987 Y204.197 Z-8.941 ; Z-8.941
F1200 X143.046 Y204.200 Z-8.908 ; Z-8.908
F1200 X143.046 Y204.200 Z-8.908 ; Z-8.908
F1200 X143.100 Y204.203 Z-8.869 ; Z-8.869
F1200 X143.100 Y204.203 Z-8.869 ; Z-8.869
F1200 X143.151 Y204.205 Z-8.824 ; Z-8.824
F1200 X143.151 Y204.205 Z-8.824 ; Z-8.824
F1200 X143.195 Y204.207 Z-8.774 ; Z-8.774
F1200 X143.195 Y204.207 Z-8.774 ; Z-8.774
F1200 X143.234 Y204.209 Z-8.719 ; Z-8.719
F1200 X143.234 Y204.209 Z-8.719 ; Z-8.719
F1200 X143.267 Y204.211 Z-8.660 ; Z-8.660
F1200 X143.267 Y204.211 Z-8.660 ; Z-8.660
F1200 X143.292 Y204.212 Z-8.598 ; Z-8.598
F1200 X143.292 Y204.212 Z-8.598 ; Z-8.598
F1200 X143.311 Y204.213 Z-8.534 ; Z-8.534
F1200 X143.311 Y204.213 Z-8.534 ; Z-8.534
F1200 X143.322 Y204.213 Z-8.467 ; Z-8.467
F1200 X143.322 Y204.213 Z-8.467 ; Z-8.467
F1200 X143.326 Y204.213 Z-8.400 ; Z-8.400
( MOVEMENT_RAPID)
G0F300 X143.326 Y204.213 Z-8.400 ; Z-8.400
G0F300 X143.326 Y204.213 Z-3.400 ; Z-3.400
G0F300 X143.326 Y204.213 Z1.600 ; Z1.600
G0F300 X143.326 Y204.213 Z5.000 ; Z5.000
F2500 X143.326 Y204.213 Z5.000 ; Z5.000
F2500 X143.269 Y205.412 Z5.000 ; Z5.000
( MOVEMENT_PLUNGE)
G1F333 X143.269 Y205.412 Z5.000 ; Z5.000
G1F333 X143.269 Y205.412 Z0.000 ; Z0.000
G1F333 X143.269 Y205.412 Z-5.000 ; Z-5.000
G1F333 X143.269 Y205.412 Z-8.000 ; Z-8.000
F333 X143.269 Y205.412 Z-8.000 ; Z-8.000
F333 X143.269 Y205.412 Z-11.400 ; Z-11.400
( MOVEMENT_LEAD_IN)
F1200 X143.269 Y205.412 Z-11.400 ; Z-11.400
F1200 X143.265 Y205.412 Z-11.467 ; Z-11.467
F1200 X143.265 Y205.412 Z-11.467 ; Z-11.467
F1200 X143.254 Y205.411 Z-11.534 ; Z-11.534
F1200 X143.254 Y205.411 Z-11.534 ; Z-11.534
F1200 X143.236 Y205.410 Z-11.598 ; Z-11.598
F1200 X143.236 Y205.410 Z-11.598 ; Z-11.598
F1200 X143.210 Y205.409 Z-11.660 ; Z-11.660
F1200 X143.210 Y205.409 Z-11.660 ; Z-11.660
F1200 X143.177 Y205.408 Z-11.719 ; Z-11.719
F1200 X143.177 Y205.408 Z-11.719 ; Z-11.719
F1200 X143.138 Y205.406 Z-11.774 ; Z-11.774
F1200 X143.138 Y205.406 Z-11.774 ; Z-11.774
F1200 X143.094 Y205.404 Z-11.824 ; Z-11.824
F1200 X143.094 Y205.404 Z-11.824 ; Z-11.824
F1200 X143.043 Y205.401 Z-11.869 ; Z-11.869
F1200 X143.043 Y205.401 Z-11.869 ; Z-11.869
F1200 X142.989 Y205.399 Z-11.908 ; Z-11.908
F1200 X142.989 Y205.399 Z-11.908 ; Z-11.908
F1200 X142.930 Y205.396 Z-11.941 ; Z-11.941
F1200 X142.930 Y205.396 Z-11.941 ; Z-11.941
F1200 X142.868 Y205.393 Z-11.966 ; Z-11.966
F1200 X142.868 Y205.393 Z-11.966 ; Z-11.966
F1200 X142.803 Y205.390 Z-11.985 ; Z-11.985
F1200 X142.803 Y205.390 Z-11.985 ; Z-11.985
F1200 X142.737 Y205.387 Z-11.996 ; Z-11.996
F1200 X142.737 Y205.387 Z-11.996 ; Z-11.996
F1200 X142.670 Y205.384 Z-12.000 ; Z-12.000
F1200 X142.670 Y205.384 Z-12.000 ; Z-12.000
F1200 X142.070 Y205.355 Z-12.000 ; Z-12.000
G3 X141.5 Y204.727 I0.028 J-0.599 F1200
( MOVEMENT_FINISH_CUTTING)
G2 X139.771 Y201.866 I-2.997 J-0.142 F1200
G1F1200 X139.771 Y201.866 Z-12.000 ; Z-12.000
G1F1200 X135.239 Y199.753 Z-12.000 ; Z-12.000
G1F1200 X130.708 Y197.640 Z-12.000 ; Z-12.000
G1F1200 X126.176 Y195.527 Z-12.000 ; Z-12.000
G1F1200 X121.645 Y193.414 Z-12.000 ; Z-12.000
G1F1200 X117.113 Y191.301 Z-12.000 ; Z-12.000
G1F1200 X112.582 Y189.187 Z-12.000 ; Z-12.000
G1F1200 X108.050 Y187.074 Z-12.000 ; Z-12.000
G1F1200 X103.519 Y184.961 Z-12.000 ; Z-12.000
G1F1200 X98.987 Y182.848 Z-12.000 ; Z-12.000
G1F1200 X94.456 Y180.735 Z-12.000 ; Z-12.000
G1F1200 X89.924 Y178.622 Z-12.000 ; Z-12.000
G1F1200 X85.393 Y176.509 Z-12.000 ; Z-12.000
G1F1200 X80.861 Y174.396 Z-12.000 ; Z-12.000
G1F1200 X76.329 Y172.283 Z-12.000 ; Z-12.000
G1F1200 X71.798 Y170.170 Z-12.000 ; Z-12.000
G1F1200 X67.266 Y168.057 Z-12.000 ; Z-12.000
G1F1200 X62.735 Y165.943 Z-12.000 ; Z-12.000
G1F1200 X58.203 Y163.830 Z-12.000 ; Z-12.000
G1F1200 X53.672 Y161.717 Z-12.000 ; Z-12.000
G1F1200 X49.140 Y159.604 Z-12.000 ; Z-12.000
G1F1200 X44.609 Y157.491 Z-12.000 ; Z-12.000
G1F1200 X40.077 Y155.378 Z-12.000 ; Z-12.000
G1F1200 X35.546 Y153.265 Z-12.000 ; Z-12.000
G1F1200 X31.014 Y151.152 Z-12.000 ; Z-12.000
G1F1200 X26.483 Y149.039 Z-12.000 ; Z-12.000
G1F1200 X21.951 Y146.926 Z-12.000 ; Z-12.000
G1F1200 X17.419 Y144.813 Z-12.000 ; Z-12.000
G1F1200 X12.888 Y142.699 Z-12.000 ; Z-12.000
G1F1200 X8.356 Y140.586 Z-12.000 ; Z-12.000
G1F1200 X3.825 Y138.473 Z-12.000 ; Z-12.000
G1F1200 X1.268 Y137.281 Z-12.000 ; Z-12.000
G2 X-3 Y140 I-1.268 J2.719 F1200
G1F1200 X-3.000 Y140.000 Z-12.000 ; Z-12.000
G1F1200 X-3.000 Y145.000 Z-12.000 ; Z-12.000
G1F1200 X-3.000 Y150.000 Z-12.000 ; Z-12.000
G1F1200 X-3.000 Y155.000 Z-12.000 ; Z-12.000
G1F1200 X-3.000 Y160.000 Z-12.000 ; Z-12.000
G1F1200 X-3.000 Y165.000 Z-12.000 ; Z-12.000
G1F1200 X-3.000 Y170.000 Z-12.000 ; Z-12.000
G1F1200 X-3.000 Y175.000 Z-12.000 ; Z-12.000
G1F1200 X-3.000 Y180.000 Z-12.000 ; Z-12.000
G1F1200 X-3.000 Y185.000 Z-12.000 ; Z-12.000
G1F1200 X-3.000 Y190.000 Z-12.000 ; Z-12.000
G1F1200 X-3.000 Y195.000 Z-12.000 ; Z-12.000
G1F1200 X-3.000 Y200.000 Z-12.000 ; Z-12.000
G1F1200 X-3.000 Y205.000 Z-12.000 ; Z-12.000
G1F1200 X-3.000 Y210.000 Z-12.000 ; Z-12.000
G1F1200 X-3.000 Y215.000 Z-12.000 ; Z-12.000
G1F1200 X-3.000 Y220.000 Z-12.000 ; Z-12.000
G1F1200 X-3.000 Y225.000 Z-12.000 ; Z-12.000
G1F1200 X-3.000 Y230.000 Z-12.000 ; Z-12.000
G1F1200 X-3.000 Y235.000 Z-12.000 ; Z-12.000
G1F1200 X-3.000 Y240.000 Z-12.000 ; Z-12.000
G1F1200 X-3.000 Y245.000 Z-12.000 ; Z-12.000
G1F1200 X-3.000 Y247.428 Z-12.000 ; Z-12.000
G2 X0.887 Y250.294 I3 F1200
G1F1200 X0.887 Y250.294 Z-12.000 ; Z-12.000
G1F1200 X5.664 Y248.816 Z-12.000 ; Z-12.000
G1F1200 X10.440 Y247.339 Z-12.000 ; Z-12.000
G1F1200 X15.217 Y245.861 Z-12.000 ; Z-12.000
G1F1200 X19.994 Y244.384 Z-12.000 ; Z-12.000
G1F1200 X24.770 Y242.906 Z-12.000 ; Z-12.000
G1F1200 X29.547 Y241.429 Z-12.000 ; Z-12.000
G1F1200 X34.324 Y239.951 Z-12.000 ; Z-12.000
G1F1200 X39.101 Y238.473 Z-12.000 ; Z-12.000
G1F1200 X43.877 Y236.996 Z-12.000 ; Z-12.000
G1F1200 X48.654 Y235.518 Z-12.000 ; Z-12.000
G1F1200 X53.431 Y234.041 Z-12.000 ; Z-12.000
G1F1200 X58.207 Y232.563 Z-12.000 ; Z-12.000
G1F1200 X62.984 Y231.086 Z-12.000 ; Z-12.000
G1F1200 X67.761 Y229.608 Z-12.000 ; Z-12.000
G1F1200 X72.537 Y228.130 Z-12.000 ; Z-12.000
G1F1200 X77.314 Y226.653 Z-12.000 ; Z-12.000
G1F1200 X82.091 Y225.175 Z-12.000 ; Z-12.000
G1F1200 X86.867 Y223.698 Z-12.000 ; Z-12.000
G1F1200 X91.644 Y222.220 Z-12.000 ; Z-12.000
G1F1200 X96.421 Y220.743 Z-12.000 ; Z-12.000
G1F1200 X101.198 Y219.265 Z-12.000 ; Z-12.000
G1F1200 X105.974 Y217.787 Z-12.000 ; Z-12.000
G1F1200 X110.751 Y216.310 Z-12.000 ; Z-12.000
G1F1200 X115.528 Y214.832 Z-12.000 ; Z-12.000
G1F1200 X120.304 Y213.355 Z-12.000 ; Z-12.000
G1F1200 X125.081 Y211.877 Z-12.000 ; Z-12.000
G1F1200 X129.858 Y210.400 Z-12.000 ; Z-12.000
G1F1200 X134.634 Y208.922 Z-12.000 ; Z-12.000
G1F1200 X139.390 Y207.451 Z-12.000 ; Z-12.000
G2 X141.5 Y204.727 I-0.887 J-2.866 F1200
( MOVEMENT_LEAD_OUT)
G3 X142.127 Y204.156 I0.599 J0.028 F1200
G1F1200 X142.127 Y204.156 Z-12.000 ; Z-12.000
G1F1200 X142.727 Y204.185 Z-12.000 ; Z-12.000
F1200 X142.727 Y204.185 Z-12.000 ; Z-12.000
F1200 X142.794 Y204.188 Z-11.996 ; Z-11.996
F1200 X142.794 Y204.188 Z-11.996 ; Z-11.996
F1200 X142.860 Y204.191 Z-11.985 ; Z-11.985
F1200 X142.860 Y204.191 Z-11.985 ; Z-11.985
F1200 X142.925 Y204.194 Z-11.966 ; Z-11.966
F1200 X142.925 Y204.194 Z-11.966 ; Z-11.966
F1200 X142.987 Y204.197 Z-11.941 ; Z-11.941
F1200 X142.987 Y204.197 Z-11.941 ; Z-11.941
F1200 X143.046 Y204.200 Z-11.908 ; Z-11.908
F1200 X143.046 Y204.200 Z-11.908 ; Z-11.908
F1200 X143.100 Y204.203 Z-11.869 ; Z-11.869
F1200 X143.100 Y204.203 Z-11.869 ; Z-11.869
F1200 X143.151 Y204.205 Z-11.824 ; Z-11.824
F1200 X143.151 Y204.205 Z-11.824 ; Z-11.824
F1200 X143.195 Y204.207 Z-11.774 ; Z-11.774
F1200 X143.195 Y204.207 Z-11.774 ; Z-11.774
F1200 X143.234 Y204.209 Z-11.719 ; Z-11.719
F1200 X143.234 Y204.209 Z-11.719 ; Z-11.719
F1200 X143.267 Y204.211 Z-11.660 ; Z-11.660
F1200 X143.267 Y204.211 Z-11.660 ; Z-11.660
F1200 X143.292 Y204.212 Z-11.598 ; Z-11.598
F1200 X143.292 Y204.212 Z-11.598 ; Z-11.598
F1200 X143.311 Y204.213 Z-11.534 ; Z-11.534
F1200 X143.311 Y204.213 Z-11.534 ; Z-11.534
F1200 X143.322 Y204.213 Z-11.467 ; Z-11.467
F1200 X143.322 Y204.213 Z-11.467 ; Z-11.467
F1200 X143.326 Y204.213 Z-11.400 ; Z-11.400
( MOVEMENT_RAPID)
G0F300 X143.326 Y204.213 Z-11.400 ; Z-11.400
G0F300 X143.326 Y204.213 Z-6.400 ; Z-6.400
G0F300 X143.326 Y204.213 Z-1.400 ; Z-1.400
G0F300 X143.326 Y204.213 Z3.600 ; Z3.600
G0F300 X143.326 Y204.213 Z5.000 ; Z5.000
F2500 X143.326 Y204.213 Z5.000 ; Z5.000
F2500 X143.269 Y205.412 Z5.000 ; Z5.000
( MOVEMENT_PLUNGE)
G1F333 X143.269 Y205.412 Z5.000 ; Z5.000
G1F333 X143.269 Y205.412 Z0.000 ; Z0.000
G1F333 X143.269 Y205.412 Z-5.000 ; Z-5.000
G1F333 X143.269 Y205.412 Z-10.000 ; Z-10.000
G1F333 X143.269 Y205.412 Z-11.000 ; Z-11.000
F333 X143.269 Y205.412 Z-11.000 ; Z-11.000
F333 X143.269 Y205.412 Z-14.400 ; Z-14.400
( MOVEMENT_LEAD_IN)
F1200 X143.269 Y205.412 Z-14.400 ; Z-14.400
F1200 X143.265 Y205.412 Z-14.467 ; Z-14.467
F1200 X143.265 Y205.412 Z-14.467 ; Z-14.467
F1200 X143.254 Y205.411 Z-14.534 ; Z-14.534
F1200 X143.254 Y205.411 Z-14.534 ; Z-14.534
F1200 X143.236 Y205.410 Z-14.598 ; Z-14.598
F1200 X143.236 Y205.410 Z-14.598 ; Z-14.598
F1200 X143.210 Y205.409 Z-14.660 ; Z-14.660
F1200 X143.210 Y205.409 Z-14.660 ; Z-14.660
F1200 X143.177 Y205.408 Z-14.719 ; Z-14.719
F1200 X143.177 Y205.408 Z-14.719 ; Z-14.719
F1200 X143.138 Y205.406 Z-14.774 ; Z-14.774
F1200 X143.138 Y205.406 Z-14.774 ; Z-14.774
F1200 X143.094 Y205.404 Z-14.824 ; Z-14.824
F1200 X143.094 Y205.404 Z-14.824 ; Z-14.824
F1200 X143.043 Y205.401 Z-14.869 ; Z-14.869
F1200 X143.043 Y205.401 Z-14.869 ; Z-14.869
F1200 X142.989 Y205.399 Z-14.908 ; Z-14.908
F1200 X142.989 Y205.399 Z-14.908 ; Z-14.908
F1200 X142.930 Y205.396 Z-14.941 ; Z-14.941
F1200 X142.930 Y205.396 Z-14.941 ; Z-14.941
F1200 X142.868 Y205.393 Z-14.966 ; Z-14.966
F1200 X142.868 Y205.393 Z-14.966 ; Z-14.966
F1200 X142.803 Y205.390 Z-14.985 ; Z-14.985
F1200 X142.803 Y205.390 Z-14.985 ; Z-14.985
F1200 X142.737 Y205.387 Z-14.996 ; Z-14.996
F1200 X142.737 Y205.387 Z-14.996 ; Z-14.996
F1200 X142.670 Y205.384 Z-15.000 ; Z-15.000
F1200 X142.670 Y205.384 Z-15.000 ; Z-15.000
F1200 X142.070 Y205.355 Z-15.000 ; Z-15.000
G3 X141.5 Y204.727 I0.028 J-0.599 F1200
( MOVEMENT_FINISH_CUTTING)
G2 X139.771 Y201.866 I-2.997 J-0.142 F1200
G1F1200 X139.771 Y201.866 Z-15.000 ; Z-15.000
G1F1200 X135.239 Y199.753 Z-15.000 ; Z-15.000
G1F1200 X130.708 Y197.640 Z-15.000 ; Z-15.000
G1F1200 X126.176 Y195.527 Z-15.000 ; Z-15.000
G1F1200 X121.645 Y193.414 Z-15.000 ; Z-15.000
G1F1200 X121.621 Y193.403 Z-15.000 ; Z-15.000
F1200 X121.621 Y193.403 Z-15.000 ; Z-15.000
F1200 X119.537 Y192.431 Z-12.700 ; Z-12.700
F1200 X119.537 Y192.431 Z-12.700 ; Z-12.700
F1200 X115.006 Y190.318 Z-12.700 ; Z-12.700
F1200 X114.099 Y189.895 Z-12.700 ; Z-12.700
( MOVEMENT_PLUNGE)
F333 X114.099 Y189.895 Z-12.700 ; Z-12.700
F333 X112.014 Y188.923 Z-15.000 ; Z-15.000
( MOVEMENT_FINISH_CUTTING)
F1200 X112.014 Y188.923 Z-15.000 ; Z-15.000
F1200 X107.482 Y186.810 Z-15.000 ; Z-15.000
F1200 X102.951 Y184.697 Z-15.000 ; Z-15.000
F1200 X98.419 Y182.584 Z-15.000 ; Z-15.000
F1200 X93.888 Y180.471 Z-15.000 ; Z-15.000
F1200 X89.356 Y178.358 Z-15.000 ; Z-15.000
F1200 X84.825 Y176.245 Z-15.000 ; Z-15.000
F1200 X80.293 Y174.132 Z-15.000 ; Z-15.000
F1200 X75.762 Y172.019 Z-15.000 ; Z-15.000
F1200 X75.713 Y171.996 Z-15.000 ; Z-15.000
F1200 X75.713 Y171.996 Z-15.000 ; Z-15.000
F1200 X73.629 Y171.024 Z-12.700 ; Z-12.700
F1200 X73.629 Y171.024 Z-12.700 ; Z-12.700
F1200 X69.098 Y168.911 Z-12.700 ; Z-12.700
F1200 X68.191 Y168.488 Z-12.700 ; Z-12.700
( MOVEMENT_PLUNGE)
F333 X68.191 Y168.488 Z-12.700 ; Z-12.700
F333 X66.106 Y167.516 Z-15.000 ; Z-15.000
( MOVEMENT_FINISH_CUTTING)
F1200 X66.106 Y167.516 Z-15.000 ; Z-15.000
F1200 X61.574 Y165.403 Z-15.000 ; Z-15.000
F1200 X57.043 Y163.290 Z-15.000 ; Z-15.000
F1200 X52.511 Y161.177 Z-15.000 ; Z-15.000
F1200 X47.980 Y159.063 Z-15.000 ; Z-15.000
F1200 X43.448 Y156.950 Z-15.000 ; Z-15.000
F1200 X38.917 Y154.837 Z-15.000 ; Z-15.000
F1200 X34.385 Y152.724 Z-15.000 ; Z-15.000
F1200 X29.854 Y150.611 Z-15.000 ; Z-15.000
F1200 X29.805 Y150.588 Z-15.000 ; Z-15.000
F1200 X29.805 Y150.588 Z-15.000 ; Z-15.000
F1200 X27.721 Y149.616 Z-12.700 ; Z-12.700
F1200 X27.721 Y149.616 Z-12.700 ; Z-12.700
F1200 X23.189 Y147.503 Z-12.700 ; Z-12.700
F1200 X22.283 Y147.081 Z-12.700 ; Z-12.700
( MOVEMENT_PLUNGE)
F333 X22.283 Y147.081 Z-12.700 ; Z-12.700
F333 X20.198 Y146.109 Z-15.000 ; Z-15.000
( MOVEMENT_FINISH_CUTTING)
F1200 X20.198 Y146.109 Z-15.000 ; Z-15.000
F1200 X15.667 Y143.996 Z-15.000 ; Z-15.000
F1200 X11.135 Y141.883 Z-15.000 ; Z-15.000
F1200 X6.604 Y139.769 Z-15.000 ; Z-15.000
F1200 X2.072 Y137.656 Z-15.000 ; Z-15.000
F1200 X1.268 Y137.281 Z-15.000 ; Z-15.000
G2 X-3 Y140 I-1.268 J2.719 F1200
G1F1200 X-3.000 Y140.000 Z-15.000 ; Z-15.000
G1F1200 X-3.000 Y145.000 Z-15.000 ; Z-15.000
G1F1200 X-3.000 Y150.000 Z-15.000 ; Z-15.000
G1F1200 X-3.000 Y155.000 Z-15.000 ; Z-15.000
G1F1200 X-3.000 Y159.166 Z-15.000 ; Z-15.000
F1200 X-3.000 Y159.166 Z-15.000 ; Z-15.000
F1200 X-3.000 Y161.466 Z-12.700 ; Z-12.700
F1200 X-3.000 Y161.466 Z-12.700 ; Z-12.700
F1200 X-3.000 Y166.466 Z-12.700 ; Z-12.700
F1200 X-3.000 Y167.466 Z-12.700 ; Z-12.700
( MOVEMENT_PLUNGE)
F333 X-3.000 Y167.466 Z-12.700 ; Z-12.700
F333 X-3.000 Y169.766 Z-15.000 ; Z-15.000
( MOVEMENT_FINISH_CUTTING)
F1200 X-3.000 Y169.766 Z-15.000 ; Z-15.000
F1200 X-3.000 Y174.766 Z-15.000 ; Z-15.000
F1200 X-3.000 Y179.766 Z-15.000 ; Z-15.000
F1200 X-3.000 Y184.766 Z-15.000 ; Z-15.000
F1200 X-3.000 Y189.766 Z-15.000 ; Z-15.000
F1200 X-3.000 Y194.766 Z-15.000 ; Z-15.000
F1200 X-3.000 Y199.766 Z-15.000 ; Z-15.000
F1200 X-3.000 Y204.766 Z-15.000 ; Z-15.000
F1200 X-3.000 Y209.766 Z-15.000 ; Z-15.000
F1200 X-3.000 Y209.819 Z-15.000 ; Z-15.000
F1200 X-3.000 Y209.819 Z-15.000 ; Z-15.000
F1200 X-3.000 Y212.119 Z-12.700 ; Z-12.700
F1200 X-3.000 Y212.119 Z-12.700 ; Z-12.700
F1200 X-3.000 Y217.119 Z-12.700 ; Z-12.700
F1200 X-3.000 Y218.119 Z-12.700 ; Z-12.700
( MOVEMENT_PLUNGE)
F333 X-3.000 Y218.119 Z-12.700 ; Z-12.700
F333 X-3.000 Y220.419 Z-15.000 ; Z-15.000
( MOVEMENT_FINISH_CUTTING)
F1200 X-3.000 Y220.419 Z-15.000 ; Z-15.000
F1200 X-3.000 Y225.419 Z-15.000 ; Z-15.000
F1200 X-3.000 Y230.419 Z-15.000 ; Z-15.000
F1200 X-3.000 Y235.419 Z-15.000 ; Z-15.000
F1200 X-3.000 Y240.419 Z-15.000 ; Z-15.000
F1200 X-3.000 Y245.419 Z-15.000 ; Z-15.000
F1200 X-3.000 Y247.428 Z-15.000 ; Z-15.000
G2 X0.887 Y250.294 I3 F1200
G1F1200 X0.887 Y250.294 Z-15.000 ; Z-15.000
G1F1200 X5.664 Y248.816 Z-15.000 ; Z-15.000
G1F1200 X10.440 Y247.339 Z-15.000 ; Z-15.000
G1F1200 X13.349 Y246.439 Z-15.000 ; Z-15.000
F1200 X13.349 Y246.439 Z-15.000 ; Z-15.000
F1200 X15.546 Y245.759 Z-12.700 ; Z-12.700
F1200 X15.546 Y245.759 Z-12.700 ; Z-12.700
F1200 X20.323 Y244.281 Z-12.700 ; Z-12.700
F1200 X21.278 Y243.986 Z-12.700 ; Z-12.700
( MOVEMENT_PLUNGE)
F333 X21.278 Y243.986 Z-12.700 ; Z-12.700
F333 X23.475 Y243.307 Z-15.000 ; Z-15.000
( MOVEMENT_FINISH_CUTTING)
F1200 X23.475 Y243.307 Z-15.000 ; Z-15.000
F1200 X28.252 Y241.829 Z-15.000 ; Z-15.000
F1200 X33.028 Y240.352 Z-15.000 ; Z-15.000
F1200 X37.805 Y238.874 Z-15.000 ; Z-15.000
F1200 X42.582 Y237.396 Z-15.000 ; Z-15.000
F1200 X47.358 Y235.919 Z-15.000 ; Z-15.000
F1200 X52.135 Y234.441 Z-15.000 ; Z-15.000
F1200 X56.912 Y232.964 Z-15.000 ; Z-15.000
F1200 X61.688 Y231.486 Z-15.000 ; Z-15.000
F1200 X61.740 Y231.470 Z-15.000 ; Z-15.000
F1200 X61.740 Y231.470 Z-15.000 ; Z-15.000
F1200 X63.937 Y230.791 Z-12.700 ; Z-12.700
F1200 X63.937 Y230.791 Z-12.700 ; Z-12.700
F1200 X68.714 Y229.313 Z-12.700 ; Z-12.700
F1200 X69.669 Y229.018 Z-12.700 ; Z-12.700
( MOVEMENT_PLUNGE)
F333 X69.669 Y229.018 Z-12.700 ; Z-12.700
F333 X71.866 Y228.338 Z-15.000 ; Z-15.000
( MOVEMENT_FINISH_CUTTING)
F1200 X71.866 Y228.338 Z-15.000 ; Z-15.000
F1200 X76.643 Y226.860 Z-15.000 ; Z-15.000
F1200 X81.419 Y225.383 Z-15.000 ; Z-15.000
F1200 X86.196 Y223.905 Z-15.000 ; Z-15.000
F1200 X90.973 Y222.428 Z-15.000 ; Z-15.000
F1200 X95.750 Y220.950 Z-15.000 ; Z-15.000
F1200 X100.526 Y219.473 Z-15.000 ; Z-15.000
F1200 X105.303 Y217.995 Z-15.000 ; Z-15.000
F1200 X110.080 Y216.518 Z-15.000 ; Z-15.000
F1200 X110.131 Y216.502 Z-15.000 ; Z-15.000
F1200 X110.131 Y216.502 Z-15.000 ; Z-15.000
F1200 X112.328 Y215.822 Z-12.700 ; Z-12.700
F1200 X112.328 Y215.822 Z-12.700 ; Z-12.700
F1200 X117.105 Y214.344 Z-12.700 ; Z-12.700
F1200 X118.060 Y214.049 Z-12.700 ; Z-12.700
( MOVEMENT_PLUNGE)
F333 X118.060 Y214.049 Z-12.700 ; Z-12.700
F333 X120.258 Y213.369 Z-15.000 ; Z-15.000
( MOVEMENT_FINISH_CUTTING)
F1200 X120.258 Y213.369 Z-15.000 ; Z-15.000
F1200 X125.035 Y211.891 Z-15.000 ; Z-15.000
F1200 X129.811 Y210.414 Z-15.000 ; Z-15.000
F1200 X134.588 Y208.936 Z-15.000 ; Z-15.000
F1200 X139.365 Y207.459 Z-15.000 ; Z-15.000
F1200 X139.390 Y207.451 Z-15.000 ; Z-15.000
G2 X141.5 Y204.727 I-0.887 J-2.866 F1200
( MOVEMENT_LEAD_OUT)
G3 X142.127 Y204.156 I0.599 J0.028 F1200
G1F1200 X142.127 Y204.156 Z-15.000 ; Z-15.000
G1F1200 X142.727 Y204.185 Z-15.000 ; Z-15.000
F1200 X142.727 Y204.185 Z-15.000 ; Z-15.000
F1200 X142.794 Y204.188 Z-14.996 ; Z-14.996
F1200 X142.794 Y204.188 Z-14.996 ; Z-14.996
F1200 X142.860 Y204.191 Z-14.985 ; Z-14.985
F1200 X142.860 Y204.191 Z-14.985 ; Z-14.985
F1200 X142.925 Y204.194 Z-14.966 ; Z-14.966
F1200 X142.925 Y204.194 Z-14.966 ; Z-14.966
F1200 X142.987 Y204.197 Z-14.941 ; Z-14.941
F1200 X142.987 Y204.197 Z-14.941 ; Z-14.941
F1200 X143.046 Y204.200 Z-14.908 ; Z-14.908
F1200 X143.046 Y204.200 Z-14.908 ; Z-14.908
F1200 X143.100 Y204.203 Z-14.869 ; Z-14.869
F1200 X143.100 Y204.203 Z-14.869 ; Z-14.869
F1200 X143.151 Y204.205 Z-14.824 ; Z-14.824
F1200 X143.151 Y204.205 Z-14.824 ; Z-14.824
F1200 X143.195 Y204.207 Z-14.774 ; Z-14.774
F1200 X143.195 Y204.207 Z-14.774 ; Z-14.774
F1200 X143.234 Y204.209 Z-14.719 ; Z-14.719
F1200 X143.234 Y204.209 Z-14.719 ; Z-14.719
F1200 X143.267 Y204.211 Z-14.660 ; Z-14.660
F1200 X143.267 Y204.211 Z-14.660 ; Z-14.660
F1200 X143.292 Y204.212 Z-14.598 ; Z-14.598
F1200 X143.292 Y204.212 Z-14.598 ; Z-14.598
F1200 X143.311 Y204.213 Z-14.534 ; Z-14.534
F1200 X143.311 Y204.213 Z-14.534 ; Z-14.534
F1200 X143.322 Y204.213 Z-14.467 ; Z-14.467
F1200 X143.322 Y204.213 Z-14.467 ; Z-14.467
F1200 X143.326 Y204.213 Z-14.400 ; Z-14.400
( MOVEMENT_RAPID)
G0F300 X143.326 Y204.213 Z-14.400 ; Z-14.400
G0F300 X143.326 Y204.213 Z-9.400 ; Z-9.400
G0F300 X143.326 Y204.213 Z-4.400 ; Z-4.400
G0F300 X143.326 Y204.213 Z0.600 ; Z0.600
G0F300 X143.326 Y204.213 Z5.000 ; Z5.000
F2500 X143.326 Y204.213 Z5.000 ; Z5.000
F2500 X143.269 Y205.412 Z5.000 ; Z5.000
( MOVEMENT_PLUNGE)
G1F333 X143.269 Y205.412 Z5.000 ; Z5.000
G1F333 X143.269 Y205.412 Z0.000 ; Z0.000
G1F333 X143.269 Y205.412 Z-5.000 ; Z-5.000
G1F333 X143.269 Y205.412 Z-10.000 ; Z-10.000
G1F333 X143.269 Y205.412 Z-14.000 ; Z-14.000
F333 X143.269 Y205.412 Z-14.000 ; Z-14.000
F333 X143.269 Y205.412 Z-17.100 ; Z-17.100
( MOVEMENT_LEAD_IN)
F1200 X143.269 Y205.412 Z-17.100 ; Z-17.100
F1200 X143.265 Y205.412 Z-17.167 ; Z-17.167
F1200 X143.265 Y205.412 Z-17.167 ; Z-17.167
F1200 X143.254 Y205.411 Z-17.234 ; Z-17.234
F1200 X143.254 Y205.411 Z-17.234 ; Z-17.234
F1200 X143.236 Y205.410 Z-17.298 ; Z-17.298
F1200 X143.236 Y205.410 Z-17.298 ; Z-17.298
F1200 X143.210 Y205.409 Z-17.360 ; Z-17.360
F1200 X143.210 Y205.409 Z-17.360 ; Z-17.360
F1200 X143.177 Y205.408 Z-17.419 ; Z-17.419
F1200 X143.177 Y205.408 Z-17.419 ; Z-17.419
F1200 X143.138 Y205.406 Z-17.474 ; Z-17.474
F1200 X143.138 Y205.406 Z-17.474 ; Z-17.474
F1200 X143.094 Y205.404 Z-17.524 ; Z-17.524
F1200 X143.094 Y205.404 Z-17.524 ; Z-17.524
F1200 X143.043 Y205.401 Z-17.569 ; Z-17.569
F1200 X143.043 Y205.401 Z-17.569 ; Z-17.569
F1200 X142.989 Y205.399 Z-17.608 ; Z-17.608
F1200 X142.989 Y205.399 Z-17.608 ; Z-17.608
F1200 X142.930 Y205.396 Z-17.641 ; Z-17.641
F1200 X142.930 Y205.396 Z-17.641 ; Z-17.641
F1200 X142.868 Y205.393 Z-17.666 ; Z-17.666
F1200 X142.868 Y205.393 Z-17.666 ; Z-17.666
F1200 X142.803 Y205.390 Z-17.685 ; Z-17.685
F1200 X142.803 Y205.390 Z-17.685 ; Z-17.685
F1200 X142.737 Y205.387 Z-17.696 ; Z-17.696
F1200 X142.737 Y205.387 Z-17.696 ; Z-17.696
F1200 X142.670 Y205.384 Z-17.700 ; Z-17.700
F1200 X142.670 Y205.384 Z-17.700 ; Z-17.700
F1200 X142.070 Y205.355 Z-17.700 ; Z-17.700
G3 X141.5 Y204.727 I0.028 J-0.599 F1200
( MOVEMENT_FINISH_CUTTING)
G2 X139.771 Y201.866 I-2.997 J-0.142 F1200
G1F1200 X139.771 Y201.866 Z-17.700 ; Z-17.700
G1F1200 X135.239 Y199.753 Z-17.700 ; Z-17.700
G1F1200 X130.708 Y197.640 Z-17.700 ; Z-17.700
G1F1200 X126.176 Y195.527 Z-17.700 ; Z-17.700
G1F1200 X124.068 Y194.544 Z-17.700 ; Z-17.700
F1200 X124.068 Y194.544 Z-17.700 ; Z-17.700
F1200 X120.864 Y193.050 Z-14.164 ; Z-14.164
F1200 X119.537 Y192.431 Z-12.700 ; Z-12.700
F1200 X119.537 Y192.431 Z-12.700 ; Z-12.700
F1200 X115.006 Y190.318 Z-12.700 ; Z-12.700
F1200 X114.099 Y189.895 Z-12.700 ; Z-12.700
( MOVEMENT_PLUNGE)
F333 X114.099 Y189.895 Z-12.700 ; Z-12.700
F333 X110.895 Y188.401 Z-16.235 ; Z-16.235
F333 X109.567 Y187.782 Z-17.700 ; Z-17.700
( MOVEMENT_FINISH_CUTTING)
F1200 X109.567 Y187.782 Z-17.700 ; Z-17.700
F1200 X105.035 Y185.669 Z-17.700 ; Z-17.700
F1200 X100.504 Y183.556 Z-17.700 ; Z-17.700
F1200 X95.972 Y181.443 Z-17.700 ; Z-17.700
F1200 X91.441 Y179.330 Z-17.700 ; Z-17.700
F1200 X86.909 Y177.217 Z-17.700 ; Z-17.700
F1200 X82.378 Y175.104 Z-17.700 ; Z-17.700
F1200 X78.160 Y173.137 Z-17.700 ; Z-17.700
F1200 X78.160 Y173.137 Z-17.700 ; Z-17.700
F1200 X74.956 Y171.643 Z-14.164 ; Z-14.164
F1200 X73.629 Y171.024 Z-12.700 ; Z-12.700
F1200 X73.629 Y171.024 Z-12.700 ; Z-12.700
F1200 X69.098 Y168.911 Z-12.700 ; Z-12.700
F1200 X68.191 Y168.488 Z-12.700 ; Z-12.700
( MOVEMENT_PLUNGE)
F333 X68.191 Y168.488 Z-12.700 ; Z-12.700
F333 X64.987 Y166.994 Z-16.235 ; Z-16.235
F333 X63.659 Y166.375 Z-17.700 ; Z-17.700
( MOVEMENT_FINISH_CUTTING)
F1200 X63.659 Y166.375 Z-17.700 ; Z-17.700
F1200 X59.127 Y164.262 Z-17.700 ; Z-17.700
F1200 X54.596 Y162.149 Z-17.700 ; Z-17.700
F1200 X50.064 Y160.035 Z-17.700 ; Z-17.700
F1200 X45.533 Y157.922 Z-17.700 ; Z-17.700
F1200 X41.001 Y155.809 Z-17.700 ; Z-17.700
F1200 X36.470 Y153.696 Z-17.700 ; Z-17.700
F1200 X32.252 Y151.729 Z-17.700 ; Z-17.700
F1200 X32.252 Y151.729 Z-17.700 ; Z-17.700
F1200 X29.048 Y150.235 Z-14.164 ; Z-14.164
F1200 X27.721 Y149.616 Z-12.700 ; Z-12.700
F1200 X27.721 Y149.616 Z-12.700 ; Z-12.700
F1200 X23.189 Y147.503 Z-12.700 ; Z-12.700
F1200 X22.283 Y147.081 Z-12.700 ; Z-12.700
( MOVEMENT_PLUNGE)
F333 X22.283 Y147.081 Z-12.700 ; Z-12.700
F333 X19.079 Y145.586 Z-16.235 ; Z-16.235
F333 X17.751 Y144.967 Z-17.700 ; Z-17.700
( MOVEMENT_FINISH_CUTTING)
F1200 X17.751 Y144.967 Z-17.700 ; Z-17.700
F1200 X13.219 Y142.854 Z-17.700 ; Z-17.700
F1200 X8.688 Y140.741 Z-17.700 ; Z-17.700
F1200 X4.156 Y138.628 Z-17.700 ; Z-17.700
F1200 X1.268 Y137.281 Z-17.700 ; Z-17.700
G2 X-3 Y140 I-1.268 J2.719 F1200
G1F1200 X-3.000 Y140.000 Z-17.700 ; Z-17.700
G1F1200 X-3.000 Y145.000 Z-17.700 ; Z-17.700
G1F1200 X-3.000 Y150.000 Z-17.700 ; Z-17.700
G1F1200 X-3.000 Y155.000 Z-17.700 ; Z-17.700
G1F1200 X-3.000 Y156.466 Z-17.700 ; Z-17.700
F1200 X-3.000 Y156.466 Z-17.700 ; Z-17.700
F1200 X-3.000 Y160.002 Z-14.164 ; Z-14.164
F1200 X-3.000 Y161.466 Z-12.700 ; Z-12.700
F1200 X-3.000 Y161.466 Z-12.700 ; Z-12.700
F1200 X-3.000 Y166.466 Z-12.700 ; Z-12.700
F1200 X-3.000 Y167.466 Z-12.700 ; Z-12.700
( MOVEMENT_PLUNGE)
F333 X-3.000 Y167.466 Z-12.700 ; Z-12.700
F333 X-3.000 Y171.002 Z-16.236 ; Z-16.236
F333 X-3.000 Y172.466 Z-17.700 ; Z-17.700
( MOVEMENT_FINISH_CUTTING)
F1200 X-3.000 Y172.466 Z-17.700 ; Z-17.700
F1200 X-3.000 Y177.466 Z-17.700 ; Z-17.700
F1200 X-3.000 Y182.466 Z-17.700 ; Z-17.700
F1200 X-3.000 Y187.466 Z-17.700 ; Z-17.700
F1200 X-3.000 Y192.466 Z-17.700 ; Z-17.700
F1200 X-3.000 Y197.466 Z-17.700 ; Z-17.700
F1200 X-3.000 Y202.466 Z-17.700 ; Z-17.700
F1200 X-3.000 Y207.119 Z-17.700 ; Z-17.700
F1200 X-3.000 Y207.119 Z-17.700 ; Z-17.700
F1200 X-3.000 Y210.655 Z-14.164 ; Z-14.164
F1200 X-3.000 Y212.119 Z-12.700 ; Z-12.700
F1200 X-3.000 Y212.119 Z-12.700 ; Z-12.700
F1200 X-3.000 Y217.119 Z-12.700 ; Z-12.700
F1200 X-3.000 Y218.119 Z-12.700 ; Z-12.700
( MOVEMENT_PLUNGE)
F333 X-3.000 Y218.119 Z-12.700 ; Z-12.700
F333 X-3.000 Y221.655 Z-16.236 ; Z-16.236
F333 X-3.000 Y223.119 Z-17.700 ; Z-17.700
( MOVEMENT_FINISH_CUTTING)
F1200 X-3.000 Y223.119 Z-17.700 ; Z-17.700
F1200 X-3.000 Y228.119 Z-17.700 ; Z-17.700
F1200 X-3.000 Y233.119 Z-17.700 ; Z-17.700
F1200 X-3.000 Y238.119 Z-17.700 ; Z-17.700
F1200 X-3.000 Y243.119 Z-17.700 ; Z-17.700
F1200 X-3.000 Y247.428 Z-17.700 ; Z-17.700
G2 X0.887 Y250.294 I3 F1200
G1F1200 X0.887 Y250.294 Z-17.700 ; Z-17.700
G1F1200 X5.664 Y248.816 Z-17.700 ; Z-17.700
G1F1200 X10.440 Y247.339 Z-17.700 ; Z-17.700
G1F1200 X10.769 Y247.237 Z-17.700 ; Z-17.700
F1200 X10.769 Y247.237 Z-17.700 ; Z-17.700
F1200 X14.147 Y246.192 Z-14.165 ; Z-14.165
F1200 X15.546 Y245.759 Z-12.700 ; Z-12.700
F1200 X15.546 Y245.759 Z-12.700 ; Z-12.700
F1200 X20.323 Y244.281 Z-12.700 ; Z-12.700
F1200 X21.278 Y243.986 Z-12.700 ; Z-12.700
( MOVEMENT_PLUNGE)
F333 X21.278 Y243.986 Z-12.700 ; Z-12.700
F333 X24.656 Y242.942 Z-16.235 ; Z-16.235
F333 X26.055 Y242.509 Z-17.700 ; Z-17.700
( MOVEMENT_FINISH_CUTTING)
F1200 X26.055 Y242.509 Z-17.700 ; Z-17.700
F1200 X30.832 Y241.031 Z-17.700 ; Z-17.700
F1200 X35.608 Y239.554 Z-17.700 ; Z-17.700
F1200 X40.385 Y238.076 Z-17.700 ; Z-17.700
F1200 X45.162 Y236.598 Z-17.700 ; Z-17.700
F1200 X49.938 Y235.121 Z-17.700 ; Z-17.700
F1200 X54.715 Y233.643 Z-17.700 ; Z-17.700
F1200 X59.160 Y232.268 Z-17.700 ; Z-17.700
F1200 X59.160 Y232.268 Z-17.700 ; Z-17.700
F1200 X62.538 Y231.224 Z-14.165 ; Z-14.165
F1200 X63.937 Y230.791 Z-12.700 ; Z-12.700
F1200 X63.937 Y230.791 Z-12.700 ; Z-12.700
F1200 X68.714 Y229.313 Z-12.700 ; Z-12.700
F1200 X69.669 Y229.018 Z-12.700 ; Z-12.700
( MOVEMENT_PLUNGE)
F333 X69.669 Y229.018 Z-12.700 ; Z-12.700
F333 X73.047 Y227.973 Z-16.235 ; Z-16.235
F333 X74.446 Y227.540 Z-17.700 ; Z-17.700
( MOVEMENT_FINISH_CUTTING)
F1200 X74.446 Y227.540 Z-17.700 ; Z-17.700
F1200 X79.223 Y226.062 Z-17.700 ; Z-17.700
F1200 X83.999 Y224.585 Z-17.700 ; Z-17.700
F1200 X88.776 Y223.107 Z-17.700 ; Z-17.700
F1200 X93.553 Y221.630 Z-17.700 ; Z-17.700
F1200 X98.329 Y220.152 Z-17.700 ; Z-17.700
F1200 X103.106 Y218.674 Z-17.700 ; Z-17.700
F1200 X107.552 Y217.299 Z-17.700 ; Z-17.700
F1200 X107.552 Y217.299 Z-17.700 ; Z-17.700
F1200 X110.929 Y216.255 Z-14.164 ; Z-14.164
F1200 X112.328 Y215.822 Z-12.700 ; Z-12.700
F1200 X112.328 Y215.822 Z-12.700 ; Z-12.700
F1200 X117.105 Y214.344 Z-12.700 ; Z-12.700
F1200 X118.060 Y214.049 Z-12.700 ; Z-12.700
( MOVEMENT_PLUNGE)
F333 X118.060 Y214.049 Z-12.700 ; Z-12.700
F333 X121.438 Y213.004 Z-16.235 ; Z-16.235
F333 X122.837 Y212.571 Z-17.700 ; Z-17.700
( MOVEMENT_FINISH_CUTTING)
F1200 X122.837 Y212.571 Z-17.700 ; Z-17.700
F1200 X127.614 Y211.094 Z-17.700 ; Z-17.700
F1200 X132.390 Y209.616 Z-17.700 ; Z-17.700
F1200 X137.167 Y208.139 Z-17.700 ; Z-17.700
F1200 X139.390 Y207.451 Z-17.700 ; Z-17.700
G2 X141.5 Y204.727 I-0.887 J-2.866 F1200
( MOVEMENT_LEAD_OUT)
G3 X142.127 Y204.156 I0.599 J0.028 F1200
G1F1200 X142.127 Y204.156 Z-17.700 ; Z-17.700
G1F1200 X142.727 Y204.185 Z-17.700 ; Z-17.700
F1200 X142.727 Y204.185 Z-17.700 ; Z-17.700
F1200 X142.794 Y204.188 Z-17.696 ; Z-17.696
F1200 X142.794 Y204.188 Z-17.696 ; Z-17.696
F1200 X142.860 Y204.191 Z-17.685 ; Z-17.685
F1200 X142.860 Y204.191 Z-17.685 ; Z-17.685
F1200 X142.925 Y204.194 Z-17.666 ; Z-17.666
F1200 X142.925 Y204.194 Z-17.666 ; Z-17.666
F1200 X142.987 Y204.197 Z-17.641 ; Z-17.641
F1200 X142.987 Y204.197 Z-17.641 ; Z-17.641
F1200 X143.046 Y204.200 Z-17.608 ; Z-17.608
F1200 X143.046 Y204.200 Z-17.608 ; Z-17.608
F1200 X143.100 Y204.203 Z-17.569 ; Z-17.569
F1200 X143.100 Y204.203 Z-17.569 ; Z-17.569
F1200 X143.151 Y204.205 Z-17.524 ; Z-17.524
F1200 X143.151 Y204.205 Z-17.524 ; Z-17.524
F1200 X143.195 Y204.207 Z-17.474 ; Z-17.474
F1200 X143.195 Y204.207 Z-17.474 ; Z-17.474
F1200 X143.234 Y204.209 Z-17.419 ; Z-17.419
F1200 X143.234 Y204.209 Z-17.419 ; Z-17.419
F1200 X143.267 Y204.211 Z-17.360 ; Z-17.360
F1200 X143.267 Y204.211 Z-17.360 ; Z-17.360
F1200 X143.292 Y204.212 Z-17.298 ; Z-17.298
F1200 X143.292 Y204.212 Z-17.298 ; Z-17.298
F1200 X143.311 Y204.213 Z-17.234 ; Z-17.234
F1200 X143.311 Y204.213 Z-17.234 ; Z-17.234
F1200 X143.322 Y204.213 Z-17.167 ; Z-17.167
F1200 X143.322 Y204.213 Z-17.167 ; Z-17.167
F1200 X143.326 Y204.213 Z-17.100 ; Z-17.100
( MOVEMENT_RAPID)
G0F300 X143.326 Y204.213 Z-17.100 ; Z-17.100
G0F300 X143.326 Y204.213 Z-12.100 ; Z-12.100
G0F300 X143.326 Y204.213 Z-7.100 ; Z-7.100
G0F300 X143.326 Y204.213 Z-2.100 ; Z-2.100
